;FLAVOR:Marlin
;TIME:1035
;Filament used: 0.667004m
;Layer height: 0.16
;Generated with Cura_SteamEngine 4.0.0
M140 S65
M105
M190 S65
M104 S205
M105
M109 S205
M82 ;absolute extrusion mode
; Ender 3 Custom Start G-code
M117 Clean ; Indicate nozzle clean in progress on LCD
M107 ; Turn layer fan off
G21 ; Set to metric [change to G20 if you want Imperial]
G28 ; Home all axes
; ***SET NEW E STEP *** (93 is factory value)
G90                          ; Force coordinates to be absolute relative to the origin
M92 E95 ;
G90                          ; Force coordinates to be absolute relative to the origin
G28                          ; Home X/Y/Z axis
;
G92 E0 ; Reset Extruder
G1 Z2.0 F3000 ; Move Z Axis up little to prevent scratching of Heat Bed
G1 X0.1 Y20 Z0.3 F5000.0 ; Move to start position
G1 X0.1 Y200.0 Z0.3 F1500.0 E15 ; Draw the first line
G1 X0.4 Y200.0 Z0.3 F5000.0 ; Move to side a little
G1 X0.4 Y20 Z0.3 F1500.0 E30 ; Draw the second line
G92 E0 ; Reset Extruder
G1 Z2.0 F3000 ; Move Z Axis up little to prevent scratching of Heat Bed
M117 Printing ; Indicate printing on LCD
; End of custom start GCode
G92 E0
G1 F3000 E-6
;LAYER_COUNT:63
;LAYER:0
M107
M204 S5000
M205 X30 Y30
G0 F7200 X100.071 Y115.096 Z0.16
M204 S500
M205 X20 Y20
;TYPE:SKIRT
G1 F3000 E0
G1 F1200 X100.603 Y114.617 E0.01905
G1 X101.185 Y114.202 E0.03807
G1 X101.81 Y113.853 E0.05711
G1 X102.47 Y113.577 E0.07615
G1 X103.156 Y113.376 E0.09517
G1 X103.861 Y113.253 E0.11421
G1 X104.609 Y113.209 E0.13415
G1 X140.391 Y113.21 E1.08624
G1 X141.105 Y113.25 E1.10527
G1 X141.811 Y113.369 E1.12432
G1 X142.498 Y113.567 E1.14334
G1 X143.159 Y113.84 E1.16237
G1 X143.786 Y114.185 E1.18141
G1 X144.37 Y114.597 E1.20043
G1 X144.905 Y115.073 E1.21949
G1 X145.383 Y115.605 E1.23852
G1 X145.798 Y116.187 E1.25753
G1 X146.147 Y116.811 E1.27656
G1 X146.423 Y117.471 E1.29559
G1 X146.624 Y118.157 E1.31461
G1 X146.747 Y118.862 E1.33366
G1 X146.791 Y119.61 E1.35359
G1 X146.791 Y135.391 E1.7735
G1 X146.751 Y136.105 E1.79252
G1 X146.632 Y136.81 E1.81155
G1 X146.434 Y137.498 E1.8306
G1 X146.161 Y138.159 E1.84963
G1 X145.817 Y138.786 E1.86866
G1 X145.404 Y139.37 E1.88769
G1 X144.929 Y139.904 E1.9067
G1 X144.397 Y140.383 E1.92575
G1 X143.815 Y140.798 E1.94477
G1 X143.19 Y141.147 E1.96382
G1 X142.53 Y141.423 E1.98285
G1 X141.844 Y141.624 E2.00187
G1 X141.139 Y141.747 E2.02092
G1 X140.391 Y141.791 E2.04085
G1 X104.609 Y141.791 E2.99295
G1 X103.895 Y141.751 E3.01197
G1 X103.19 Y141.632 E3.031
G1 X102.502 Y141.434 E3.05005
G1 X101.841 Y141.161 E3.06908
G1 X101.214 Y140.817 E3.08811
G1 X100.63 Y140.404 E3.10714
G1 X100.096 Y139.929 E3.12615
G1 X99.617 Y139.397 E3.1452
G1 X99.202 Y138.815 E3.16422
G1 X98.853 Y138.19 E3.18327
G1 X98.577 Y137.53 E3.2023
G1 X98.376 Y136.844 E3.22132
G1 X98.253 Y136.139 E3.24037
G1 X98.209 Y135.391 E3.2603
G1 X98.209 Y119.609 E3.68023
G1 X98.249 Y118.895 E3.69926
G1 X98.368 Y118.19 E3.71828
G1 X98.566 Y117.502 E3.73733
G1 X98.839 Y116.841 E3.75636
G1 X99.183 Y116.214 E3.77539
G1 X99.596 Y115.63 E3.79442
G1 X100.071 Y115.096 E3.81344
M204 S5000
M205 X30 Y30
G0 F7200 X100.465 Y115.27
M204 S500
M205 X20 Y20
G1 F1200 X100.993 Y114.821 E3.83188
G1 X101.568 Y114.436 E3.8503
G1 X102.185 Y114.121 E3.86873
G1 X102.833 Y113.878 E3.88714
G1 X103.506 Y113.711 E3.90559
G1 X104.192 Y113.623 E3.924
G1 X104.609 Y113.609 E3.9351
G1 X140.391 Y113.61 E4.88719
G1 X141.083 Y113.65 E4.90563
G1 X141.765 Y113.769 E4.92405
G1 X142.429 Y113.967 E4.94249
G1 X143.065 Y114.239 E4.9609
G1 X143.666 Y114.583 E4.97932
G1 X144.224 Y114.994 E4.99776
G1 X144.73 Y115.466 E5.01617
G1 X145.179 Y115.994 E5.03462
G1 X145.564 Y116.57 E5.05305
G1 X145.88 Y117.186 E5.07147
G1 X146.122 Y117.834 E5.08988
G1 X146.289 Y118.507 E5.10833
G1 X146.377 Y119.194 E5.12676
G1 X146.391 Y119.61 E5.13783
G1 X146.391 Y135.391 E5.55773
G1 X146.351 Y136.082 E5.57615
G1 X146.232 Y136.765 E5.5946
G1 X146.034 Y137.428 E5.61301
G1 X145.762 Y138.065 E5.63144
G1 X145.418 Y138.666 E5.64987
G1 X145.007 Y139.224 E5.66831
G1 X144.535 Y139.73 E5.68672
G1 X144.007 Y140.179 E5.70516
G1 X143.432 Y140.564 E5.72357
G1 X142.815 Y140.879 E5.742
G1 X142.167 Y141.122 E5.76042
G1 X141.494 Y141.289 E5.77887
G1 X140.808 Y141.377 E5.79727
G1 X140.391 Y141.391 E5.80837
G1 X104.609 Y141.391 E6.76047
G1 X103.918 Y141.351 E6.77888
G1 X103.235 Y141.232 E6.79733
G1 X102.572 Y141.034 E6.81574
G1 X101.935 Y140.762 E6.83417
G1 X101.334 Y140.418 E6.8526
G1 X100.776 Y140.007 E6.87104
G1 X100.27 Y139.535 E6.88945
G1 X99.821 Y139.007 E6.90789
G1 X99.436 Y138.432 E6.9263
G1 X99.121 Y137.815 E6.94474
G1 X98.878 Y137.167 E6.96315
G1 X98.711 Y136.494 E6.9816
G1 X98.623 Y135.808 E7
G1 X98.609 Y135.391 E7.01111
G1 X98.609 Y119.609 E7.43103
G1 X98.649 Y118.918 E7.44945
G1 X98.768 Y118.235 E7.4679
G1 X98.966 Y117.572 E7.48631
G1 X99.238 Y116.935 E7.50474
G1 X99.582 Y116.334 E7.52317
G1 X99.993 Y115.776 E7.54161
G1 X100.465 Y115.27 E7.56002
M204 S5000
M205 X30 Y30
G0 F7200 X100.858 Y115.451
M204 S500
M205 X20 Y20
G1 F1200 X101.38 Y115.033 E7.57781
G1 X101.949 Y114.681 E7.59561
G1 X102.556 Y114.399 E7.61342
G1 X103.192 Y114.191 E7.63123
G1 X103.848 Y114.061 E7.64902
G1 X104.609 Y114.009 E7.66932
G1 X140.391 Y114.01 E8.62141
G1 X141.059 Y114.05 E8.63922
G1 X141.717 Y114.169 E8.65701
G1 X142.357 Y114.366 E8.67483
G1 X142.968 Y114.638 E8.69262
G1 X143.543 Y114.981 E8.71044
G1 X144.072 Y115.39 E8.72823
G1 X144.549 Y115.859 E8.74603
G1 X144.967 Y116.382 E8.76384
G1 X145.319 Y116.95 E8.78162
G1 X145.601 Y117.557 E8.79943
G1 X145.809 Y118.193 E8.81724
G1 X145.939 Y118.849 E8.83503
G1 X145.991 Y119.61 E8.85533
G1 X145.991 Y135.391 E9.27523
G1 X145.951 Y136.059 E9.29304
G1 X145.832 Y136.717 E9.31083
G1 X145.635 Y137.357 E9.32865
G1 X145.363 Y137.968 E9.34644
G1 X145.02 Y138.542 E9.36423
G1 X144.611 Y139.072 E9.38205
G1 X144.142 Y139.549 E9.39985
G1 X143.62 Y139.967 E9.41764
G1 X143.051 Y140.319 E9.43544
G1 X142.444 Y140.601 E9.45325
G1 X141.808 Y140.809 E9.47106
G1 X141.152 Y140.939 E9.48885
G1 X140.391 Y140.991 E9.50915
G1 X104.609 Y140.991 E10.46124
G1 X103.941 Y140.951 E10.47904
G1 X103.283 Y140.832 E10.49684
G1 X102.643 Y140.635 E10.51465
G1 X102.032 Y140.363 E10.53245
G1 X101.458 Y140.02 E10.55024
G1 X100.928 Y139.611 E10.56805
G1 X100.451 Y139.142 E10.58585
G1 X100.033 Y138.62 E10.60365
G1 X99.681 Y138.051 E10.62145
G1 X99.399 Y137.444 E10.63926
G1 X99.191 Y136.808 E10.65706
G1 X99.061 Y136.152 E10.67486
G1 X99.009 Y135.391 E10.69515
G1 X99.009 Y119.609 E11.11508
G1 X99.049 Y118.941 E11.13289
G1 X99.168 Y118.283 E11.15068
G1 X99.365 Y117.643 E11.1685
G1 X99.637 Y117.032 E11.1863
G1 X99.98 Y116.458 E11.20409
G1 X100.389 Y115.928 E11.2219
G1 X100.858 Y115.451 E11.2397
M204 S5000
M205 X30 Y30
G0 F7200 X100.784 Y116.086
M204 S500
M205 X20 Y20
G1 F1200 X101.249 Y115.64 E11.25684
G1 X101.766 Y115.255 E11.274
G1 X102.327 Y114.936 E11.29117
G1 X102.923 Y114.69 E11.30832
G1 X103.544 Y114.519 E11.32546
G1 X104.182 Y114.427 E11.34261
G1 X104.609 Y114.409 E11.35399
G1 X140.391 Y114.41 E12.30608
G1 X141.035 Y114.45 E12.32325
G1 X141.668 Y114.569 E12.34038
G1 X142.282 Y114.766 E12.35754
G1 X142.867 Y115.037 E12.3747
G1 X143.414 Y115.379 E12.39186
G1 X143.914 Y115.785 E12.409
G1 X144.36 Y116.251 E12.42616
G1 X144.745 Y116.768 E12.44331
G1 X145.064 Y117.328 E12.46046
G1 X145.31 Y117.924 E12.47762
G1 X145.481 Y118.546 E12.49478
G1 X145.573 Y119.183 E12.51191
G1 X145.591 Y119.61 E12.52328
G1 X145.591 Y135.391 E12.94318
G1 X145.551 Y136.034 E12.96032
G1 X145.432 Y136.668 E12.97749
G1 X145.235 Y137.282 E12.99465
G1 X144.964 Y137.867 E13.0118
G1 X144.622 Y138.414 E13.02897
G1 X144.216 Y138.914 E13.0461
G1 X143.751 Y139.36 E13.06325
G1 X143.234 Y139.745 E13.0804
G1 X142.673 Y140.064 E13.09757
G1 X142.077 Y140.31 E13.11473
G1 X141.456 Y140.481 E13.13187
G1 X140.818 Y140.573 E13.14902
G1 X140.391 Y140.591 E13.16039
G1 X104.609 Y140.591 E14.11248
G1 X103.966 Y140.551 E14.12962
G1 X103.332 Y140.432 E14.14679
G1 X102.718 Y140.235 E14.16395
G1 X102.133 Y139.964 E14.1811
G1 X101.586 Y139.622 E14.19827
G1 X101.086 Y139.216 E14.2154
G1 X100.64 Y138.751 E14.23255
G1 X100.255 Y138.234 E14.2497
G1 X99.936 Y137.673 E14.26687
G1 X99.69 Y137.077 E14.28403
G1 X99.519 Y136.456 E14.30117
G1 X99.427 Y135.818 E14.31832
G1 X99.409 Y135.391 E14.32969
G1 X99.409 Y119.609 E14.74962
G1 X99.449 Y118.966 E14.76676
G1 X99.568 Y118.332 E14.78392
G1 X99.765 Y117.718 E14.80108
G1 X100.036 Y117.133 E14.81824
G1 X100.378 Y116.586 E14.8354
G1 X100.784 Y116.086 E14.85254
M204 S5000
M205 X30 Y30
G1 F3000 E8.85254
G1 F300 Z1.16
;MESH:base_boton_bajo.stl
G0 F7200 X116.763 Y123.37 Z1.16
M204 S500
M205 X20 Y20
;TYPE:WALL-INNER
G1 F300 Z0.16
G1 F3000 E14.85254
G1 F1200 X116.27 Y123.863 E14.87109
G1 X115.9 Y124.452 E14.8896
G1 X115.672 Y125.109 E14.9081
G1 X115.668 Y125.151 E14.90923
G1 X115.6 Y125.737 E14.92492
G1 X115.6 Y129.263 E15.01874
G1 X115.672 Y129.891 E15.03556
G1 X115.9 Y130.548 E15.05407
G1 X116.27 Y131.137 E15.07257
G1 X116.763 Y131.63 E15.09113
G1 X117.352 Y132 E15.10963
G1 X118.009 Y132.228 E15.12814
G1 X118.051 Y132.232 E15.12926
G1 X118.637 Y132.3 E15.14496
G1 X126.363 Y132.3 E15.35053
G1 X126.991 Y132.228 E15.36735
G1 X127.648 Y132 E15.38585
G1 X128.237 Y131.63 E15.40436
G1 X128.73 Y131.137 E15.42291
G1 X129.1 Y130.548 E15.44142
G1 X129.328 Y129.891 E15.45993
G1 X129.332 Y129.849 E15.46105
G1 X129.4 Y129.263 E15.47675
G1 X129.4 Y125.737 E15.57057
G1 X129.328 Y125.109 E15.58739
G1 X129.1 Y124.452 E15.60589
G1 X128.73 Y123.863 E15.6244
G1 X128.237 Y123.37 E15.64295
G1 X127.648 Y123 E15.66146
G1 X126.991 Y122.772 E15.67996
G1 X126.949 Y122.768 E15.68108
G1 X126.363 Y122.7 E15.69678
G1 X118.637 Y122.7 E15.90235
G1 X118.009 Y122.772 E15.91917
G1 X117.352 Y123 E15.93768
G1 X116.763 Y123.37 E15.95619
M204 S5000
M205 X30 Y30
G0 F7200 X117.014 Y123.685
M204 S500
M205 X20 Y20
G1 F1200 X116.585 Y124.114 E15.97233
G1 X116.263 Y124.626 E15.98842
G1 X116.064 Y125.198 E16.00454
G1 X116 Y125.76 E16.01959
G1 X116 Y129.24 E16.11218
G1 X116.064 Y129.802 E16.12723
G1 X116.263 Y130.374 E16.14335
G1 X116.585 Y130.886 E16.15944
G1 X117.014 Y131.315 E16.17559
G1 X117.526 Y131.637 E16.19168
G1 X118.098 Y131.836 E16.20779
G1 X118.66 Y131.9 E16.22284
G1 X126.34 Y131.9 E16.42719
G1 X126.902 Y131.836 E16.44225
G1 X127.474 Y131.637 E16.45836
G1 X127.986 Y131.315 E16.47445
G1 X128.415 Y130.886 E16.4906
G1 X128.737 Y130.374 E16.50669
G1 X128.936 Y129.802 E16.5228
G1 X129 Y129.24 E16.53786
G1 X129 Y125.76 E16.63045
G1 X128.936 Y125.198 E16.6455
G1 X128.737 Y124.626 E16.66162
G1 X128.415 Y124.114 E16.67771
G1 X127.986 Y123.685 E16.69385
G1 X127.474 Y123.363 E16.70995
G1 X126.902 Y123.164 E16.72606
G1 X126.34 Y123.1 E16.74111
G1 X118.66 Y123.1 E16.94546
G1 X118.098 Y123.164 E16.96051
G1 X117.526 Y123.363 E16.97663
G1 X117.014 Y123.685 E16.99272
M204 S5000
M205 X30 Y30
G0 F7200 X117.265 Y124
M204 S500
M205 X20 Y20
;TYPE:WALL-OUTER
G1 F1200 X116.9 Y124.365 E17.00646
G1 X116.626 Y124.801 E17.02016
G1 X116.456 Y125.288 E17.03388
G1 X116.4 Y125.783 E17.04714
G1 X116.4 Y129.217 E17.13851
G1 X116.456 Y129.712 E17.15176
G1 X116.626 Y130.199 E17.16549
G1 X116.9 Y130.635 E17.17919
G1 X117.265 Y131 E17.19293
G1 X117.701 Y131.274 E17.20663
G1 X118.188 Y131.444 E17.22035
G1 X118.683 Y131.5 E17.23361
G1 X126.317 Y131.5 E17.43673
G1 X126.812 Y131.444 E17.44999
G1 X127.299 Y131.274 E17.46371
G1 X127.735 Y131 E17.47742
G1 X128.1 Y130.635 E17.49115
G1 X128.374 Y130.199 E17.50485
G1 X128.544 Y129.712 E17.51858
G1 X128.6 Y129.217 E17.53183
G1 X128.6 Y125.783 E17.6232
G1 X128.544 Y125.288 E17.63646
G1 X128.374 Y124.801 E17.65018
G1 X128.1 Y124.365 E17.66389
G1 X127.735 Y124 E17.67762
G1 X127.299 Y123.726 E17.69132
G1 X126.812 Y123.556 E17.70505
G1 X126.317 Y123.5 E17.7183
G1 X118.683 Y123.5 E17.92143
G1 X118.188 Y123.556 E17.93468
G1 X117.701 Y123.726 E17.94841
G1 X117.265 Y124 E17.96211
M204 S5000
M205 X30 Y30
G0 F7200 X117.124 Y124.141
G0 X116.814 Y123.829
G0 X116.772 Y123.787
G0 X105.6 Y120.6
M204 S500
M205 X20 Y20
;TYPE:WALL-INNER
G1 F1200 X139.4 Y120.6 E18.86147
G1 X139.4 Y134.4 E19.22866
G1 X105.6 Y134.4 E20.12801
G1 X105.6 Y120.6 E20.4952
M204 S5000
M205 X30 Y30
G0 F7200 X105.2 Y120.2
M204 S500
M205 X20 Y20
G1 F1200 X139.8 Y120.2 E21.41584
G1 X139.8 Y134.8 E21.80432
G1 X105.2 Y134.8 E22.72496
G1 X105.2 Y120.2 E23.11344
M204 S5000
M205 X30 Y30
G0 F7200 X104.8 Y119.8
M204 S500
M205 X20 Y20
;TYPE:WALL-OUTER
G1 F1200 X140.2 Y119.8 E24.05537
G1 X140.2 Y135.2 E24.46513
G1 X104.8 Y135.2 E25.40706
G1 X104.8 Y119.8 E25.81682
M204 S5000
M205 X30 Y30
G0 F7200 X105 Y119.8
G0 X105.24 Y120.24
G0 X105.24 Y120.3
G0 X105.99 Y120.99
M204 S500
M205 X20 Y20
;TYPE:SKIN
G1 F1200 X139.01 Y120.99 E26.69542
G1 X139.01 Y134.01 E27.04186
G1 X105.99 Y134.01 E27.92046
G1 X105.99 Y120.99 E28.2669
M204 S5000
M205 X30 Y30
G0 F7200 X115.547 Y124.282
M204 S500
M205 X20 Y20
G1 F1200 X115.29 Y125.021 E28.28772
G1 X115.21 Y125.715 E28.30631
G1 X115.21 Y129.285 E28.4013
G1 X115.29 Y129.979 E28.41989
G1 X115.547 Y130.718 E28.4407
G1 X115.964 Y131.381 E28.46154
G1 X116.519 Y131.936 E28.48243
G1 X117.182 Y132.353 E28.50327
G1 X117.921 Y132.61 E28.52409
G1 X118.615 Y132.69 E28.54268
G1 X126.385 Y132.69 E28.74942
G1 X127.079 Y132.61 E28.76801
G1 X127.818 Y132.353 E28.78883
G1 X128.481 Y131.936 E28.80967
G1 X129.036 Y131.381 E28.83055
G1 X129.453 Y130.718 E28.85139
G1 X129.71 Y129.979 E28.87221
G1 X129.79 Y129.285 E28.8908
G1 X129.79 Y125.715 E28.98579
G1 X129.71 Y125.021 E29.00438
G1 X129.453 Y124.282 E29.0252
G1 X129.036 Y123.619 E29.04604
G1 X128.481 Y123.064 E29.06692
G1 X127.818 Y122.647 E29.08776
G1 X127.079 Y122.39 E29.10858
G1 X126.385 Y122.31 E29.12717
G1 X118.615 Y122.31 E29.33391
G1 X117.921 Y122.39 E29.3525
G1 X117.182 Y122.647 E29.37332
G1 X116.519 Y123.064 E29.39416
G1 X115.964 Y123.619 E29.41505
G1 X115.547 Y124.282 E29.43589
M204 S5000
M205 X30 Y30
G0 F7200 X106.768 Y133.829
M204 S500
M205 X20 Y20
G1 F1200 X106.17 Y133.231 E29.45839
M204 S5000
M205 X30 Y30
G0 F7200 X106.17 Y132.666
M204 S500
M205 X20 Y20
G1 F1200 X107.333 Y133.829 E29.50215
M204 S5000
M205 X30 Y30
G0 F7200 X107.899 Y133.829
M204 S500
M205 X20 Y20
G1 F1200 X106.17 Y132.1 E29.56721
M204 S5000
M205 X30 Y30
G0 F7200 X106.17 Y131.534
M204 S500
M205 X20 Y20
G1 F1200 X108.465 Y133.829 E29.65357
M204 S5000
M205 X30 Y30
G0 F7200 X109.03 Y133.829
M204 S500
M205 X20 Y20
G1 F1200 X106.17 Y130.968 E29.76121
M204 S5000
M205 X30 Y30
G0 F7200 X106.17 Y130.403
M204 S500
M205 X20 Y20
G1 F1200 X109.596 Y133.829 E29.89013
M204 S5000
M205 X30 Y30
G0 F7200 X110.162 Y133.829
M204 S500
M205 X20 Y20
G1 F1200 X106.17 Y129.837 E30.04035
M204 S5000
M205 X30 Y30
G0 F7200 X106.17 Y129.271
M204 S500
M205 X20 Y20
G1 F1200 X110.728 Y133.829 E30.21186
M204 S5000
M205 X30 Y30
G0 F7200 X111.293 Y133.829
M204 S500
M205 X20 Y20
G1 F1200 X106.17 Y128.706 E30.40464
M204 S5000
M205 X30 Y30
G0 F7200 X106.17 Y128.14
M204 S500
M205 X20 Y20
G1 F1200 X111.859 Y133.829 E30.61872
M204 S5000
M205 X30 Y30
G0 F7200 X112.425 Y133.829
M204 S500
M205 X20 Y20
G1 F1200 X106.17 Y127.574 E30.85409
M204 S5000
M205 X30 Y30
G0 F7200 X106.17 Y127.009
M204 S500
M205 X20 Y20
G1 F1200 X112.99 Y133.829 E31.11072
M204 S5000
M205 X30 Y30
G0 F7200 X113.556 Y133.829
M204 S500
M205 X20 Y20
G1 F1200 X106.17 Y126.443 E31.38865
M204 S5000
M205 X30 Y30
G0 F7200 X106.17 Y125.877
M204 S500
M205 X20 Y20
G1 F1200 X114.122 Y133.829 E31.68788
M204 S5000
M205 X30 Y30
G0 F7200 X114.687 Y133.829
M204 S500
M205 X20 Y20
G1 F1200 X106.17 Y125.312 E32.00837
M204 S5000
M205 X30 Y30
G0 F7200 X106.17 Y124.746
M204 S500
M205 X20 Y20
G1 F1200 X115.253 Y133.829 E32.35016
M204 S5000
M205 X30 Y30
G0 F7200 X115.819 Y133.829
M204 S500
M205 X20 Y20
G1 F1200 X106.17 Y124.18 E32.71325
M204 S5000
M205 X30 Y30
G0 F7200 X106.17 Y123.615
M204 S500
M205 X20 Y20
G1 F1200 X116.384 Y133.829 E33.0976
M204 S5000
M205 X30 Y30
G0 F7200 X116.95 Y133.829
M204 S500
M205 X20 Y20
G1 F1200 X106.17 Y123.049 E33.50325
M204 S5000
M205 X30 Y30
G0 F7200 X106.17 Y122.483
M204 S500
M205 X20 Y20
G1 F1200 X117.516 Y133.829 E33.93019
M204 S5000
M205 X30 Y30
G0 F7200 X118.081 Y133.829
M204 S500
M205 X20 Y20
