;FLAVOR:Marlin
;TIME:2353
;Filament used: 1.79097m
;Layer height: 0.16
;Generated with Cura_SteamEngine 4.0.0
M140 S65
M105
M190 S65
M104 S200
M105
M109 S200
M82 ;absolute extrusion mode
; Ender 3 Custom Start G-code
M117 Clean ; Indicate nozzle clean in progress on LCD
M107 ; Turn layer fan off
G21 ; Set to metric [change to G20 if you want Imperial]
G28 ; Home all axes
; ***SET NEW E STEP *** (93 is factory value)
G90                          ; Force coordinates to be absolute relative to the origin
M92 E95 ;
G90                          ; Force coordinates to be absolute relative to the origin
G28                          ; Home X/Y/Z axis
;
G92 E0 ; Reset Extruder
G1 Z2.0 F3000 ; Move Z Axis up little to prevent scratching of Heat Bed
G1 X0.1 Y20 Z0.3 F5000.0 ; Move to start position
G1 X0.1 Y200.0 Z0.3 F1500.0 E15 ; Draw the first line
G1 X0.4 Y200.0 Z0.3 F5000.0 ; Move to side a little
G1 X0.4 Y20 Z0.3 F1500.0 E30 ; Draw the second line
G92 E0 ; Reset Extruder
G1 Z2.0 F3000 ; Move Z Axis up little to prevent scratching of Heat Bed
M117 Printing ; Indicate printing on LCD
; End of custom start GCode
G92 E0
G1 F3000 E-6
;LAYER_COUNT:88
;LAYER:0
M107
M204 S5000
M205 X30 Y30
G0 F7200 X95.502 Y83.524 Z0.16
M204 S500
M205 X20 Y20
;TYPE:SKIRT
G1 F3000 E0
G1 F1200 X95.978 Y82.99 E0.01999
G1 X96.511 Y82.512 E0.03999
G1 X97.093 Y82.097 E0.05996
G1 X97.718 Y81.75 E0.07993
G1 X98.379 Y81.474 E0.09994
G1 X99.065 Y81.274 E0.11991
G1 X99.77 Y81.152 E0.1399
G1 X100.51 Y81.109 E0.16061
G1 X134.491 Y81.11 E1.10998
G1 X135.205 Y81.15 E1.12996
G1 X135.911 Y81.269 E1.14997
G1 X136.598 Y81.467 E1.16994
G1 X137.259 Y81.74 E1.18992
G1 X137.886 Y82.085 E1.20992
G1 X138.47 Y82.497 E1.22988
G1 X139.005 Y82.973 E1.24989
G1 X139.483 Y83.505 E1.26987
G1 X139.898 Y84.087 E1.28984
G1 X140.247 Y84.711 E1.30982
G1 X140.523 Y85.371 E1.32981
G1 X140.724 Y86.057 E1.34978
G1 X140.847 Y86.762 E1.36977
G1 X140.891 Y87.503 E1.39051
G1 X140.9 Y95.384 E1.61069
G1 X141.052 Y100.749 E1.76064
G1 X141.505 Y106.086 E1.91029
G1 X141.838 Y108.689 E1.9836
G1 X141.89 Y109.5 E2.00631
G1 X141.89 Y125.497 E2.45324
G1 X141.85 Y126.211 E2.47322
G1 X141.731 Y126.916 E2.4932
G1 X141.533 Y127.604 E2.5132
G1 X141.26 Y128.265 E2.53318
G1 X140.916 Y128.892 E2.55316
G1 X140.436 Y129.558 E2.5761
G1 X137.602 Y133.009 E2.70086
G1 X134.441 Y137.282 E2.84935
G1 X131.486 Y141.79 E2.99995
G1 X129.362 Y145.252 E3.11342
G1 X128.955 Y145.84 E3.1334
G1 X128.484 Y146.379 E3.1534
G1 X127.888 Y146.917 E3.17583
G1 X127.538 Y147.195 E3.18832
G1 X126.953 Y147.608 E3.20833
G1 X126.327 Y147.953 E3.2283
G1 X125.879 Y148.148 E3.24195
G1 X125.188 Y148.417 E3.26266
G1 X124.508 Y148.639 E3.28265
G1 X123.807 Y148.783 E3.30264
G1 X122.859 Y148.853 E3.3292
G1 X112.054 Y148.841 E3.63108
G1 X111.34 Y148.8 E3.65106
G1 X110.635 Y148.68 E3.67104
G1 X109.932 Y148.476 E3.69149
G1 X109.504 Y148.325 E3.70417
G1 X108.844 Y148.05 E3.72414
G1 X108.218 Y147.703 E3.74414
G1 X107.862 Y147.461 E3.75617
G1 X107.282 Y147.038 E3.77622
G1 X106.728 Y146.585 E3.79622
G1 X106.229 Y146.073 E3.81619
G1 X105.79 Y145.508 E3.83618
G1 X105.583 Y145.189 E3.84681
G1 X103.761 Y142.189 E3.94487
G1 X100.83 Y137.669 E4.09538
G1 X97.689 Y133.377 E4.24397
G1 X94.557 Y129.549 E4.38215
G1 X94.135 Y128.971 E4.40215
G1 X93.781 Y128.349 E4.42214
G1 X93.499 Y127.692 E4.44212
G1 X93.291 Y127.008 E4.46209
G1 X93.161 Y126.304 E4.48209
G1 X93.11 Y125.496 E4.50471
G1 X93.11 Y109.51 E4.95134
G1 X93.144 Y108.851 E4.96977
G1 X93.887 Y101.669 E5.1715
G1 X94.025 Y99.105 E5.24324
G1 X94.1 Y95.312 E5.34923
G1 X94.11 Y87.501 E5.56746
G1 X94.151 Y86.787 E5.58744
G1 X94.271 Y86.082 E5.60742
G1 X94.469 Y85.394 E5.62742
G1 X94.743 Y84.734 E5.64738
G1 X95.089 Y84.107 E5.66739
G1 X95.502 Y83.524 E5.68735
M204 S5000
M205 X30 Y30
G0 F7200 X95.899 Y83.67
M204 S500
M205 X20 Y20
G1 F1200 X96.372 Y83.165 E5.70668
G1 X96.9 Y82.717 E5.72603
G1 X97.476 Y82.333 E5.74537
G1 X98.093 Y82.017 E5.76474
G1 X98.742 Y81.776 E5.78408
G1 X99.414 Y81.61 E5.80342
G1 X100.101 Y81.523 E5.82277
G1 X100.51 Y81.509 E5.8342
G1 X134.491 Y81.51 E6.78358
G1 X135.183 Y81.55 E6.80294
G1 X135.865 Y81.669 E6.82229
G1 X136.529 Y81.867 E6.84164
G1 X137.165 Y82.139 E6.86097
G1 X137.766 Y82.483 E6.88032
G1 X138.324 Y82.894 E6.89968
G1 X138.83 Y83.366 E6.91901
G1 X139.279 Y83.894 E6.93838
G1 X139.664 Y84.47 E6.95773
G1 X139.98 Y85.086 E6.97707
G1 X140.222 Y85.734 E6.9964
G1 X140.389 Y86.407 E7.01577
G1 X140.477 Y87.094 E7.03512
G1 X140.491 Y87.503 E7.04656
G1 X140.5 Y95.361 E7.2661
G1 X140.654 Y100.794 E7.41795
G1 X141.104 Y106.098 E7.56667
G1 X141.442 Y108.739 E7.64105
G1 X141.49 Y109.5 E7.66236
G1 X141.49 Y125.497 E8.10929
G1 X141.45 Y126.188 E8.12863
G1 X141.331 Y126.871 E8.148
G1 X141.133 Y127.534 E8.16733
G1 X140.861 Y128.171 E8.18668
G1 X140.517 Y128.772 E8.20603
G1 X140.127 Y129.305 E8.22448
G1 X137.282 Y132.77 E8.34974
G1 X134.117 Y137.047 E8.49839
G1 X131.138 Y141.591 E8.65019
G1 X129.021 Y145.043 E8.76333
G1 X128.626 Y145.612 E8.78268
G1 X128.167 Y146.131 E8.80204
G1 X127.639 Y146.604 E8.82184
G1 X127.289 Y146.882 E8.83433
G1 X126.723 Y147.281 E8.85368
G1 X126.114 Y147.612 E8.87304
G1 X125.734 Y147.775 E8.8846
G1 X125.043 Y148.044 E8.90531
G1 X124.384 Y148.258 E8.92467
G1 X123.705 Y148.394 E8.94402
G1 X122.859 Y148.453 E8.96771
G1 X112.054 Y148.441 E9.26959
G1 X111.363 Y148.4 E9.28893
G1 X110.681 Y148.28 E9.30827
G1 X110.065 Y148.099 E9.32621
G1 X109.637 Y147.948 E9.33889
G1 X108.998 Y147.68 E9.35825
G1 X108.394 Y147.341 E9.3776
G1 X108.098 Y147.138 E9.38763
G1 X107.518 Y146.715 E9.40768
G1 X106.982 Y146.275 E9.42706
G1 X106.502 Y145.777 E9.44638
G1 X105.925 Y144.981 E9.47385
G1 X104.106 Y141.985 E9.57177
G1 X101.153 Y137.432 E9.72339
G1 X98.013 Y133.142 E9.87192
G1 X94.866 Y129.295 E10.01078
G1 X94.459 Y128.735 E10.03012
G1 X94.12 Y128.131 E10.04947
G1 X93.852 Y127.493 E10.06881
G1 X93.66 Y126.827 E10.08817
G1 X93.545 Y126.144 E10.10752
G1 X93.51 Y125.496 E10.12565
G1 X93.51 Y109.51 E10.57228
G1 X93.542 Y108.892 E10.58957
G1 X94.287 Y101.69 E10.79185
G1 X94.425 Y99.136 E10.86331
G1 X94.5 Y95.321 E10.96992
G1 X94.51 Y87.501 E11.1884
G1 X94.551 Y86.81 E11.20774
G1 X94.671 Y86.128 E11.22709
G1 X94.869 Y85.464 E11.24644
G1 X95.142 Y84.828 E11.26578
G1 X95.487 Y84.227 E11.28514
G1 X95.899 Y83.67 E11.3045
M204 S5000
M205 X30 Y30
G0 F7200 X96.294 Y83.823
M204 S500
M205 X20 Y20
G1 F1200 X96.764 Y83.346 E11.32321
G1 X97.287 Y82.929 E11.34189
G1 X97.856 Y82.578 E11.36057
G1 X98.463 Y82.296 E11.37927
G1 X99.1 Y82.089 E11.39798
G1 X99.756 Y81.96 E11.41666
G1 X100.51 Y81.909 E11.43778
G1 X134.491 Y81.91 E12.38716
G1 X135.159 Y81.95 E12.40585
G1 X135.817 Y82.069 E12.42453
G1 X136.457 Y82.266 E12.44324
G1 X137.068 Y82.538 E12.46193
G1 X137.643 Y82.881 E12.48063
G1 X138.172 Y83.29 E12.49932
G1 X138.649 Y83.759 E12.518
G1 X139.067 Y84.282 E12.53671
G1 X139.419 Y84.85 E12.55538
G1 X139.701 Y85.457 E12.57408
G1 X139.909 Y86.093 E12.59277
G1 X140.039 Y86.749 E12.61146
G1 X140.091 Y87.504 E12.6326
G1 X140.1 Y95.373 E12.85245
G1 X140.254 Y100.804 E13.00425
G1 X140.709 Y106.159 E13.15439
G1 X141.045 Y108.79 E13.2285
G1 X141.09 Y109.5 E13.24837
G1 X141.09 Y125.497 E13.69531
G1 X141.05 Y126.165 E13.714
G1 X140.931 Y126.823 E13.73268
G1 X140.734 Y127.463 E13.75139
G1 X140.462 Y128.074 E13.77008
G1 X140.119 Y128.648 E13.78876
G1 X139.818 Y129.051 E13.80281
G1 X136.971 Y132.518 E13.92815
G1 X133.777 Y136.836 E14.07821
G1 X130.831 Y141.33 E14.22833
G1 X128.681 Y144.834 E14.34319
G1 X128.297 Y145.382 E14.36189
G1 X127.851 Y145.881 E14.38058
G1 X127.39 Y146.291 E14.39782
G1 X127.04 Y146.569 E14.41031
G1 X126.492 Y146.953 E14.429
G1 X125.902 Y147.269 E14.4477
G1 X125.589 Y147.403 E14.45721
G1 X124.898 Y147.672 E14.47793
G1 X124.261 Y147.877 E14.49663
G1 X123.604 Y148.004 E14.51532
G1 X122.86 Y148.053 E14.53615
G1 X112.055 Y148.041 E14.83803
G1 X111.387 Y148 E14.85673
G1 X110.729 Y147.88 E14.87541
G1 X110.198 Y147.722 E14.89089
G1 X109.77 Y147.571 E14.90357
G1 X109.153 Y147.311 E14.92228
G1 X108.333 Y146.815 E14.94905
G1 X107.753 Y146.392 E14.96911
G1 X107.237 Y145.966 E14.9878
G1 X106.776 Y145.481 E15.0065
G1 X106.266 Y144.774 E15.03085
G1 X104.415 Y141.726 E15.13048
G1 X101.488 Y137.212 E15.28079
G1 X98.328 Y132.895 E15.43026
G1 X95.176 Y129.042 E15.56934
G1 X94.784 Y128.5 E15.58803
G1 X94.459 Y127.915 E15.60672
G1 X94.207 Y127.295 E15.62542
G1 X94.03 Y126.65 E15.64411
G1 X93.932 Y125.988 E15.6628
G1 X93.91 Y125.496 E15.67656
G1 X93.91 Y109.51 E16.12319
G1 X93.94 Y108.934 E16.1393
G1 X94.685 Y101.735 E16.34151
G1 X94.825 Y99.135 E16.41425
G1 X94.9 Y95.328 E16.52064
G1 X94.91 Y87.502 E16.73928
G1 X94.951 Y86.834 E16.75798
G1 X95.071 Y86.176 E16.77667
G1 X95.269 Y85.537 E16.79536
G1 X95.541 Y84.926 E16.81404
G1 X95.885 Y84.352 E16.83274
G1 X96.294 Y83.823 E16.85142
M204 S5000
M205 X30 Y30
G0 F7200 X96.282 Y84.481
M204 S500
M205 X20 Y20
G1 F1200 X96.69 Y83.981 E16.86945
G1 X97.156 Y83.536 E16.88745
G1 X97.673 Y83.151 E16.90546
G1 X98.234 Y82.834 E16.92346
G1 X98.83 Y82.588 E16.94148
G1 X99.452 Y82.418 E16.95949
G1 X100.09 Y82.326 E16.9775
G1 X100.51 Y82.309 E16.98925
G1 X134.491 Y82.31 E17.93862
G1 X135.135 Y82.35 E17.95665
G1 X135.768 Y82.469 E17.97465
G1 X136.382 Y82.666 E17.99266
G1 X136.967 Y82.937 E18.01067
G1 X137.514 Y83.279 E18.0287
G1 X138.014 Y83.685 E18.04669
G1 X138.46 Y84.151 E18.06471
G1 X138.845 Y84.668 E18.08272
G1 X139.164 Y85.228 E18.10073
G1 X139.41 Y85.824 E18.11874
G1 X139.581 Y86.446 E18.13677
G1 X139.673 Y87.084 E18.15478
G1 X139.691 Y87.504 E18.16652
G1 X139.7 Y95.385 E18.3867
G1 X139.854 Y100.832 E18.53895
G1 X140.31 Y106.197 E18.68938
G1 X140.648 Y108.841 E18.76385
G1 X140.69 Y109.5 E18.7823
G1 X140.69 Y125.497 E19.22923
G1 X140.65 Y126.14 E19.24723
G1 X140.531 Y126.774 E19.26525
G1 X140.334 Y127.388 E19.28327
G1 X140.063 Y127.973 E19.30128
G1 X139.721 Y128.52 E19.3193
G1 X139.509 Y128.797 E19.32905
G1 X136.65 Y132.278 E19.4549
G1 X133.459 Y136.592 E19.60481
G1 X130.483 Y141.131 E19.75645
G1 X128.34 Y144.625 E19.87097
G1 X127.969 Y145.152 E19.88898
G1 X127.536 Y145.63 E19.90699
G1 X127.141 Y145.978 E19.9217
G1 X126.791 Y146.256 E19.93419
G1 X126.263 Y146.625 E19.95219
G1 X125.443 Y147.03 E19.97774
G1 X124.752 Y147.299 E19.99845
G1 X124.138 Y147.495 E20.01646
G1 X123.505 Y147.614 E20.03446
G1 X122.86 Y147.653 E20.05251
G1 X112.055 Y147.641 E20.35439
G1 X111.412 Y147.6 E20.37239
G1 X110.778 Y147.48 E20.39041
G1 X110.331 Y147.345 E20.40346
G1 X109.903 Y147.194 E20.41614
G1 X109.309 Y146.942 E20.43417
G1 X108.569 Y146.491 E20.45838
G1 X107.989 Y146.068 E20.47843
G1 X107.493 Y145.657 E20.49643
G1 X107.051 Y145.187 E20.51446
G1 X106.608 Y144.566 E20.53577
G1 X104.765 Y141.531 E20.63497
G1 X101.814 Y136.98 E20.78651
G1 X98.652 Y132.66 E20.93608
G1 X95.485 Y128.789 E21.07581
G1 X95.109 Y128.265 E21.09383
G1 X94.8 Y127.7 E21.11183
G1 X94.564 Y127.1 E21.12984
G1 X94.403 Y126.475 E21.14787
G1 X94.321 Y125.836 E21.16587
G1 X94.31 Y125.496 E21.17537
G1 X94.31 Y109.51 E21.622
G1 X94.338 Y108.975 E21.63697
G1 X95.085 Y101.756 E21.83973
G1 X95.224 Y99.165 E21.91222
G1 X95.3 Y95.317 E22.01975
G1 X95.31 Y87.502 E22.23809
G1 X95.351 Y86.859 E22.25609
G1 X95.471 Y86.226 E22.27409
G1 X95.668 Y85.612 E22.29211
G1 X95.94 Y85.027 E22.31013
G1 X96.282 Y84.481 E22.32813
M204 S5000
M205 X30 Y30
G1 F3000 E16.32813
;MESH:sup_btn._v5_2.stl
G0 F7200 X99.835 Y88.114
G0 X101.114 Y88.114
G0 X102.186 Y96.111
G0 X102.249 Y96.268
G0 X103.038 Y97.838
M204 S500
M205 X20 Y20
;TYPE:WALL-INNER
G1 F3000 E22.32813
G1 F1200 X103.665 Y98.126 E22.34741
G1 X104.345 Y98.253 E22.36674
G1 X105.034 Y98.205 E22.38603
G1 X105.691 Y97.987 E22.40537
G1 X106.268 Y97.612 E22.4246
G1 X106.3 Y97.577 E22.42592
G1 X106.742 Y97.107 E22.44395
G1 X107.068 Y96.498 E22.46325
G1 X107.079 Y96.452 E22.46457
G1 X107.236 Y95.844 E22.48211
G1 X107.236 Y95.154 E22.50139
G1 X107.064 Y94.486 E22.52066
G1 X106.731 Y93.878 E22.54003
G1 X106.256 Y93.375 E22.55936
G1 X105.675 Y93.005 E22.5786
G1 X105.018 Y92.791 E22.59791
G1 X104.377 Y92.752 E22.61585
G1 X104.327 Y92.748 E22.61725
G1 X103.648 Y92.878 E22.63657
G1 X103.02 Y93.172 E22.65594
G1 X102.477 Y93.626 E22.67571
G1 X102.075 Y94.188 E22.69502
G1 X101.896 Y94.65 E22.70886
G1 X101.826 Y94.832 E22.71431
G1 X101.743 Y95.517 E22.73359
G1 X101.834 Y96.204 E22.75295
G1 X101.896 Y96.357 E22.75756
G1 X102.093 Y96.844 E22.77224
G1 X102.503 Y97.4 E22.79154
G1 X103.038 Y97.838 E22.81085
M204 S5000
M205 X30 Y30
G0 F7200 X103.252 Y97.496
M204 S500
M205 X20 Y20
G1 F1200 X103.787 Y97.742 E22.82731
G1 X104.368 Y97.85 E22.84382
G1 X104.956 Y97.809 E22.86028
G1 X105.516 Y97.623 E22.87677
G1 X106.01 Y97.303 E22.89321
G1 X106.414 Y96.872 E22.90972
G1 X106.693 Y96.352 E22.92621
G1 X106.836 Y95.794 E22.9423
G1 X106.836 Y95.205 E22.95876
G1 X106.689 Y94.634 E22.97523
G1 X106.405 Y94.115 E22.99176
G1 X105.999 Y93.686 E23.00826
G1 X105.503 Y93.37 E23.02469
G1 X104.942 Y93.187 E23.04118
G1 X104.352 Y93.15 E23.05769
G1 X103.772 Y93.261 E23.07419
G1 X103.237 Y93.512 E23.0907
G1 X102.773 Y93.9 E23.1076
G1 X102.43 Y94.38 E23.12408
G1 X102.217 Y94.93 E23.14056
G1 X102.146 Y95.515 E23.15703
G1 X102.224 Y96.101 E23.17354
G1 X102.445 Y96.647 E23.19
G1 X102.795 Y97.122 E23.20648
G1 X103.252 Y97.496 E23.22298
M204 S5000
M205 X30 Y30
G0 F7200 X103.466 Y97.154
M204 S500
M205 X20 Y20
;TYPE:WALL-OUTER
G1 F1200 X103.909 Y97.358 E23.23661
G1 X104.391 Y97.447 E23.2503
G1 X104.878 Y97.413 E23.26394
G1 X105.342 Y97.259 E23.2776
G1 X105.752 Y96.994 E23.29124
G1 X106.086 Y96.637 E23.3049
G1 X106.318 Y96.206 E23.31857
G1 X106.436 Y95.744 E23.33189
G1 X106.436 Y95.256 E23.34553
G1 X106.314 Y94.782 E23.3592
G1 X106.079 Y94.352 E23.37289
G1 X105.743 Y93.997 E23.38655
G1 X105.331 Y93.735 E23.40019
G1 X104.866 Y93.583 E23.41386
G1 X104.377 Y93.552 E23.42755
G1 X103.897 Y93.644 E23.4412
G1 X103.454 Y93.852 E23.45488
G1 X103.069 Y94.174 E23.4689
G1 X102.785 Y94.572 E23.48256
G1 X102.608 Y95.028 E23.49622
G1 X102.549 Y95.513 E23.50987
G1 X102.614 Y95.998 E23.52355
G1 X102.797 Y96.45 E23.53717
G1 X103.087 Y96.844 E23.55084
G1 X103.466 Y97.154 E23.56452
M204 S5000
M205 X30 Y30
G0 F7200 X103.647 Y97.237
G0 X103.463 Y97.637
G0 X103.438 Y97.69
G0 X104.366 Y97.889
G0 X130.949 Y97.852
G0 X131.52 Y97.666
G0 X132.024 Y97.344
G0 X132.14 Y97.221
G0 X133.236 Y95.846
M204 S500
M205 X20 Y20
;TYPE:WALL-INNER
G1 F1200 X133.236 Y95.154 E23.58385
G1 X133.104 Y94.639 E23.5987
G1 X133.064 Y94.486 E23.60312
G1 X132.731 Y93.878 E23.62249
G1 X132.256 Y93.375 E23.64182
G1 X131.675 Y93.005 E23.66106
G1 X131.018 Y92.791 E23.68037
G1 X130.377 Y92.752 E23.69831
G1 X130.327 Y92.748 E23.69971
G1 X129.648 Y92.878 E23.71903
G1 X129.022 Y93.17 E23.73832
G1 X128.489 Y93.612 E23.75767
G1 X128.081 Y94.172 E23.77703
G1 X127.83 Y94.815 E23.79631
G1 X127.742 Y95.5 E23.81561
G1 X127.83 Y96.185 E23.8349
G1 X128.081 Y96.828 E23.85419
G1 X128.489 Y97.388 E23.87354
G1 X129.022 Y97.83 E23.89289
G1 X129.648 Y98.122 E23.91219
G1 X130.327 Y98.252 E23.9315
G1 X131.018 Y98.209 E23.95085
G1 X131.675 Y97.995 E23.97015
G1 X132.256 Y97.625 E23.9894
G1 X132.731 Y97.122 E24.00872
G1 X133.064 Y96.514 E24.02809
G1 X133.104 Y96.361 E24.03251
G1 X133.236 Y95.846 E24.04736
M204 S5000
M205 X30 Y30
G0 F7200 X132.836 Y95.795
M204 S500
M205 X20 Y20
G1 F1200 X132.836 Y95.205 E24.06385
G1 X132.689 Y94.634 E24.08032
G1 X132.405 Y94.115 E24.09685
G1 X131.999 Y93.686 E24.11335
G1 X131.503 Y93.37 E24.12978
G1 X130.942 Y93.187 E24.14627
G1 X130.352 Y93.15 E24.16278
G1 X129.772 Y93.261 E24.17928
G1 X129.238 Y93.511 E24.19576
G1 X128.783 Y93.888 E24.21226
G1 X128.435 Y94.366 E24.22878
G1 X128.22 Y94.915 E24.24526
G1 X128.145 Y95.5 E24.26173
G1 X128.22 Y96.085 E24.27821
G1 X128.435 Y96.634 E24.29468
G1 X128.783 Y97.112 E24.3112
G1 X129.238 Y97.489 E24.32771
G1 X129.772 Y97.739 E24.34418
G1 X130.352 Y97.85 E24.36068
G1 X130.942 Y97.813 E24.3772
G1 X131.503 Y97.63 E24.39369
G1 X131.999 Y97.314 E24.41012
G1 X132.405 Y96.885 E24.42662
G1 X132.689 Y96.366 E24.44315
G1 X132.836 Y95.795 E24.45962
M204 S5000
M205 X30 Y30
G0 F7200 X132.436 Y95.744
M204 S500
M205 X20 Y20
;TYPE:WALL-OUTER
G1 F1200 X132.436 Y95.256 E24.47325
