;FLAVOR:Marlin
;TIME:1209
;Filament used: 0.409822m
;Layer height: 0.12
;MINX:81.3
;MINY:67.5
;MINZ:0.12
;MAXX:149.1
;MAXY:165.5
;MAXZ:2.28
;Generated with Cura_SteamEngine 4.5.0
M140 S50
M105
M190 S50
M104 S205
M105
M109 S205
M82 ;absolute extrusion mode
; Ender 3 Custom Start G-code
G92 E0 ; Reset Extruder
G28 ; Home all axes
G1 Z2.0 F3000 ; Move Z Axis up little to prevent scratching of Heat Bed
G1 X0.1 Y20 Z0.3 F5000.0 ; Move to start position
G1 X0.1 Y200.0 Z0.3 F1500.0 E15 ; Draw the first line
G1 X0.4 Y200.0 Z0.3 F5000.0 ; Move to side a little
G1 X0.4 Y20 Z0.3 F1500.0 E30 ; Draw the second line
G92 E0 ; Reset Extruder
G1 Z2.0 F3000 ; Move Z Axis up little to prevent scratching of Heat Bed
G1 X5 Y20 Z0.3 F5000.0 ; Move over to prevent blob squish
G92 E0
G92 E0
G1 F1500 E-6
;LAYER_COUNT:19
;LAYER:0
M107
M205 X20 Y20
G0 F7500 X106.067 Y71.964 Z0.12
;TYPE:SKIRT
G1 F1500 E0
G1 X106.657 Y71.234 E0.01873
G1 X107.307 Y70.558 E0.03745
G1 X108.012 Y69.94 E0.05616
G1 X108.767 Y69.383 E0.07488
G1 X109.566 Y68.893 E0.09358
G1 X110.405 Y68.473 E0.11231
G1 X111.276 Y68.126 E0.13102
G1 X112.174 Y67.855 E0.14974
G1 X113.092 Y67.661 E0.16846
G1 X114.022 Y67.546 E0.18716
G1 X114.567 Y67.515 E0.19805
G1 X114.89 Y67.505 E0.2045
G1 X115.23 Y67.5 E0.21129
G1 X119.55 Y67.501 E0.2975
G1 X120.251 Y67.511 E0.31149
G1 X121.187 Y67.564 E0.3302
G1 X122.116 Y67.697 E0.34893
G1 X123.029 Y67.909 E0.36763
G1 X123.922 Y68.197 E0.38636
G1 X124.786 Y68.561 E0.40507
G1 X125.617 Y68.997 E0.42379
G1 X126.407 Y69.502 E0.4425
G1 X127.151 Y70.072 E0.46121
G1 X127.844 Y70.704 E0.47993
G1 X128.481 Y71.393 E0.49865
G1 X129.057 Y72.133 E0.51737
G1 X129.568 Y72.92 E0.53609
G1 X130.009 Y73.747 E0.55479
G1 X130.359 Y74.556 E0.57239
G1 X130.5 Y74.922 E0.58021
G1 X131.455 Y77.29 E0.63117
G1 X132.452 Y79.575 E0.68092
G1 X133.547 Y81.9 E0.7322
G1 X134.673 Y84.126 E0.78199
G1 X135.87 Y86.337 E0.83216
G1 X137.12 Y88.496 E0.88195
G1 X138.471 Y90.684 E0.93326
G1 X139.823 Y92.742 E0.9824
G1 X141.272 Y94.818 E1.03292
G1 X142.787 Y96.861 E1.08368
G1 X144.316 Y98.806 E1.13305
G1 X145.951 Y100.771 E1.18407
G1 X146.422 Y101.32 E1.1985
G1 X147.001 Y102.058 E1.21722
G1 X147.516 Y102.842 E1.23594
G1 X147.961 Y103.667 E1.25465
G1 X148.335 Y104.528 E1.27338
G1 X148.634 Y105.416 E1.29208
G1 X148.857 Y106.328 E1.31081
G1 X149.027 Y107.513 E1.3347
G1 X149.058 Y107.865 E1.34176
G1 X149.1 Y108.83 E1.36103
G1 X149.099 Y125.927 E1.70222
G1 X149.089 Y126.644 E1.71653
G1 X149.036 Y127.581 E1.73526
G1 X148.903 Y128.509 E1.75397
G1 X148.692 Y129.423 E1.77269
G1 X148.404 Y130.315 E1.79139
G1 X147.952 Y131.363 E1.81417
G1 X147.719 Y131.829 E1.82457
G1 X146.758 Y133.671 E1.86603
G1 X145.663 Y135.919 E1.91593
G1 X144.61 Y138.25 E1.96697
G1 X143.66 Y140.521 E2.0161
G1 X142.73 Y142.928 E2.06759
G1 X141.909 Y145.257 E2.11687
G1 X141.132 Y147.671 E2.16748
G1 X140.428 Y150.086 E2.21768
G1 X139.795 Y152.517 E2.26781
G1 X139.225 Y154.984 E2.31834
G1 X139.05 Y155.854 E2.33605
G1 X138.846 Y156.803 E2.35542
G1 X138.61 Y157.71 E2.37412
G1 X138.298 Y158.595 E2.39285
G1 X137.911 Y159.449 E2.41156
G1 X137.453 Y160.268 E2.43029
G1 X136.927 Y161.044 E2.449
G1 X136.337 Y161.773 E2.46771
G1 X135.686 Y162.449 E2.48644
G1 X134.981 Y163.067 E2.50515
G1 X134.225 Y163.622 E2.52386
G1 X133.425 Y164.112 E2.54259
G1 X132.586 Y164.531 E2.5613
G1 X131.715 Y164.877 E2.58
G1 X130.817 Y165.148 E2.59872
G1 X129.899 Y165.342 E2.61745
G1 X128.968 Y165.456 E2.63617
G1 X128.399 Y165.487 E2.64754
G1 X127.77 Y165.5 E2.66009
G1 X123.451 Y165.499 E2.74628
G1 X122.583 Y165.485 E2.76361
G1 X119.881 Y165.407 E2.81755
G1 X117.348 Y165.407 E2.8681
G1 X113.77 Y165.5 E2.93953
G1 X109.449 Y165.499 E3.02576
G1 X108.751 Y165.489 E3.03969
G1 X107.815 Y165.435 E3.0584
G1 X106.887 Y165.303 E3.0771
G1 X105.973 Y165.091 E3.09583
G1 X105.081 Y164.802 E3.11454
G1 X104.216 Y164.439 E3.13326
G1 X103.386 Y164.003 E3.15197
G1 X102.595 Y163.498 E3.1707
G1 X101.851 Y162.927 E3.18941
G1 X101.158 Y162.295 E3.20813
G1 X100.521 Y161.607 E3.22684
G1 X99.946 Y160.866 E3.24556
G1 X99.435 Y160.08 E3.26427
G1 X98.993 Y159.252 E3.283
G1 X98.792 Y158.809 E3.29271
G1 X98.596 Y158.343 E3.30279
G1 X97.811 Y156.396 E3.34469
G1 X96.808 Y154.098 E3.39472
G1 X95.732 Y151.808 E3.44522
G1 X94.589 Y149.547 E3.49578
G1 X93.403 Y147.357 E3.54548
G1 X92.148 Y145.187 E3.5955
G1 X90.813 Y143.023 E3.64624
G1 X89.432 Y140.919 E3.69647
G1 X87.989 Y138.853 E3.74676
G1 X86.494 Y136.834 E3.79689
G1 X84.948 Y134.866 E3.84684
G1 X84.345 Y134.14 E3.86567
G1 X83.757 Y133.413 E3.88433
G1 X83.199 Y132.66 E3.90303
G1 X82.707 Y131.861 E3.92176
G1 X82.285 Y131.024 E3.94046
G1 X81.936 Y130.153 E3.95919
G1 X81.662 Y129.256 E3.97791
G1 X81.466 Y128.339 E3.99662
G1 X81.348 Y127.409 E4.01533
G1 X81.315 Y126.833 E4.02684
G1 X81.305 Y126.507 E4.03335
G1 X81.3 Y126.17 E4.04008
G1 X81.301 Y109.049 E4.38174
G1 X81.311 Y108.351 E4.39567
G1 X81.365 Y107.415 E4.41438
G1 X81.497 Y106.487 E4.43309
G1 X81.709 Y105.573 E4.45181
G1 X81.998 Y104.681 E4.47053
G1 X82.361 Y103.816 E4.48925
G1 X82.797 Y102.986 E4.50796
G1 X83.302 Y102.195 E4.52668
G1 X83.873 Y101.451 E4.5454
G1 X84.8 Y100.472 E4.57231
G1 X86.728 Y98.671 E4.62496
G1 X88.53 Y96.893 E4.67547
G1 X90.266 Y95.081 E4.72555
G1 X91.991 Y93.176 E4.77684
G1 X93.588 Y91.308 E4.82588
G1 X95.188 Y89.328 E4.87668
G1 X96.702 Y87.338 E4.92658
G1 X98.167 Y85.298 E4.9767
G1 X99.586 Y83.198 E5.02728
G1 X100.924 Y81.093 E5.07706
G1 X102.233 Y78.897 E5.12808
G1 X103.444 Y76.729 E5.17763
G1 X104.686 Y74.349 E5.23121
G1 X105.084 Y73.559 E5.24886
G1 X105.349 Y73.085 E5.2597
G0 F1350 X105.542 Y72.74
G0 X106.067 Y71.964
G0 F7500 X106.409 Y72.175
G1 F1500 X106.99 Y71.461 E5.27807
G1 X107.632 Y70.801 E5.29644
G1 X108.328 Y70.198 E5.31482
G1 X109.074 Y69.659 E5.33318
G1 X109.864 Y69.186 E5.35156
G1 X110.692 Y68.784 E5.36993
G1 X111.552 Y68.455 E5.3883
G1 X112.437 Y68.202 E5.40667
G1 X113.341 Y68.026 E5.42505
G1 X114.579 Y67.915 E5.44986
G1 X114.902 Y67.905 E5.4563
G1 X115.23 Y67.9 E5.46285
G1 X119.544 Y67.901 E5.54894
G1 X120.245 Y67.911 E5.56293
G1 X121.164 Y67.964 E5.5813
G1 X122.075 Y68.097 E5.59967
G1 X122.971 Y68.308 E5.61804
G1 X123.846 Y68.596 E5.63643
G1 X124.692 Y68.959 E5.6548
G1 X125.503 Y69.394 E5.67316
G1 X126.274 Y69.898 E5.69155
G1 X126.998 Y70.467 E5.70992
G1 X127.67 Y71.096 E5.72829
G1 X128.285 Y71.781 E5.74666
G1 X128.838 Y72.517 E5.76503
G1 X129.325 Y73.299 E5.78342
G1 X129.742 Y74.119 E5.80178
G1 X129.986 Y74.7 E5.81435
G1 X130.136 Y75.089 E5.82267
G1 X131.076 Y77.421 E5.87285
G1 X132.102 Y79.769 E5.92398
G1 X133.179 Y82.058 E5.97447
G1 X134.308 Y84.29 E6.02438
G1 X135.53 Y86.548 E6.07562
G1 X136.786 Y88.716 E6.12562
G1 X138.119 Y90.876 E6.17627
G1 X139.504 Y92.985 E6.22662
G1 X140.951 Y95.057 E6.27706
G1 X142.454 Y97.084 E6.32742
G1 X144.027 Y99.085 E6.37821
G1 X145.653 Y101.039 E6.42894
G1 X146.118 Y101.581 E6.44319
G1 X146.686 Y102.305 E6.46155
G1 X147.189 Y103.076 E6.47992
G1 X147.624 Y103.888 E6.49831
G1 X147.986 Y104.734 E6.51667
G1 X148.273 Y105.609 E6.53505
G1 X148.484 Y106.505 E6.55342
G1 X148.628 Y107.548 E6.57443
G1 X148.659 Y107.9 E6.58148
G1 X148.7 Y108.83 E6.60006
G1 X148.699 Y125.922 E6.94115
G1 X148.689 Y126.639 E6.95546
G1 X148.636 Y127.558 E6.97383
G1 X148.504 Y128.469 E6.9922
G1 X148.293 Y129.365 E7.01057
G1 X148.005 Y130.24 E7.02895
G1 X147.594 Y131.186 E7.04953
G1 X147.365 Y131.644 E7.05975
G1 X146.402 Y133.49 E7.1013
G1 X145.29 Y135.774 E7.152
G1 X144.262 Y138.05 E7.20184
G1 X143.264 Y140.433 E7.25339
G1 X142.366 Y142.757 E7.30311
G1 X141.523 Y145.15 E7.35374
G1 X140.753 Y147.541 E7.40387
G1 X140.043 Y149.978 E7.45453
G1 X139.404 Y152.432 E7.50513
G1 X138.837 Y154.888 E7.55543
G1 X138.659 Y155.77 E7.57339
G1 X138.455 Y156.719 E7.59276
G1 X138.223 Y157.61 E7.61113
G1 X137.914 Y158.477 E7.6295
G1 X137.531 Y159.314 E7.64787
G1 X137.077 Y160.115 E7.66625
G1 X136.555 Y160.873 E7.68461
G1 X135.969 Y161.584 E7.703
G1 X135.324 Y162.24 E7.72136
G1 X134.625 Y162.839 E7.73973
G1 X133.876 Y163.374 E7.7581
G1 X133.083 Y163.843 E7.77648
G1 X132.253 Y164.24 E7.79484
G1 X131.391 Y164.565 E7.81323
G1 X130.504 Y164.813 E7.83161
G1 X129.6 Y164.983 E7.84996
G1 X128.388 Y165.087 E7.87424
G1 X127.77 Y165.1 E7.88658
G1 X123.457 Y165.099 E7.97265
G1 X122.594 Y165.086 E7.98987
G1 X119.858 Y165.007 E8.04449
G1 X117.338 Y165.007 E8.09478
G1 X113.77 Y165.1 E8.16601
G1 X109.455 Y165.099 E8.25212
G1 X108.757 Y165.089 E8.26605
G1 X107.838 Y165.036 E8.28442
G1 X106.927 Y164.903 E8.30279
G1 X106.031 Y164.692 E8.32116
G1 X105.157 Y164.404 E8.33953
G1 X104.31 Y164.041 E8.35792
G1 X103.499 Y163.606 E8.37628
G1 X102.729 Y163.102 E8.39465
G1 X102.005 Y162.533 E8.41302
G1 X101.333 Y161.903 E8.43141
G1 X100.718 Y161.218 E8.44978
G1 X100.165 Y160.482 E8.46815
G1 X99.678 Y159.701 E8.48652
G1 X99.16 Y158.652 E8.50986
G1 X98.967 Y158.193 E8.5198
G1 X98.178 Y156.236 E8.56191
G1 X97.179 Y153.947 E8.61175
G1 X96.087 Y151.622 E8.66301
G1 X94.962 Y149.398 E8.71275
G1 X93.743 Y147.146 E8.76385
G1 X92.476 Y144.956 E8.81434
G1 X91.155 Y142.816 E8.86453
G1 X89.767 Y140.7 E8.91503
G1 X88.322 Y138.632 E8.96537
G1 X86.814 Y136.595 E9.01595
G1 X85.254 Y134.608 E9.06637
G1 X84.656 Y133.889 E9.08503
G1 X84.068 Y133.162 E9.10369
G1 X83.521 Y132.422 E9.12205
G1 X83.04 Y131.637 E9.14042
G1 X82.629 Y130.813 E9.1588
G1 X82.291 Y129.957 E9.17717
G1 X82.028 Y129.074 E9.19555
G1 X81.843 Y128.172 E9.21393
G1 X81.715 Y126.821 E9.24101
G1 X81.7 Y126.17 E9.254
G1 X81.701 Y109.055 E9.59555
G1 X81.711 Y108.357 E9.60948
G1 X81.764 Y107.438 E9.62785
G1 X81.897 Y106.527 E9.64623
G1 X82.108 Y105.631 E9.6646
G1 X82.396 Y104.757 E9.68296
G1 X82.759 Y103.91 E9.70135
G1 X83.194 Y103.099 E9.71971
G1 X83.698 Y102.329 E9.73808
G1 X84.267 Y101.605 E9.75646
G1 X85.073 Y100.764 E9.7797
G1 X86.999 Y98.964 E9.83231
G1 X88.834 Y97.153 E9.88376
G1 X90.569 Y95.344 E9.93378
G1 X92.261 Y93.475 E9.98409
G1 X93.902 Y91.556 E10.03448
G1 X95.501 Y89.576 E10.08527
G1 X97.03 Y87.568 E10.13564
G1 X98.507 Y85.509 E10.1862
G1 X99.913 Y83.43 E10.23629
G1 X101.272 Y81.291 E10.28686
G1 X102.568 Y79.118 E10.33735
G1 X103.805 Y76.903 E10.38798
G1 X105.026 Y74.563 E10.44066
G1 X105.441 Y73.739 E10.45907
G1 X105.69 Y73.295 E10.46923
G0 F1350 X105.891 Y72.936
G0 X106.409 Y72.175
G0 F7500 X106.75 Y72.386
G1 F1500 X107.324 Y71.689 E10.48724
G1 X107.957 Y71.044 E10.50528
G1 X108.644 Y70.459 E10.52329
G1 X109.381 Y69.937 E10.54131
G1 X110.161 Y69.481 E10.55934
G1 X110.978 Y69.097 E10.57735
G1 X111.826 Y68.786 E10.59538
G1 X112.698 Y68.552 E10.6134
G1 X113.588 Y68.396 E10.63143
G1 X114.591 Y68.315 E10.65151
G1 X115.23 Y68.3 E10.66427
G1 X119.538 Y68.301 E10.75024
G1 X120.239 Y68.311 E10.76423
G1 X121.141 Y68.364 E10.78226
G1 X122.034 Y68.496 E10.80027
G1 X122.913 Y68.707 E10.81831
G1 X123.769 Y68.995 E10.83634
G1 X124.596 Y69.357 E10.85435
G1 X125.388 Y69.791 E10.87237
G1 X126.138 Y70.294 E10.8904
G1 X126.841 Y70.861 E10.90842
G1 X127.491 Y71.487 E10.92643
G1 X128.084 Y72.169 E10.94446
G1 X128.613 Y72.901 E10.96249
G1 X129.076 Y73.676 E10.9805
G1 X129.612 Y74.844 E11.00615
G1 X129.741 Y75.179 E11.01331
G1 X130.715 Y77.594 E11.06528
G1 X131.731 Y79.921 E11.11595
G1 X132.824 Y82.244 E11.16718
G1 X133.956 Y84.482 E11.21723
G1 X135.175 Y86.733 E11.26832
G1 X136.448 Y88.932 E11.31902
G1 X137.771 Y91.075 E11.36928
G1 X139.175 Y93.212 E11.42031
G1 X140.617 Y95.278 E11.47059
G1 X142.151 Y97.346 E11.52197
G1 X143.704 Y99.322 E11.57213
G1 X145.361 Y101.312 E11.6238
G1 X145.814 Y101.841 E11.6377
G1 X146.371 Y102.552 E11.65573
G1 X146.863 Y103.31 E11.67376
G1 X147.285 Y104.108 E11.69177
G1 X147.636 Y104.94 E11.70979
G1 X147.911 Y105.8 E11.72781
G1 X148.11 Y106.681 E11.74584
G1 X148.23 Y107.583 E11.764
G1 X148.261 Y107.935 E11.77105
G1 X148.3 Y108.83 E11.78893
G1 X148.299 Y125.916 E12.1299
G1 X148.289 Y126.633 E12.14421
G1 X148.236 Y127.535 E12.16224
G1 X148.104 Y128.428 E12.18025
G1 X147.894 Y129.306 E12.19827
G1 X147.606 Y130.163 E12.21631
G1 X147.235 Y131.008 E12.23473
G1 X147.01 Y131.458 E12.24477
G1 X146.052 Y133.294 E12.28609
G1 X144.937 Y135.584 E12.33692
G1 X143.887 Y137.91 E12.38785
G1 X142.898 Y140.27 E12.43891
G1 X141.981 Y142.647 E12.48976
G1 X141.151 Y144.999 E12.53953
G1 X140.371 Y147.422 E12.59033
G1 X139.658 Y149.871 E12.64123
G1 X139.013 Y152.347 E12.69229
G1 X138.45 Y154.784 E12.7422
G1 X138.268 Y155.686 E12.76057
G1 X138.064 Y156.635 E12.77994
G1 X137.835 Y157.508 E12.79795
G1 X137.53 Y158.358 E12.81597
G1 X137.151 Y159.178 E12.834
G1 X136.701 Y159.961 E12.85202
G1 X136.184 Y160.701 E12.87003
G1 X135.603 Y161.392 E12.88805
G1 X134.963 Y162.03 E12.90609
G1 X134.269 Y162.608 E12.92411
G1 X133.527 Y163.122 E12.94212
G1 X132.742 Y163.569 E12.96015
G1 X131.921 Y163.945 E12.97817
G1 X131.07 Y164.247 E12.99619
G1 X130.195 Y164.472 E13.01422
G1 X129.304 Y164.619 E13.03224
G1 X128.377 Y164.687 E13.05079
G1 X127.77 Y164.7 E13.06291
G1 X123.463 Y164.699 E13.14886
G1 X122.606 Y164.686 E13.16596
G1 X119.87 Y164.607 E13.22058
G1 X117.327 Y164.607 E13.27133
G1 X113.77 Y164.7 E13.34234
G1 X109.461 Y164.699 E13.42833
G1 X108.763 Y164.689 E13.44226
G1 X107.861 Y164.636 E13.46029
G1 X106.968 Y164.504 E13.47831
G1 X106.09 Y164.293 E13.49633
G1 X105.234 Y164.005 E13.51435
G1 X104.407 Y163.643 E13.53237
G1 X103.615 Y163.208 E13.5504
G1 X102.864 Y162.706 E13.56843
G1 X102.161 Y162.139 E13.58645
G1 X101.511 Y161.512 E13.60447
G1 X100.919 Y160.83 E13.62249
G1 X100.389 Y160.099 E13.64051
G1 X99.927 Y159.323 E13.65854
G1 X99.528 Y158.495 E13.67688
G1 X99.338 Y158.044 E13.68664
G1 X98.551 Y156.093 E13.72863
G1 X97.536 Y153.766 E13.77929
G1 X96.448 Y151.45 E13.83035
G1 X95.306 Y149.191 E13.88087
G1 X94.092 Y146.949 E13.93175
G1 X92.835 Y144.778 E13.98181
G1 X91.487 Y142.591 E14.03308
G1 X90.097 Y140.474 E14.08362
G1 X88.639 Y138.387 E14.13442
G1 X87.135 Y136.355 E14.18487
G1 X85.577 Y134.372 E14.2352
G1 X84.967 Y133.637 E14.25426
G1 X84.379 Y132.91 E14.27292
G1 X83.843 Y132.184 E14.29093
G1 X83.373 Y131.413 E14.30895
G1 X82.973 Y130.603 E14.32698
G1 X82.647 Y129.761 E14.345
G1 X82.396 Y128.893 E14.36303
G1 X82.223 Y128.007 E14.38104
G1 X82.115 Y126.809 E14.40505
G1 X82.1 Y126.17 E14.4178
G1 X82.101 Y109.061 E14.75923
G1 X82.111 Y108.363 E14.77316
G1 X82.164 Y107.461 E14.79119
G1 X82.296 Y106.568 E14.80921
G1 X82.507 Y105.69 E14.82723
G1 X82.795 Y104.834 E14.84525
G1 X83.157 Y104.007 E14.86327
G1 X83.592 Y103.215 E14.8813
G1 X84.094 Y102.464 E14.89933
G1 X84.661 Y101.761 E14.91735
G1 X85.346 Y101.056 E14.93697
G1 X87.289 Y99.24 E14.99004
G1 X89.108 Y97.446 E15.04102
G1 X90.853 Y95.624 E15.09137
G1 X92.577 Y93.72 E15.14263
G1 X94.201 Y91.821 E15.19249
G1 X95.815 Y89.823 E15.24375
G1 X97.357 Y87.797 E15.29456
G1 X98.831 Y85.744 E15.34499
G1 X100.248 Y83.647 E15.3955
G1 X101.626 Y81.48 E15.44675
G1 X102.918 Y79.312 E15.49711
G1 X104.152 Y77.104 E15.54759
G1 X105.365 Y74.778 E15.59994
G1 X105.798 Y73.919 E15.61914
G1 X106.03 Y73.506 E15.62859
G0 F1350 X106.24 Y73.132
G0 X106.75 Y72.386
G1 F1500 E9.62859
;MESH:bloque2.stl
G0 F7500 X119.1 Y95.5
;TYPE:WALL-INNER
G1 F1500 E15.62859
G1 X115.9 Y95.5 E15.69245
G1 X115.9 Y79.5 E16.01175
G1 X119.1 Y79.5 E16.07561
G1 X119.1 Y94.168 E16.36832
G0 F1350 X119.1 Y95.5
G0 F7500 X119.5 Y95.9
G1 F1500 X115.5 Y95.9 E16.44815
G1 X115.5 Y79.1 E16.78341
G1 X119.5 Y79.1 E16.86323
G1 X119.5 Y94.568 E17.17191
G0 F1350 X119.5 Y95.9
G0 F7500 X119.9 Y96.3
;TYPE:WALL-OUTER
G1 F1500 X115.1 Y96.3 E17.26291
G1 X115.1 Y78.7 E17.59658
G1 X119.9 Y78.7 E17.68758
G1 X119.9 Y94.968 E17.99599
G0 F1350 X119.9 Y96.3
G0 F7500 X119.5 Y96.3
G0 X119.46 Y95.86
G0 X118.71 Y95.11
;TYPE:SKIN
G1 F1500 X116.29 Y95.11 E18.04429
G1 X116.29 Y79.89 E18.34802
G1 X118.71 Y79.89 E18.39631
G1 X118.71 Y93.778 E18.67346
G0 F1350 X118.71 Y95.11
G1 F1500 E12.67346
G0 F7500 X117.45 Y93.95
G1 F1500 E18.67346
G1 X117.45 Y81.05 E18.9309
G1 X117.55 Y81.05 E18.93289
G1 X117.55 Y93.081 E19.17298
G0 F1350 X117.55 Y93.95
G0 X117.45 Y93.95
G0 F7500 X117.05 Y94.35
G1 F1500 X117.05 Y80.65 E19.44638
G1 X117.95 Y80.65 E19.46434
G1 X117.95 Y94.103 E19.73281
G0 F1350 X117.95 Y94.35
G0 X117.05 Y94.35
G0 F7500 X116.65 Y94.75
G1 F1500 X116.65 Y80.25 E20.02217
