;FLAVOR:Marlin
;TIME:10018
;Filament used: 7.26384m
;Layer height: 0.2
;MINX:2.3
;MINY:16
;MINZ:0.2
;MAXX:194
;MAXY:204
;MAXZ:16
;Generated with Cura_SteamEngine 4.4.1
M140 S60
M105
M190 S60
M104 S205
M105
M109 S205
M82 ;absolute extrusion mode
M201 X500.00 Y500.00 Z100.00 E5000.00 ;Setup machine max acceleration
M203 X500.00 Y500.00 Z10.00 E50.00 ;Setup machine max feedrate
M204 P500.00 R1000.00 T500.00 ;Setup Print/Retract/Travel acceleration
M205 X8.00 Y8.00 Z0.40 E5.00 ;Setup Jerk
M220 S100 ;Reset Feedrate
M221 S100 ;Reset Flowrate

G28 ;Home

G92 E0 ;Reset Extruder
G1 Z2.0 F3000 ;Move Z Axis up
G1 X10.1 Y20 Z0.28 F5000.0 ;Move to start position
G1 X10.1 Y200.0 Z0.28 F1500.0 E15 ;Draw the first line
G1 X10.4 Y200.0 Z0.28 F5000.0 ;Move to side a little
G1 X10.4 Y20 Z0.28 F1500.0 E30 ;Draw the second line
G92 E0 ;Reset Extruder
G1 Z2.0 F3000 ;Move Z Axis up

G92 E0
G92 E0
G1 F1500 E-6
;LAYER_COUNT:80
;LAYER:0
M107
M204 S500
M205 X20 Y20
G0 F7500 X28.007 Y20.689 Z0.2
;TYPE:SKIRT
G1 F1500 E0
G1 X28.578 Y19.945 E0.03119
G1 X29.21 Y19.252 E0.06239
G1 X29.899 Y18.616 E0.09358
G1 X30.64 Y18.041 E0.12477
G1 X31.427 Y17.531 E0.15596
G1 X32.255 Y17.09 E0.18716
G1 X33.117 Y16.721 E0.21835
G1 X34.008 Y16.427 E0.24956
G1 X34.92 Y16.209 E0.28074
G1 X35.847 Y16.071 E0.31192
G1 X36.701 Y16.013 E0.34039
G1 X37.021 Y16.004 E0.35103
G1 X37.33 Y16 E0.36131
G1 X172.293 Y16 E4.8502
G1 X172.451 Y16.001 E4.85545
G1 X173.149 Y16.011 E4.87867
G1 X174.085 Y16.065 E4.90986
G1 X175.013 Y16.197 E4.94103
G1 X175.927 Y16.409 E4.97224
G1 X176.819 Y16.698 E5.00343
G1 X177.684 Y17.061 E5.03463
G1 X178.514 Y17.497 E5.06581
G1 X179.305 Y18.002 E5.09702
G1 X180.049 Y18.573 E5.12822
G1 X180.742 Y19.205 E5.15941
G1 X181.379 Y19.893 E5.1906
G1 X181.954 Y20.634 E5.22179
G1 X182.465 Y21.42 E5.25297
G1 X182.907 Y22.248 E5.28419
G1 X183.276 Y23.11 E5.31538
G1 X183.571 Y24 E5.34656
G1 X183.789 Y24.912 E5.37775
G1 X183.929 Y25.84 E5.40896
G1 X183.987 Y26.701 E5.43767
G1 X183.996 Y27.021 E5.44831
G1 X184 Y27.33 E5.45859
G1 X184 Y46.348 E6.09113
G1 X184.037 Y48.956 E6.17788
G1 X184.144 Y51.477 E6.26181
G1 X184.321 Y53.972 E6.345
G1 X184.569 Y56.472 E6.42856
G1 X184.888 Y58.965 E6.51215
G1 X185.279 Y61.458 E6.59608
G1 X185.742 Y63.948 E6.68032
G1 X186.272 Y66.411 E6.76412
G1 X186.86 Y68.807 E6.84617
G1 X187.539 Y71.277 E6.93137
G1 X188.275 Y73.68 E7.01496
G1 X189.082 Y76.072 E7.09893
G1 X189.945 Y78.412 E7.18188
G1 X190.891 Y80.768 E7.26632
G1 X191.894 Y83.073 E7.34993
G1 X192.955 Y85.347 E7.43339
G1 X193.315 Y86.213 E7.46458
G1 X193.6 Y87.107 E7.49579
G1 X193.808 Y88.021 E7.52697
G1 X193.937 Y88.95 E7.55816
G1 X193.979 Y89.567 E7.57873
G1 X193.992 Y89.898 E7.58975
G1 X194 Y90.33 E7.60412
G1 X194 Y192.264 E10.99446
G1 X193.999 Y192.4 E10.99898
G1 X193.99 Y193.127 E11.02317
G1 X193.939 Y194.064 E11.05438
G1 X193.807 Y194.992 E11.08555
G1 X193.598 Y195.906 E11.11674
G1 X193.311 Y196.799 E11.14793
G1 X192.949 Y197.665 E11.17915
G1 X192.515 Y198.496 E11.21033
G1 X192.011 Y199.287 E11.24153
G1 X191.442 Y200.032 E11.27271
G1 X190.811 Y200.727 E11.30393
G1 X190.124 Y201.365 E11.33511
G1 X189.385 Y201.942 E11.3663
G1 X188.599 Y202.454 E11.3975
G1 X187.773 Y202.897 E11.42867
G1 X186.911 Y203.269 E11.4599
G1 X186.022 Y203.565 E11.49106
G1 X185.11 Y203.785 E11.52227
G1 X184.183 Y203.926 E11.55345
G1 X183.299 Y203.987 E11.58292
G1 X182.978 Y203.996 E11.59361
G1 X182.67 Y204 E11.60385
G1 X77.707 Y204 E15.09493
G1 X77.551 Y203.999 E15.10012
G1 X76.848 Y203.989 E15.12351
G1 X75.911 Y203.936 E15.15472
G1 X74.983 Y203.803 E15.1859
G1 X74.069 Y203.591 E15.21711
G1 X73.177 Y203.303 E15.24828
G1 X72.312 Y202.939 E15.2795
G1 X71.482 Y202.503 E15.31068
G1 X70.691 Y201.998 E15.34189
G1 X70.104 Y201.557 E15.36631
G1 X68.077 Y199.925 E15.45287
G1 X66.104 Y198.424 E15.53532
G1 X64.035 Y196.94 E15.62001
G1 X61.941 Y195.526 E15.70405
G1 X59.85 Y194.2 E15.7864
G1 X57.655 Y192.892 E15.87138
G1 X55.473 Y191.674 E15.9545
G1 X53.22 Y190.499 E16.03901
G1 X50.965 Y189.404 E16.12239
G1 X48.686 Y188.375 E16.20556
G1 X46.326 Y187.387 E16.29065
G1 X44.002 Y186.495 E16.37345
G1 X41.638 Y185.661 E16.45682
G1 X39.228 Y184.886 E16.54102
G1 X36.831 Y184.19 E16.62404
G1 X34.378 Y183.553 E16.70833
G1 X31.899 Y182.981 E16.79295
G1 X29.479 Y182.498 E16.87503
G1 X26.952 Y182.066 E16.9603
G1 X24.504 Y181.717 E17.04254
G1 X21.993 Y181.433 E17.12659
G1 X19.448 Y181.217 E17.21154
G1 X16.988 Y181.077 E17.29349
G1 X14.387 Y181.004 E17.38004
G1 X13.358 Y180.988 E17.41427
G1 X12.421 Y180.933 E17.44548
G1 X11.493 Y180.799 E17.47667
G1 X10.58 Y180.587 E17.50784
G1 X9.687 Y180.298 E17.53906
G1 X8.823 Y179.933 E17.57026
G1 X7.993 Y179.496 E17.60146
G1 X7.204 Y178.99 E17.63263
G1 X6.46 Y178.419 E17.66382
G1 X5.767 Y177.787 E17.69502
G1 X5.131 Y177.097 E17.72623
G1 X4.556 Y176.356 E17.75743
G1 X4.046 Y175.569 E17.78862
G1 X3.606 Y174.741 E17.8198
G1 X3.237 Y173.879 E17.85099
G1 X2.943 Y172.989 E17.88217
G1 X2.726 Y172.076 E17.91338
G1 X2.587 Y171.149 E17.94455
G1 X2.53 Y170.288 E17.97325
G1 X2.521 Y169.957 E17.98427
G1 X2.517 Y169.658 E17.99421
G1 X2.517 Y162.707 E18.2254
G1 X2.518 Y162.551 E18.23059
G1 X2.528 Y161.845 E18.25408
G1 X2.537 Y161.533 E18.26446
G1 X2.586 Y160.373 E18.30307
G1 X2.661 Y157.734 E18.39088
G1 X2.661 Y155.245 E18.47367
G1 X2.589 Y152.688 E18.55875
G1 X2.447 Y150.186 E18.6421
G1 X2.346 Y148.906 E18.6848
G1 X2.318 Y148.397 E18.70176
G1 X2.306 Y148.025 E18.71414
G1 X2.3 Y147.67 E18.72595
G1 X2.3 Y140.707 E18.95754
G1 X2.301 Y140.549 E18.96279
G1 X2.311 Y139.851 E18.98601
G1 X2.365 Y138.915 E19.01719
G1 X2.497 Y137.987 E19.04837
G1 X2.709 Y137.073 E19.07958
G1 X2.998 Y136.181 E19.11076
G1 X3.361 Y135.316 E19.14196
G1 X3.797 Y134.486 E19.17315
G1 X4.302 Y133.695 E19.20436
G1 X4.821 Y133.013 E19.23286
G1 X5.449 Y132.251 E19.26571
G1 X7.049 Y130.266 E19.35051
G1 X8.582 Y128.253 E19.43466
G1 X10.057 Y126.196 E19.51885
G1 X11.449 Y124.134 E19.6016
G1 X12.794 Y122.016 E19.68505
G1 X14.104 Y119.817 E19.77018
G1 X15.317 Y117.643 E19.85298
G1 X16.477 Y115.419 E19.93641
G1 X17.591 Y113.129 E20.02111
G1 X18.622 Y110.846 E20.10442
G1 X19.591 Y108.527 E20.18802
G1 X20.504 Y106.16 E20.2724
G1 X21.336 Y103.798 E20.35569
G1 X22.1 Y101.421 E20.43873
G1 X22.808 Y98.987 E20.52304
G1 X23.438 Y96.563 E20.60634
G1 X24.004 Y94.104 E20.69027
G1 X24.507 Y91.606 E20.77502
G1 X24.925 Y89.152 E20.85782
G1 X25.279 Y86.667 E20.9413
G1 X25.563 Y84.164 E21.02509
G1 X25.778 Y81.627 E21.10977
G1 X25.916 Y79.202 E21.19056
G1 X26 Y75.228 E21.32276
G1 X26 Y27.674 E22.90441
G1 X26.001 Y27.509 E22.9099
G1 X26.011 Y26.844 E22.93202
G1 X26.065 Y25.907 E22.96324
G1 X26.199 Y24.979 E22.99442
G1 X26.411 Y24.065 E23.02563
G1 X26.7 Y23.173 E23.05682
G1 X27.065 Y22.309 E23.08801
G1 X27.501 Y21.479 E23.1192
G1 X27.576 Y21.362 E23.12382
G0 F1350 X28.007 Y20.689
G0 F7500 X28.403 Y20.822
G1 F1500 X28.972 Y20.099 E23.15442
G1 X29.602 Y19.427 E23.18506
G1 X30.288 Y18.813 E23.21568
G1 X31.024 Y18.261 E23.24628
G1 X31.806 Y17.774 E23.27692
G1 X32.627 Y17.358 E23.30753
G1 X33.481 Y17.014 E23.33815
G1 X34.361 Y16.745 E23.36876
G1 X35.262 Y16.554 E23.39939
G1 X36.176 Y16.442 E23.43002
G1 X36.712 Y16.413 E23.44787
G1 X37.032 Y16.404 E23.45852
G1 X37.33 Y16.4 E23.46843
G1 X172.293 Y16.4 E27.95732
G1 X172.445 Y16.401 E27.96237
G1 X173.143 Y16.411 E27.98559
G1 X174.062 Y16.464 E28.01621
G1 X174.973 Y16.597 E28.04683
G1 X175.869 Y16.808 E28.07745
G1 X176.743 Y17.096 E28.10805
G1 X177.59 Y17.459 E28.1387
G1 X178.401 Y17.894 E28.16931
G1 X179.171 Y18.398 E28.19992
G1 X179.895 Y18.967 E28.23055
G1 X180.567 Y19.597 E28.26119
G1 X181.182 Y20.282 E28.2918
G1 X181.735 Y21.018 E28.32242
G1 X182.222 Y21.799 E28.35304
G1 X182.639 Y22.62 E28.38366
G1 X182.984 Y23.474 E28.4143
G1 X183.253 Y24.354 E28.4449
G1 X183.445 Y25.255 E28.47554
G1 X183.558 Y26.168 E28.50614
G1 X183.587 Y26.712 E28.52426
G1 X183.596 Y27.032 E28.53491
G1 X183.6 Y27.33 E28.54482
G1 X183.6 Y46.354 E29.17756
G1 X183.637 Y48.979 E29.26488
G1 X183.744 Y51.487 E29.34837
G1 X183.922 Y54.007 E29.43239
G1 X184.171 Y56.522 E29.51645
G1 X184.49 Y59.011 E29.59991
G1 X184.891 Y61.563 E29.68584
G1 X185.343 Y63.994 E29.76808
G1 X185.881 Y66.493 E29.8531
G1 X186.478 Y68.929 E29.93652
G1 X187.156 Y71.395 E30.02158
G1 X187.889 Y73.788 E30.10482
G1 X188.703 Y76.202 E30.18955
G1 X189.57 Y78.552 E30.27286
G1 X190.529 Y80.94 E30.35846
G1 X191.516 Y83.208 E30.44072
G1 X192.593 Y85.516 E30.52543
G1 X192.945 Y86.367 E30.55606
G1 X193.223 Y87.245 E30.5867
G1 X193.423 Y88.143 E30.61729
G1 X193.545 Y89.056 E30.64793
G1 X193.579 Y89.583 E30.6655
G1 X193.592 Y89.914 E30.67651
G1 X193.6 Y90.33 E30.69035
G1 X193.6 Y192.264 E34.08069
G1 X193.599 Y192.395 E34.08505
G1 X193.59 Y193.122 E34.10923
G1 X193.539 Y194.041 E34.13984
G1 X193.408 Y194.953 E34.17049
G1 X193.198 Y195.849 E34.2011
G1 X192.912 Y196.724 E34.23171
G1 X192.551 Y197.571 E34.26234
G1 X192.117 Y198.383 E34.29296
G1 X191.615 Y199.155 E34.32359
G1 X191.047 Y199.88 E34.35422
G1 X190.419 Y200.553 E34.38484
G1 X189.735 Y201.169 E34.41545
G1 X189 Y201.723 E34.44606
G1 X188.22 Y202.212 E34.47668
G1 X187.4 Y202.631 E34.50731
G1 X186.547 Y202.977 E34.53793
G1 X185.667 Y203.248 E34.56855
G1 X184.767 Y203.441 E34.59917
G1 X183.853 Y203.556 E34.62981
G1 X183.288 Y203.587 E34.64863
G1 X182.967 Y203.596 E34.65931
G1 X182.67 Y203.6 E34.66919
G1 X77.707 Y203.6 E38.16027
G1 X77.556 Y203.599 E38.16529
G1 X76.853 Y203.589 E38.18868
G1 X75.934 Y203.536 E38.21929
G1 X75.023 Y203.403 E38.24992
G1 X74.127 Y203.192 E38.28053
G1 X73.253 Y202.904 E38.31114
G1 X72.406 Y202.541 E38.34179
G1 X71.595 Y202.106 E38.3724
G1 X70.824 Y201.602 E38.40303
G1 X70.355 Y201.246 E38.42262
G1 X68.325 Y199.611 E38.50931
G1 X66.317 Y198.084 E38.59322
G1 X64.287 Y196.628 E38.67631
G1 X62.173 Y195.201 E38.76114
G1 X60.021 Y193.836 E38.8459
G1 X57.876 Y192.557 E38.92896
G1 X55.646 Y191.313 E39.01389
G1 X53.401 Y190.142 E39.09811
G1 X51.155 Y189.051 E39.18116
G1 X48.826 Y187.999 E39.26615
G1 X46.499 Y187.026 E39.35004
G1 X44.13 Y186.116 E39.43445
G1 X41.756 Y185.279 E39.51817
G1 X39.347 Y184.504 E39.60234
G1 X36.938 Y183.804 E39.68578
G1 X34.471 Y183.163 E39.77056
G1 X31.994 Y182.593 E39.8551
G1 X29.518 Y182.098 E39.93908
G1 X27.034 Y181.673 E40.0229
G1 X24.539 Y181.318 E40.10672
G1 X22.036 Y181.034 E40.1905
G1 X19.504 Y180.82 E40.27502
G1 X16.988 Y180.677 E40.35883
G1 X14.404 Y180.604 E40.44481
G1 X13.364 Y180.588 E40.47941
G1 X12.445 Y180.534 E40.51002
G1 X11.534 Y180.4 E40.54065
G1 X10.638 Y180.188 E40.57127
G1 X9.764 Y179.899 E40.60189
G1 X8.918 Y179.535 E40.63252
G1 X8.107 Y179.099 E40.66315
G1 X7.337 Y178.595 E40.69376
G1 X6.614 Y178.025 E40.72438
G1 X5.942 Y177.395 E40.75502
G1 X5.328 Y176.709 E40.78564
G1 X4.776 Y175.972 E40.81626
G1 X4.29 Y175.191 E40.84686
G1 X3.873 Y174.37 E40.87748
G1 X3.53 Y173.515 E40.90813
G1 X3.261 Y172.635 E40.93873
G1 X3.071 Y171.734 E40.96936
G1 X2.959 Y170.82 E40.99998
G1 X2.93 Y170.277 E41.01807
G1 X2.921 Y169.946 E41.02908
G1 X2.917 Y169.658 E41.03866
G1 X2.917 Y162.707 E41.26985
G1 X2.918 Y162.557 E41.27484
G1 X2.928 Y161.851 E41.29833
G1 X2.937 Y161.55 E41.30834
G1 X2.986 Y160.402 E41.34656
G1 X3.061 Y157.745 E41.43497
G1 X3.061 Y155.234 E41.51848
G1 X2.989 Y152.69 E41.60313
G1 X2.844 Y150.132 E41.68835
G1 X2.745 Y148.875 E41.73029
G1 X2.718 Y148.384 E41.74664
G1 X2.706 Y148.012 E41.75902
G1 X2.7 Y147.67 E41.7704
G1 X2.7 Y140.707 E42.00199
G1 X2.701 Y140.555 E42.00704
G1 X2.711 Y139.857 E42.03026
G1 X2.764 Y138.938 E42.06088
G1 X2.897 Y138.027 E42.0915
G1 X3.108 Y137.131 E42.12212
G1 X3.396 Y136.257 E42.15272
G1 X3.759 Y135.41 E42.18337
G1 X4.194 Y134.599 E42.21398
G1 X4.698 Y133.829 E42.24459
G1 X5.13 Y133.267 E42.26817
G1 X5.719 Y132.552 E42.29898
G1 X7.381 Y130.492 E42.38701
G1 X8.893 Y128.506 E42.47003
G1 X10.38 Y126.431 E42.55494
G1 X11.785 Y124.351 E42.63842
G1 X13.148 Y122.204 E42.72301
G1 X14.439 Y120.037 E42.8069
G1 X15.663 Y117.844 E42.89043
G1 X16.848 Y115.572 E42.97566
G1 X17.938 Y113.332 E43.05852
G1 X19.003 Y110.972 E43.14463
G1 X19.957 Y108.689 E43.22693
G1 X20.879 Y106.3 E43.3121
G1 X21.718 Y103.916 E43.39616
G1 X22.482 Y101.54 E43.47917
G1 X23.19 Y99.103 E43.56358
G1 X23.831 Y96.64 E43.64822
G1 X24.4 Y94.167 E43.73263
G1 X24.899 Y91.686 E43.8168
G1 X25.317 Y89.235 E43.89949
G1 X25.678 Y86.702 E43.98459
G1 X25.961 Y84.207 E44.06811
G1 X26.175 Y81.685 E44.15229
G1 X26.316 Y79.204 E44.23495
G1 X26.4 Y75.237 E44.36692
G1 X26.4 Y27.674 E45.94887
G1 X26.401 Y27.515 E45.95416
G1 X26.411 Y26.85 E45.97628
G1 X26.465 Y25.931 E46.0069
G1 X26.598 Y25.02 E46.03752
G1 X26.81 Y24.124 E46.06814
G1 X27.099 Y23.249 E46.09879
G1 X27.463 Y22.404 E46.12939
G1 X27.898 Y21.593 E46.16
G1 X27.965 Y21.491 E46.16406
G0 F1350 X28.403 Y20.822
G0 F7500 X28.798 Y20.958
G1 F1500 X29.366 Y20.256 E46.1941
G1 X29.993 Y19.606 E46.22413
G1 X30.675 Y19.014 E46.25417
G1 X31.407 Y18.485 E46.28421
G1 X32.183 Y18.023 E46.31425
G1 X32.997 Y17.632 E46.34428
G1 X33.842 Y17.313 E46.37432
G1 X34.712 Y17.071 E46.40436
G1 X35.6 Y16.907 E46.43439
G1 X36.723 Y16.813 E46.47187
G1 X37.043 Y16.804 E46.48252
G1 X37.33 Y16.8 E46.49207
G1 X172.293 Y16.8 E50.98096
G1 X172.439 Y16.801 E50.98581
G1 X173.137 Y16.811 E51.00903
G1 X174.039 Y16.864 E51.03908
G1 X174.932 Y16.996 E51.06911
G1 X175.81 Y17.207 E51.09914
G1 X176.666 Y17.495 E51.12918
G1 X177.493 Y17.857 E51.1592
G1 X178.285 Y18.292 E51.18926
G1 X179.036 Y18.794 E51.2193
G1 X179.739 Y19.361 E51.24934
G1 X180.389 Y19.988 E51.27938
G1 X180.981 Y20.67 E51.30942
G1 X181.511 Y21.401 E51.33945
G1 X181.973 Y22.177 E51.36949
G1 X182.366 Y22.99 E51.39952
G1 X182.684 Y23.835 E51.42955
G1 X182.927 Y24.705 E51.45959
G1 X183.092 Y25.593 E51.48963
G1 X183.187 Y26.723 E51.52735
G1 X183.196 Y27.043 E51.538
G1 X183.2 Y27.33 E51.54754
G1 X183.2 Y46.36 E52.18049
G1 X183.237 Y48.966 E52.26717
G1 X183.346 Y51.531 E52.35256
G1 X183.524 Y54.038 E52.43615
G1 X183.775 Y56.579 E52.52108
G1 X184.096 Y59.087 E52.60517
G1 X184.49 Y61.592 E52.68952
G1 X184.952 Y64.079 E52.77365
G1 X185.495 Y66.6 E52.85942
G1 X186.09 Y69.025 E52.94247
G1 X186.767 Y71.491 E53.02752
G1 X187.51 Y73.918 E53.11194
G1 X188.321 Y76.32 E53.19626
G1 X189.211 Y78.733 E53.28181
G1 X190.137 Y81.04 E53.36449
G1 X191.179 Y83.435 E53.45136
G1 X192.23 Y85.686 E53.53399
G1 X192.575 Y86.52 E53.564
G1 X192.846 Y87.382 E53.59406
G1 X193.038 Y88.264 E53.62408
G1 X193.179 Y89.599 E53.66873
G1 X193.192 Y89.93 E53.67975
G1 X193.2 Y90.33 E53.69305
G1 X193.2 Y192.264 E57.08339
G1 X193.199 Y192.39 E57.08758
G1 X193.19 Y193.117 E57.11177
G1 X193.139 Y194.019 E57.14181
G1 X193.008 Y194.913 E57.17187
G1 X192.799 Y195.791 E57.20188
G1 X192.513 Y196.648 E57.23193
G1 X192.152 Y197.476 E57.26198
G1 X191.72 Y198.268 E57.29198
G1 X191.219 Y199.02 E57.32204
G1 X190.653 Y199.724 E57.35208
G1 X190.028 Y200.375 E57.3821
G1 X189.347 Y200.969 E57.41215
G1 X188.616 Y201.5 E57.4422
G1 X187.842 Y201.964 E57.47222
G1 X187.029 Y202.358 E57.50227
G1 X186.185 Y202.678 E57.53229
G1 X185.315 Y202.923 E57.56235
G1 X184.428 Y203.089 E57.59236
G1 X183.277 Y203.187 E57.63078
G1 X182.956 Y203.196 E57.64147
G1 X182.67 Y203.2 E57.65098
G1 X77.707 Y203.2 E61.14206
G1 X77.562 Y203.199 E61.14689
G1 X76.859 Y203.189 E61.17027
G1 X75.957 Y203.136 E61.20032
G1 X75.064 Y203.004 E61.23035
G1 X74.186 Y202.793 E61.26038
G1 X73.33 Y202.505 E61.29042
G1 X72.503 Y202.143 E61.32044
G1 X71.711 Y201.709 E61.35048
G1 X70.606 Y200.934 E61.39537
G1 X68.594 Y199.314 E61.48129
G1 X66.546 Y197.756 E61.56688
G1 X64.498 Y196.287 E61.6507
G1 X62.39 Y194.864 E61.73529
G1 X60.235 Y193.497 E61.82017
G1 X58.07 Y192.207 E61.904
G1 X55.847 Y190.967 E61.98866
G1 X53.582 Y189.785 E62.07363
G1 X51.316 Y188.684 E62.15743
G1 X49.009 Y187.643 E62.24161
G1 X46.619 Y186.643 E62.32778
G1 X44.302 Y185.753 E62.41033
G1 X41.874 Y184.896 E62.49597
G1 X39.465 Y184.122 E62.58013
G1 X37.054 Y183.421 E62.66364
G1 X34.547 Y182.77 E62.74979
G1 X32.065 Y182.198 E62.8345
G1 X29.626 Y181.711 E62.91722
G1 X27.085 Y181.276 E63.00297
G1 X24.603 Y180.924 E63.08635
G1 X22.044 Y180.633 E63.17201
G1 X19.562 Y180.423 E63.25485
G1 X16.986 Y180.277 E63.34067
G1 X14.421 Y180.204 E63.42602
