;FLAVOR:Marlin
;TIME:1865
;Filament used: 1.56732m
;Layer height: 0.2
;MINX:74.5
;MINY:81.5
;MINZ:0.2
;MAXX:145.5
;MAXY:138.5
;MAXZ:4
;Generated with Cura_SteamEngine 4.4.1
M140 S60
M105
M190 S60
M104 S205
M105
M109 S205
M82 ;absolute extrusion mode
M201 X500.00 Y500.00 Z100.00 E5000.00 ;Setup machine max acceleration
M203 X500.00 Y500.00 Z10.00 E50.00 ;Setup machine max feedrate
M204 P500.00 R1000.00 T500.00 ;Setup Print/Retract/Travel acceleration
M205 X8.00 Y8.00 Z0.40 E5.00 ;Setup Jerk
M220 S100 ;Reset Feedrate
M221 S100 ;Reset Flowrate

G28 ;Home

G92 E0 ;Reset Extruder
G1 Z2.0 F3000 ;Move Z Axis up
G1 X10.1 Y20 Z0.28 F5000.0 ;Move to start position
G1 X10.1 Y200.0 Z0.28 F1500.0 E15 ;Draw the first line
G1 X10.4 Y200.0 Z0.28 F5000.0 ;Move to side a little
G1 X10.4 Y20 Z0.28 F1500.0 E30 ;Draw the second line
G92 E0 ;Reset Extruder
G1 Z2.0 F3000 ;Move Z Axis up

G92 E0
G92 E0
G1 F1500 E-6
;LAYER_COUNT:20
;LAYER:0
M107
M204 S500
M205 X20 Y20
G0 F7500 X78.386 Y84.127 Z0.2
;TYPE:SKIRT
G1 F1500 E0
G1 X79.126 Y83.551 E0.03119
G1 X79.912 Y83.039 E0.06239
G1 X80.739 Y82.597 E0.09358
G1 X81.601 Y82.227 E0.12478
G1 X82.491 Y81.931 E0.15597
G1 X83.403 Y81.713 E0.18716
G1 X84.33 Y81.572 E0.21835
G1 X85.201 Y81.513 E0.24738
G1 X85.522 Y81.504 E0.25806
G1 X85.83 Y81.5 E0.26831
G1 X133.793 Y81.5 E1.86357
G1 X133.951 Y81.501 E1.86882
G1 X134.649 Y81.511 E1.89204
G1 X135.585 Y81.565 E1.92322
G1 X136.513 Y81.697 E1.9544
G1 X137.427 Y81.909 E1.9856
G1 X138.319 Y82.198 E2.01679
G1 X139.184 Y82.561 E2.04799
G1 X140.014 Y82.997 E2.07917
G1 X140.805 Y83.502 E2.11039
G1 X141.549 Y84.073 E2.14158
G1 X142.242 Y84.705 E2.17278
G1 X142.879 Y85.393 E2.20396
G1 X143.454 Y86.134 E2.23516
G1 X143.965 Y86.92 E2.26634
G1 X144.407 Y87.748 E2.29756
G1 X144.776 Y88.61 E2.32874
G1 X145.071 Y89.5 E2.35993
G1 X145.289 Y90.412 E2.39112
G1 X145.429 Y91.34 E2.42233
G1 X145.487 Y92.201 E2.45103
G1 X145.496 Y92.521 E2.46168
G1 X145.5 Y92.83 E2.47196
G1 X145.5 Y126.764 E3.60061
G1 X145.499 Y126.9 E3.60513
G1 X145.49 Y127.627 E3.62931
G1 X145.439 Y128.564 E3.66052
G1 X145.307 Y129.492 E3.6917
G1 X145.098 Y130.406 E3.72288
G1 X144.811 Y131.299 E3.75408
G1 X144.449 Y132.165 E3.7853
G1 X144.015 Y132.996 E3.81648
G1 X143.511 Y133.787 E3.84768
G1 X142.942 Y134.532 E3.87886
G1 X142.311 Y135.227 E3.91008
G1 X141.624 Y135.865 E3.94126
G1 X140.885 Y136.442 E3.97245
G1 X140.099 Y136.954 E4.00364
G1 X139.273 Y137.397 E4.03482
G1 X138.411 Y137.769 E4.06605
G1 X137.522 Y138.065 E4.09721
G1 X136.61 Y138.285 E4.12841
G1 X135.683 Y138.426 E4.1596
G1 X134.799 Y138.487 E4.18907
G1 X134.478 Y138.496 E4.19975
G1 X134.17 Y138.5 E4.21
G1 X86.207 Y138.5 E5.80525
G1 X86.065 Y138.499 E5.80998
G1 X85.367 Y138.49 E5.83319
G1 X84.431 Y138.438 E5.86437
G1 X83.502 Y138.306 E5.89558
G1 X82.588 Y138.096 E5.92677
G1 X81.695 Y137.809 E5.95797
G1 X80.83 Y137.446 E5.98917
G1 X79.999 Y137.012 E6.02035
G1 X79.208 Y136.508 E6.05155
G1 X78.463 Y135.938 E6.08275
G1 X77.769 Y135.307 E6.11395
G1 X77.132 Y134.62 E6.14511
G1 X76.555 Y133.88 E6.17632
G1 X76.043 Y133.094 E6.20752
G1 X75.6 Y132.267 E6.23872
G1 X75.229 Y131.406 E6.2699
G1 X74.933 Y130.516 E6.3011
G1 X74.714 Y129.604 E6.33229
G1 X74.573 Y128.677 E6.36348
G1 X74.513 Y127.788 E6.39312
G1 X74.504 Y127.455 E6.4042
G1 X74.5 Y127.158 E6.41408
G1 X74.5 Y93.174 E7.54439
G1 X74.501 Y93.025 E7.54934
G1 X74.51 Y92.36 E7.57146
G1 X74.563 Y91.424 E7.60264
G1 X74.695 Y90.495 E7.63385
G1 X74.906 Y89.581 E7.66505
G1 X75.194 Y88.689 E7.69623
G1 X75.557 Y87.824 E7.72743
G1 X75.992 Y86.993 E7.75863
G1 X76.496 Y86.203 E7.78979
G1 X77.066 Y85.458 E7.82099
G1 X77.698 Y84.764 E7.85221
G1 X77.799 Y84.67 E7.8568
G0 F1350 X78.386 Y84.127
G0 F7500 X78.774 Y84.323
G1 F1500 X79.51 Y83.77 E7.88742
G1 X80.291 Y83.282 E7.91805
G1 X81.111 Y82.864 E7.94866
G1 X81.965 Y82.519 E7.9793
G1 X82.845 Y82.249 E8.00991
G1 X83.745 Y82.057 E8.04052
G1 X84.659 Y81.943 E8.07116
G1 X85.212 Y81.913 E8.08958
G1 X85.533 Y81.904 E8.10026
G1 X85.83 Y81.9 E8.11014
G1 X133.793 Y81.9 E9.70539
G1 X133.945 Y81.901 E9.71045
G1 X134.643 Y81.911 E9.73367
G1 X135.562 Y81.964 E9.76428
G1 X136.473 Y82.097 E9.7949
G1 X137.369 Y82.308 E9.82552
G1 X138.243 Y82.596 E9.85613
G1 X139.09 Y82.959 E9.88678
G1 X139.901 Y83.394 E9.91739
G1 X140.671 Y83.898 E9.94799
G1 X141.395 Y84.467 E9.97862
G1 X142.067 Y85.097 E10.00926
G1 X142.682 Y85.782 E10.03988
G1 X143.235 Y86.518 E10.0705
G1 X143.722 Y87.299 E10.10111
G1 X144.139 Y88.12 E10.13174
G1 X144.484 Y88.974 E10.16237
G1 X144.753 Y89.854 E10.19298
G1 X144.945 Y90.755 E10.22362
G1 X145.058 Y91.668 E10.25421
G1 X145.087 Y92.212 E10.27233
G1 X145.096 Y92.532 E10.28298
G1 X145.1 Y92.83 E10.29289
G1 X145.1 Y126.764 E11.42154
G1 X145.099 Y126.895 E11.4259
G1 X145.09 Y127.622 E11.45008
G1 X145.039 Y128.541 E11.4807
G1 X144.908 Y129.453 E11.51134
G1 X144.698 Y130.349 E11.54195
G1 X144.412 Y131.224 E11.57257
G1 X144.051 Y132.071 E11.60319
G1 X143.617 Y132.883 E11.63381
G1 X143.115 Y133.655 E11.66444
G1 X142.547 Y134.38 E11.69507
G1 X141.919 Y135.053 E11.72569
G1 X141.235 Y135.669 E11.75631
G1 X140.5 Y136.223 E11.78692
G1 X139.72 Y136.712 E11.81754
G1 X138.9 Y137.131 E11.84816
G1 X138.047 Y137.477 E11.87878
G1 X137.167 Y137.748 E11.90941
G1 X136.267 Y137.941 E11.94002
G1 X135.353 Y138.056 E11.97066
G1 X134.788 Y138.087 E11.98948
G1 X134.467 Y138.096 E12.00016
G1 X134.17 Y138.1 E12.01004
G1 X86.207 Y138.1 E13.6053
G1 X86.07 Y138.099 E13.60985
G1 X85.372 Y138.09 E13.63307
G1 X84.453 Y138.038 E13.66369
G1 X83.542 Y137.907 E13.6943
G1 X82.646 Y137.697 E13.72491
G1 X81.771 Y137.41 E13.75553
G1 X80.924 Y137.048 E13.78617
G1 X80.112 Y136.614 E13.81679
G1 X79.341 Y136.112 E13.84739
G1 X78.616 Y135.544 E13.87803
G1 X77.943 Y134.915 E13.90866
G1 X77.328 Y134.231 E13.93926
G1 X76.774 Y133.496 E13.96987
G1 X76.286 Y132.715 E14.0005
G1 X75.867 Y131.895 E14.03113
G1 X75.521 Y131.042 E14.06174
G1 X75.251 Y130.162 E14.09236
G1 X75.058 Y129.261 E14.12301
G1 X74.944 Y128.348 E14.15361
G1 X74.913 Y127.777 E14.17263
G1 X74.904 Y127.444 E14.18371
G1 X74.9 Y127.158 E14.19322
G1 X74.9 Y93.174 E15.32353
G1 X74.901 Y93.031 E15.32829
G1 X74.91 Y92.366 E15.35041
G1 X74.962 Y91.446 E15.38106
G1 X75.094 Y90.535 E15.41168
G1 X75.305 Y89.639 E15.44229
G1 X75.592 Y88.764 E15.47292
G1 X75.955 Y87.918 E15.50354
G1 X76.389 Y87.106 E15.53416
G1 X76.892 Y86.335 E15.56478
G1 X77.461 Y85.611 E15.59541
G1 X78.089 Y84.939 E15.626
G1 X78.179 Y84.858 E15.63003
G0 F1350 X78.774 Y84.323
G0 F7500 X79.162 Y84.524
G1 F1500 X79.894 Y83.994 E15.66008
G1 X80.669 Y83.531 E15.69011
G1 X81.482 Y83.138 E15.72014
G1 X82.327 Y82.818 E15.7502
G1 X83.196 Y82.575 E15.78021
G1 X84.084 Y82.409 E15.81026
G1 X85.223 Y82.313 E15.84827
G1 X85.544 Y82.304 E15.85895
G1 X85.83 Y82.3 E15.86847
G1 X133.793 Y82.3 E17.46372
G1 X133.939 Y82.301 E17.46858
G1 X134.637 Y82.311 E17.4918
G1 X135.539 Y82.364 E17.52185
G1 X136.432 Y82.496 E17.55187
G1 X137.31 Y82.707 E17.58191
G1 X138.166 Y82.995 E17.61195
G1 X138.993 Y83.357 E17.64197
G1 X139.785 Y83.792 E17.67203
G1 X140.536 Y84.294 E17.70207
G1 X141.239 Y84.861 E17.73211
G1 X141.889 Y85.488 E17.76215
G1 X142.481 Y86.17 E17.79218
G1 X143.011 Y86.901 E17.82222
G1 X143.473 Y87.677 E17.85225
G1 X143.866 Y88.49 E17.88229
G1 X144.184 Y89.335 E17.91232
G1 X144.427 Y90.205 E17.94236
G1 X144.592 Y91.093 E17.9724
G1 X144.687 Y92.223 E18.01012
G1 X144.696 Y92.543 E18.02077
G1 X144.7 Y92.83 E18.03031
G1 X144.7 Y126.764 E19.15896
G1 X144.699 Y126.89 E19.16315
G1 X144.69 Y127.617 E19.18733
G1 X144.639 Y128.519 E19.21738
G1 X144.508 Y129.413 E19.24743
G1 X144.299 Y130.291 E19.27745
G1 X144.013 Y131.148 E19.3075
G1 X143.652 Y131.976 E19.33755
G1 X143.22 Y132.768 E19.36755
G1 X142.719 Y133.52 E19.39761
G1 X142.153 Y134.224 E19.42765
G1 X141.528 Y134.875 E19.45767
G1 X140.847 Y135.469 E19.48772
G1 X140.116 Y136 E19.51777
G1 X139.342 Y136.464 E19.54779
G1 X138.529 Y136.858 E19.57784
G1 X137.685 Y137.178 E19.60786
G1 X136.815 Y137.423 E19.63792
G1 X135.928 Y137.589 E19.66793
G1 X134.777 Y137.687 E19.70635
G1 X134.456 Y137.696 E19.71703
G1 X134.17 Y137.7 E19.72655
G1 X86.207 Y137.7 E21.3218
G1 X86.075 Y137.699 E21.32619
G1 X85.377 Y137.69 E21.34941
G1 X84.476 Y137.639 E21.37943
G1 X83.582 Y137.507 E21.40948
G1 X82.704 Y137.298 E21.4395
G1 X81.847 Y137.011 E21.46956
G1 X81.02 Y136.65 E21.49957
G1 X80.227 Y136.217 E21.52963
G1 X79.476 Y135.716 E21.55965
G1 X78.772 Y135.15 E21.5897
G1 X78.121 Y134.524 E21.61973
G1 X77.528 Y133.843 E21.64977
G1 X76.998 Y133.112 E21.6798
G1 X76.534 Y132.337 E21.70984
G1 X76.14 Y131.524 E21.73989
G1 X75.82 Y130.68 E21.76991
G1 X75.576 Y129.81 E21.79997
G1 X75.41 Y128.922 E21.83001
G1 X75.313 Y127.767 E21.86856
G1 X75.304 Y127.434 E21.87964
G1 X75.3 Y127.158 E21.88882
G1 X75.3 Y93.174 E23.01914
G1 X75.301 Y93.036 E23.02373
G1 X75.31 Y92.371 E23.04585
G1 X75.362 Y91.469 E23.0759
G1 X75.494 Y90.576 E23.10592
G1 X75.704 Y89.698 E23.13595
G1 X75.991 Y88.841 E23.16601
G1 X76.353 Y88.014 E23.19603
G1 X76.786 Y87.222 E23.22605
G1 X77.288 Y86.471 E23.2561
G1 X77.855 Y85.767 E23.28616
G1 X78.481 Y85.117 E23.31618
G1 X78.559 Y85.049 E23.31962
G0 F1350 X79.162 Y84.524
G1 F1500 E17.31962
;MESH:base_mini_breadboard.stl
G0 F7500 X99.22 Y111.164
;TYPE:WALL-INNER
G1 F1500 E23.31962
G1 X99.434 Y110.601 E23.33965
G1 X99.507 Y110 E23.35979
G1 X99.434 Y109.399 E23.37993
G1 X99.22 Y108.836 E23.39996
G1 X98.878 Y108.337 E23.42008
G1 X98.424 Y107.936 E23.44023
G1 X97.89 Y107.655 E23.4603
G1 X97.301 Y107.511 E23.48046
G1 X96.699 Y107.511 E23.50049
G1 X96.11 Y107.655 E23.52065
G1 X95.576 Y107.936 E23.54072
G1 X95.122 Y108.337 E23.56087
G1 X94.78 Y108.836 E23.58099
G1 X94.566 Y109.399 E23.60102
G1 X94.493 Y110 E23.62116
G1 X94.566 Y110.601 E23.6413
G1 X94.78 Y111.164 E23.66133
G1 X95.122 Y111.663 E23.68145
G1 X95.576 Y112.064 E23.7016
G1 X96.11 Y112.345 E23.72167
G1 X96.699 Y112.489 E23.74183
G1 X97.301 Y112.489 E23.76186
G1 X97.89 Y112.345 E23.78202
G1 X98.424 Y112.064 E23.80209
G1 X98.731 Y111.792 E23.81573
G0 F1350 X98.878 Y111.663
G0 X99.22 Y111.164
G0 F7500 X98.863 Y110.977
G1 F1500 X99.043 Y110.504 E23.83257
G1 X99.104 Y110 E23.84945
G1 X99.043 Y109.496 E23.86634
G1 X98.863 Y109.023 E23.88317
G1 X98.576 Y108.604 E23.90006
G1 X98.195 Y108.268 E23.91696
G1 X97.747 Y108.032 E23.9338
G1 X97.253 Y107.911 E23.95072
G1 X96.747 Y107.911 E23.96755
G1 X96.253 Y108.032 E23.98446
G1 X95.805 Y108.268 E24.0013
G1 X95.424 Y108.604 E24.0182
G1 X95.137 Y109.023 E24.03509
G1 X94.957 Y109.496 E24.05192
G1 X94.896 Y110 E24.06881
G1 X94.957 Y110.504 E24.0857
G1 X95.137 Y110.977 E24.10253
G1 X95.424 Y111.396 E24.11942
G1 X95.805 Y111.732 E24.13632
G1 X96.253 Y111.968 E24.15316
G1 X96.747 Y112.089 E24.17007
G1 X97.253 Y112.089 E24.1869
G1 X97.747 Y111.968 E24.20382
G1 X98.195 Y111.732 E24.22066
G1 X98.356 Y111.59 E24.2278
G0 F1350 X98.576 Y111.396
G0 X98.863 Y110.977
G0 F7500 X98.506 Y110.79
;TYPE:WALL-OUTER
G1 F1500 X98.652 Y110.407 E24.24075
G1 X98.701 Y110 E24.2537
G1 X98.652 Y109.593 E24.26666
G1 X98.506 Y109.21 E24.27961
G1 X98.274 Y108.871 E24.29259
G1 X97.966 Y108.6 E24.30555
G1 X97.604 Y108.409 E24.31848
G1 X97.205 Y108.311 E24.33147
G1 X96.795 Y108.311 E24.34442
G1 X96.396 Y108.409 E24.3574
G1 X96.034 Y108.6 E24.37034
G1 X95.726 Y108.871 E24.3833
G1 X95.494 Y109.21 E24.39628
G1 X95.348 Y109.593 E24.40923
G1 X95.299 Y110 E24.42218
G1 X95.348 Y110.407 E24.43513
G1 X95.494 Y110.79 E24.44809
G1 X95.726 Y111.129 E24.46107
G1 X96.034 Y111.4 E24.47403
G1 X96.396 Y111.591 E24.48696
G1 X96.795 Y111.689 E24.49994
G1 X97.205 Y111.689 E24.5129
G1 X97.604 Y111.591 E24.52588
G1 X97.966 Y111.4 E24.53881
G1 X98.013 Y111.359 E24.54078
G0 F1350 X98.274 Y111.129
G0 X98.506 Y110.79
G0 F7500 X98.648 Y110.416
G0 X99.06 Y110.573
G1 F1500 E18.54078
G0 F7500 X120.78 Y111.164
;TYPE:WALL-INNER
G1 F1500 E24.54078
G1 X121.122 Y111.663 E24.5609
G1 X121.576 Y112.064 E24.58105
G1 X122.11 Y112.345 E24.60112
G1 X122.699 Y112.489 E24.62129
G1 X123.301 Y112.489 E24.64131
G1 X123.89 Y112.345 E24.66148
G1 X124.424 Y112.064 E24.68155
G1 X124.878 Y111.663 E24.70169
G1 X125.22 Y111.164 E24.72181
G1 X125.434 Y110.601 E24.74185
G1 X125.507 Y110 E24.76198
G1 X125.434 Y109.399 E24.78212
G1 X125.22 Y108.836 E24.80215
G1 X124.878 Y108.337 E24.82227
G1 X124.424 Y107.936 E24.84242
G1 X123.89 Y107.655 E24.86249
G1 X123.301 Y107.511 E24.88266
G1 X122.699 Y107.511 E24.90268
G1 X122.11 Y107.655 E24.92285
G1 X121.576 Y107.936 E24.94292
G1 X121.122 Y108.337 E24.96306
G1 X120.78 Y108.836 E24.98318
G1 X120.566 Y109.399 E25.00322
G1 X120.493 Y110 E25.02335
G1 X120.543 Y110.405 E25.03693
G0 F1350 X120.566 Y110.601
G0 X120.78 Y111.164
G0 F7500 X121.137 Y110.977
G1 F1500 X121.424 Y111.396 E25.05382
G1 X121.805 Y111.732 E25.07071
G1 X122.253 Y111.968 E25.08756
G1 X122.747 Y112.089 E25.10447
G1 X123.253 Y112.089 E25.1213
G1 X123.747 Y111.968 E25.13822
G1 X124.195 Y111.732 E25.15506
G1 X124.576 Y111.396 E25.17195
G1 X124.863 Y110.977 E25.18885
G1 X125.043 Y110.504 E25.20568
G1 X125.104 Y110 E25.22256
G1 X125.043 Y109.496 E25.23945
G1 X124.863 Y109.023 E25.25628
G1 X124.576 Y108.604 E25.27317
G1 X124.195 Y108.268 E25.29007
G1 X123.747 Y108.032 E25.30691
G1 X123.253 Y107.911 E25.32383
G1 X122.747 Y107.911 E25.34066
G1 X122.253 Y108.032 E25.35757
G1 X121.805 Y108.268 E25.37442
G1 X121.424 Y108.604 E25.39131
G1 X121.137 Y109.023 E25.4082
G1 X120.957 Y109.496 E25.42504
G1 X120.896 Y110 E25.44192
G1 X120.922 Y110.212 E25.44903
G0 F1350 X120.957 Y110.504
G0 X121.137 Y110.977
G0 F7500 X121.494 Y110.79
;TYPE:WALL-OUTER
G1 F1500 X121.726 Y111.129 E25.46201
G1 X122.034 Y111.4 E25.47497
G1 X122.396 Y111.591 E25.4879
G1 X122.795 Y111.689 E25.50088
G1 X123.205 Y111.689 E25.51384
G1 X123.604 Y111.591 E25.52682
G1 X123.966 Y111.4 E25.53975
G1 X124.274 Y111.129 E25.55271
G1 X124.506 Y110.79 E25.56569
G1 X124.652 Y110.407 E25.57865
G1 X124.701 Y110 E25.5916
G1 X124.652 Y109.593 E25.60455
G1 X124.506 Y109.21 E25.6175
G1 X124.274 Y108.871 E25.63048
G1 X123.966 Y108.6 E25.64344
G1 X123.604 Y108.409 E25.65638
G1 X123.205 Y108.311 E25.66936
G1 X122.795 Y108.311 E25.68231
G1 X122.396 Y108.409 E25.6953
G1 X122.034 Y108.6 E25.70823
G1 X121.726 Y108.871 E25.72119
G1 X121.494 Y109.21 E25.73417
G1 X121.348 Y109.593 E25.74712
G1 X121.299 Y110 E25.76008
G1 X121.307 Y110.06 E25.76199
G0 F1350 X121.348 Y110.407
G0 X121.494 Y110.79
G0 F7500 X121.72 Y111.12
G0 X121.357 Y111.368
G1 F1500 E19.76199
G0 F7500 X86.5 Y126.5
;TYPE:WALL-INNER
G1 F1500 E25.76199
G1 X86.5 Y93.5 E26.85957
G1 X133.5 Y93.5 E28.4228
G1 X133.5 Y126.5 E29.52038
G1 X87.3 Y126.5 E31.057
G0 F1350 X86.5 Y126.5
G0 F7500 X86.1 Y126.9
G1 F1500 X86.1 Y93.1 E32.18119
G1 X133.9 Y93.1 E33.77103
G1 X133.9 Y126.9 E34.89522
G1 X86.9 Y126.9 E36.45845
G0 F1350 X86.1 Y126.9
G0 F7500 X85.7 Y127.3
;TYPE:WALL-OUTER
G1 F1500 X85.7 Y92.7 E37.55171
G1 X134.3 Y92.7 E39.08733
G1 X134.3 Y127.3 E40.18059
G1 X86.5 Y127.3 E41.69093
G0 F1350 X85.7 Y127.3
G0 F7500 X85.7 Y126.9
G0 X86.14 Y126.86
G0 X86.89 Y126.11
;TYPE:SKIN
G1 F1500 X86.89 Y93.89 E42.76257
G1 X133.11 Y93.89 E44.29986
G1 X133.11 Y126.11 E45.3715
G1 X87.69 Y126.11 E46.88217
G0 F1350 X86.89 Y126.11
G1 F1500 E40.88217
G0 F7500 X95.353 Y112.388
G1 F1500 E46.88217
G1 X95.971 Y112.712 E46.90538
G1 X96.652 Y112.879 E46.9287
G1 X97.348 Y112.879 E46.95185
G1 X98.029 Y112.712 E46.97517
G1 X98.647 Y112.388 E46.99838
G1 X99.172 Y111.924 E47.02169
G1 X99.568 Y111.346 E47.04499
G1 X99.816 Y110.695 E47.06816
G1 X99.899 Y110 E47.09144
G1 X99.816 Y109.305 E47.11472
G1 X99.568 Y108.654 E47.13789
G1 X99.172 Y108.076 E47.16119
G1 X98.647 Y107.612 E47.1845
G1 X98.029 Y107.288 E47.20771
G1 X97.348 Y107.121 E47.23103
G1 X96.652 Y107.121 E47.25418
G1 X95.971 Y107.288 E47.2775
G1 X95.353 Y107.612 E47.30071
G1 X94.828 Y108.076 E47.32401
G1 X94.432 Y108.654 E47.34731
G1 X94.184 Y109.305 E47.37048
G1 X94.101 Y110 E47.39376
G1 X94.184 Y110.695 E47.41704
G1 X94.432 Y111.346 E47.44021
G1 X94.772 Y111.842 E47.46021
G0 F1350 X94.828 Y111.924
G0 X95.353 Y112.388
G1 F1500 E41.46021
G0 F7500 X120.432 Y111.346
G1 F1500 E47.46021
G1 X120.828 Y111.924 E47.48352
G1 X121.353 Y112.388 E47.50682
G1 X121.971 Y112.712 E47.53003
