;FLAVOR:Marlin
;TIME:6789
;Filament used: 2.52276m
;Layer height: 0.12
;MINX:50
;MINY:30
;MINZ:0.12
;MAXX:184.2
;MAXY:190
;MAXZ:3.6
;Generated with Cura_SteamEngine 4.4.1
M140 S60
M105
M190 S60
M104 S205
M105
M109 S205
M82 ;absolute extrusion mode
M201 X500.00 Y500.00 Z100.00 E5000.00 ;Setup machine max acceleration
M203 X500.00 Y500.00 Z10.00 E50.00 ;Setup machine max feedrate
M204 P500.00 R1000.00 T500.00 ;Setup Print/Retract/Travel acceleration
M205 X8.00 Y8.00 Z0.40 E5.00 ;Setup Jerk
M220 S100 ;Reset Feedrate
M221 S100 ;Reset Flowrate

G28 ;Home

G92 E0 ;Reset Extruder
G1 Z2.0 F3000 ;Move Z Axis up
G1 X10.1 Y20 Z0.28 F5000.0 ;Move to start position
G1 X10.1 Y200.0 Z0.28 F1500.0 E15 ;Draw the first line
G1 X10.4 Y200.0 Z0.28 F5000.0 ;Move to side a little
G1 X10.4 Y20 Z0.28 F1500.0 E30 ;Draw the second line
G92 E0 ;Reset Extruder
G1 Z2.0 F3000 ;Move Z Axis up

G92 E0
G92 E0
G1 F1500 E-6
;LAYER_COUNT:30
;LAYER:0
M107
M205 X20 Y20
G0 F7500 X58.488 Y62.626 Z0.12
;TYPE:SKIRT
G1 F1500 E0
G1 X59.145 Y62.11 E0.01667
G1 X59.548 Y61.817 E0.02661
G1 X61.67 Y60.246 E0.0793
G1 X63.644 Y58.695 E0.1294
G1 X65.589 Y57.077 E0.17989
G1 X67.461 Y55.428 E0.22968
G1 X69.317 Y53.697 E0.28032
G1 X71.089 Y51.949 E0.33
G1 X72.854 Y50.106 E0.38092
G1 X74.544 Y48.239 E0.43118
G1 X76.166 Y46.339 E0.48103
G1 X77.744 Y44.384 E0.53117
G1 X79.279 Y42.366 E0.58176
G1 X80.742 Y40.329 E0.63181
G1 X82.149 Y38.244 E0.68201
G1 X83.553 Y36.033 E0.73428
G1 X84.04 Y35.242 E0.75281
G1 X84.565 Y34.465 E0.77153
G1 X85.155 Y33.736 E0.79024
G1 X85.804 Y33.059 E0.80896
G1 X86.509 Y32.44 E0.82768
G1 X87.264 Y31.884 E0.84639
G1 X88.064 Y31.394 E0.86511
G1 X88.902 Y30.974 E0.88382
G1 X89.773 Y30.626 E0.90254
G1 X90.671 Y30.355 E0.92126
G1 X91.589 Y30.16 E0.93998
G1 X92.519 Y30.045 E0.95868
G1 X93.101 Y30.013 E0.97032
G1 X93.424 Y30.004 E0.97677
G1 X93.73 Y30 E0.98287
G1 X97.893 Y30 E1.06595
G1 X98.049 Y30.001 E1.06906
G1 X98.756 Y30.011 E1.08317
G1 X98.917 Y30.015 E1.08639
G1 X101.619 Y30.093 E1.14033
G1 X104.152 Y30.093 E1.19088
G1 X107.432 Y30.004 E1.25636
G1 X107.73 Y30 E1.26231
G1 X111.893 Y30 E1.34538
G1 X112.05 Y30.001 E1.34852
G1 X112.751 Y30.011 E1.36251
G1 X113.687 Y30.064 E1.38122
G1 X114.616 Y30.197 E1.39994
G1 X115.529 Y30.409 E1.41865
G1 X116.422 Y30.697 E1.43737
G1 X117.286 Y31.061 E1.45608
G1 X118.117 Y31.497 E1.47481
G1 X118.907 Y32.002 E1.49352
G1 X119.651 Y32.572 E1.51223
G1 X120.634 Y33.503 E1.53924
G1 X122.387 Y35.381 E1.59051
G1 X124.158 Y37.177 E1.64085
G1 X125.976 Y38.918 E1.69108
G1 X127.849 Y40.615 E1.74152
G1 X129.763 Y42.25 E1.79175
G1 X131.721 Y43.832 E1.84199
G1 X133.727 Y45.358 E1.89229
G1 X135.739 Y46.803 E1.94172
G1 X137.863 Y48.238 E1.99287
G1 X139.982 Y49.585 E2.04298
G1 X142.138 Y50.871 E2.09308
G1 X144.33 Y52.095 E2.14318
G1 X146.573 Y53.267 E2.19368
G1 X148.839 Y54.369 E2.24397
G1 X151.099 Y55.391 E2.29347
G1 X153.468 Y56.384 E2.34473
G1 X155.799 Y57.28 E2.39456
G1 X158.155 Y58.113 E2.44443
G1 X160.59 Y58.896 E2.49548
G1 X162.992 Y59.596 E2.5454
G1 X165.489 Y60.246 E2.5969
G1 X165.812 Y60.325 E2.60353
G1 X166.712 Y60.587 E2.62224
G1 X167.587 Y60.925 E2.64096
G1 X168.43 Y61.336 E2.65967
G1 X169.235 Y61.817 E2.67839
G1 X169.996 Y62.366 E2.69711
G1 X170.708 Y62.977 E2.71584
G1 X171.364 Y63.646 E2.73453
G1 X171.962 Y64.369 E2.75326
G1 X172.495 Y65.14 E2.77196
G1 X172.961 Y65.954 E2.79068
G1 X173.356 Y66.805 E2.8094
G1 X173.677 Y67.686 E2.82811
G1 X173.922 Y68.592 E2.84684
G1 X174.03 Y69.133 E2.85785
G1 X174.148 Y69.812 E2.87161
G1 X174.632 Y72.401 E2.92417
G1 X175.167 Y74.87 E2.97458
G1 X175.764 Y77.294 E3.0244
G1 X176.438 Y79.727 E3.07478
G1 X177.175 Y82.126 E3.12487
G1 X177.995 Y84.549 E3.17591
G1 X178.852 Y86.863 E3.22516
G1 X179.794 Y89.202 E3.27548
G1 X180.816 Y91.545 E3.32649
G1 X181.867 Y93.779 E3.37576
G1 X182.931 Y95.883 E3.42281
G1 X183.061 Y96.15 E3.42874
G1 X183.137 Y96.311 E3.43229
G1 X183.501 Y97.176 E3.45102
G1 X183.79 Y98.068 E3.46973
G1 X184.002 Y98.982 E3.48845
G1 X184.135 Y99.91 E3.50716
G1 X184.185 Y100.667 E3.5223
G1 X184.195 Y100.99 E3.52875
G1 X184.2 Y101.33 E3.53554
G1 X184.2 Y118.274 E3.87367
G1 X184.199 Y118.427 E3.87673
G1 X184.189 Y119.144 E3.89104
G1 X184.136 Y120.081 E3.90976
G1 X184.003 Y121.009 E3.92847
G1 X183.792 Y121.923 E3.94719
G1 X183.504 Y122.815 E3.9659
G1 X183.14 Y123.68 E3.98463
G1 X182.705 Y124.511 E4.00334
G1 X182.2 Y125.301 E4.02206
G1 X181.473 Y126.229 E4.04558
G1 X180.69 Y127.125 E4.06933
G1 X180.562 Y127.269 E4.07317
G1 X180.331 Y127.524 E4.08004
G1 X178.68 Y129.457 E4.13077
G1 X177.12 Y131.391 E4.18035
G1 X175.595 Y133.398 E4.23066
G1 X174.119 Y135.456 E4.2812
G1 X172.707 Y137.549 E4.33158
G1 X171.367 Y139.662 E4.38151
G1 X170.076 Y141.829 E4.43185
G1 X168.861 Y144.006 E4.4816
G1 X167.683 Y146.267 E4.53248
G1 X166.591 Y148.516 E4.58237
G1 X165.552 Y150.816 E4.63274
G1 X164.56 Y153.192 E4.68412
G1 X164.162 Y154.041 E4.70283
G1 X163.693 Y154.854 E4.72156
G1 X163.157 Y155.623 E4.74027
G1 X162.557 Y156.344 E4.75899
G1 X162.187 Y156.732 E4.76969
G1 X162.014 Y156.905 E4.77457
G1 X161.271 Y157.583 E4.79464
G1 X159.531 Y159.03 E4.8398
G1 X157.592 Y160.738 E4.89137
G1 X155.791 Y162.416 E4.94049
G1 X153.995 Y164.19 E4.99087
G1 X152.228 Y166.035 E5.04185
G1 X150.583 Y167.854 E5.09079
G1 X148.912 Y169.807 E5.14209
G1 X147.344 Y171.752 E5.19194
G1 X145.817 Y173.759 E5.24227
G1 X144.338 Y175.82 E5.29289
G1 X142.941 Y177.888 E5.3427
G1 X141.607 Y179.989 E5.39236
G1 X140.052 Y182.607 E5.45313
G1 X139.539 Y183.392 E5.47184
G1 X138.961 Y184.131 E5.49057
G1 X138.323 Y184.818 E5.50928
G1 X137.628 Y185.447 E5.52798
G1 X136.882 Y186.016 E5.5467
G1 X136.09 Y186.519 E5.56543
G1 X135.258 Y186.952 E5.58415
G1 X134.393 Y187.313 E5.60285
G1 X133.5 Y187.599 E5.62156
G1 X132.585 Y187.808 E5.64029
G1 X131.242 Y187.971 E5.66729
G1 X130.709 Y188.002 E5.67795
G1 X128.086 Y188.191 E5.73043
G1 X125.577 Y188.444 E5.78075
G1 X123.084 Y188.766 E5.83091
G1 X120.609 Y189.157 E5.88092
G1 X118.085 Y189.629 E5.93216
G1 X117.365 Y189.774 E5.94682
G1 X116.438 Y189.92 E5.96554
G1 X115.533 Y189.985 E5.98365
G1 X115.206 Y189.995 E5.99018
G1 X114.87 Y190 E5.99689
G1 X105.507 Y190 E6.18373
G1 X105.349 Y189.999 E6.18689
G1 X104.651 Y189.989 E6.20082
G1 X103.715 Y189.935 E6.21953
G1 X102.816 Y189.808 E6.23765
G1 X102.219 Y189.698 E6.24976
G1 X102.051 Y189.666 E6.25317
G1 X100.482 Y189.352 E6.28511
G1 X98.016 Y188.931 E6.33503
G1 X95.525 Y188.578 E6.38524
G1 X93.031 Y188.295 E6.43533
G1 X90.508 Y188.082 E6.48585
G1 X89.644 Y188.033 E6.50312
G1 X89.498 Y188.024 E6.50604
G1 X88.632 Y187.963 E6.52337
G1 X87.7 Y187.857 E6.54209
G1 X86.781 Y187.672 E6.56079
G1 X85.88 Y187.41 E6.57952
G1 X85.005 Y187.072 E6.59824
G1 X84.163 Y186.66 E6.61695
G1 X83.358 Y186.179 E6.63566
G1 X82.597 Y185.63 E6.65439
G1 X81.886 Y185.019 E6.67309
G1 X81.229 Y184.349 E6.69182
G1 X80.632 Y183.626 E6.71053
G1 X79.957 Y182.624 E6.73464
G1 X79.471 Y181.809 E6.75358
G1 X79.396 Y181.681 E6.75654
G1 X79.02 Y181.031 E6.77152
G1 X77.698 Y178.887 E6.82179
G1 X76.304 Y176.764 E6.87247
G1 X74.879 Y174.721 E6.92218
G1 X73.384 Y172.702 E6.97232
G1 X71.814 Y170.702 E7.02306
G1 X70.218 Y168.784 E7.07285
G1 X68.555 Y166.895 E7.12307
G1 X66.83 Y165.045 E7.17355
G1 X65.072 Y163.264 E7.22349
G1 X63.225 Y161.496 E7.27452
G1 X61.407 Y159.852 E7.32343
G1 X59.388 Y158.126 E7.37644
G1 X58.585 Y157.46 E7.39726
G1 X57.89 Y156.831 E7.41596
G1 X57.251 Y156.144 E7.43469
G1 X56.672 Y155.406 E7.45341
G1 X56.159 Y154.621 E7.47212
G1 X55.714 Y153.796 E7.49083
G1 X55.341 Y152.935 E7.50955
G1 X55.043 Y152.046 E7.52826
G1 X54.822 Y151.134 E7.54699
G1 X54.679 Y150.208 E7.56569
G1 X54.619 Y149.393 E7.582
G1 X54.607 Y149.06 E7.58865
G1 X54.601 Y148.777 E7.59429
G1 X54.597 Y148.387 E7.60208
G1 X54.565 Y146.47 E7.64034
G1 X54.456 Y143.912 E7.69143
G1 X54.279 Y141.418 E7.74133
G1 X54.032 Y138.923 E7.79136
G1 X53.712 Y136.422 E7.84168
G1 X53.321 Y133.933 E7.89196
G1 X52.859 Y131.45 E7.94236
G1 X52.333 Y129.005 E7.99227
G1 X51.728 Y126.535 E8.04302
G1 X51.065 Y124.125 E8.0929
G1 X50.733 Y123.046 E8.11543
G1 X50.686 Y122.888 E8.11872
G1 X50.449 Y122.074 E8.13564
G1 X50.225 Y121.163 E8.15436
G1 X50.08 Y120.237 E8.17306
G1 X50.015 Y119.333 E8.19115
G1 X50.005 Y119.004 E8.19772
G1 X50 Y118.67 E8.20438
G1 X50 Y101.707 E8.5429
G1 X50.001 Y101.549 E8.54605
G1 X50.011 Y100.852 E8.55996
G1 X50.065 Y99.916 E8.57867
G1 X50.198 Y98.987 E8.5974
G1 X50.479 Y97.834 E8.62108
G1 X50.677 Y97.176 E8.6348
G1 X51.4 Y94.689 E8.68648
G1 X52.035 Y92.249 E8.7368
G1 X52.605 Y89.776 E8.78744
G1 X53.104 Y87.293 E8.83798
G1 X53.52 Y84.861 E8.88722
G1 X53.877 Y82.357 E8.9377
G1 X54.164 Y79.829 E8.98847
G1 X54.376 Y77.34 E9.03832
G1 X54.518 Y74.846 E9.08817
G1 X54.592 Y72.212 E9.14076
G1 X54.611 Y70.858 E9.16778
G1 X54.664 Y69.922 E9.18649
G1 X54.796 Y68.993 E9.20521
G1 X55.007 Y68.08 E9.22391
G1 X55.295 Y67.187 E9.24264
G1 X55.658 Y66.322 E9.26136
G1 X56.094 Y65.492 E9.28007
G1 X56.598 Y64.701 E9.29879
G1 X57.168 Y63.956 E9.31751
G1 X57.534 Y63.555 E9.32834
G0 F1350 X57.8 Y63.263
G0 X58.488 Y62.626
G0 F7500 X58.877 Y62.822
G1 F1500 X59.38 Y62.433 E9.34103
G1 X59.783 Y62.14 E9.35097
G1 X61.909 Y60.566 E9.40376
G1 X63.901 Y59.001 E9.45432
G1 X65.846 Y57.383 E9.5048
G1 X67.752 Y55.704 E9.55549
G1 X69.588 Y53.992 E9.60559
G1 X71.376 Y52.228 E9.65571
G1 X73.138 Y50.387 E9.70657
G1 X74.845 Y48.502 E9.75732
G1 X76.466 Y46.605 E9.80711
G1 X78.058 Y44.632 E9.85771
G1 X79.607 Y42.596 E9.90876
G1 X81.082 Y40.54 E9.95926
G1 X82.476 Y38.477 E10.00894
G1 X83.909 Y36.218 E10.06233
G1 X84.381 Y35.452 E10.08028
G1 X84.897 Y34.69 E10.09865
G1 X85.477 Y33.975 E10.11702
G1 X86.117 Y33.313 E10.1354
G1 X86.813 Y32.71 E10.15377
G1 X87.558 Y32.169 E10.17215
G1 X88.347 Y31.695 E10.19052
G1 X89.174 Y31.291 E10.20888
G1 X90.033 Y30.96 E10.22725
G1 X90.918 Y30.705 E10.24563
G1 X91.822 Y30.528 E10.26402
G1 X93.112 Y30.413 E10.28986
G1 X93.435 Y30.404 E10.29631
G1 X93.73 Y30.4 E10.3022
G1 X97.893 Y30.4 E10.38528
G1 X98.043 Y30.401 E10.38827
G1 X98.75 Y30.411 E10.40238
G1 X98.906 Y30.414 E10.40549
G1 X101.642 Y30.493 E10.46012
G1 X104.162 Y30.493 E10.51041
G1 X107.442 Y30.404 E10.57589
G1 X107.73 Y30.4 E10.58163
G1 X111.893 Y30.4 E10.66471
G1 X112.044 Y30.401 E10.66772
G1 X112.745 Y30.411 E10.68171
G1 X113.664 Y30.464 E10.70008
G1 X114.575 Y30.597 E10.71846
G1 X115.471 Y30.808 E10.73683
G1 X116.346 Y31.096 E10.75521
G1 X117.192 Y31.459 E10.77358
G1 X118.003 Y31.894 E10.79195
G1 X118.774 Y32.398 E10.81033
G1 X119.498 Y32.967 E10.82871
G1 X120.342 Y33.776 E10.85204
G1 X122.093 Y35.652 E10.90325
G1 X123.897 Y37.481 E10.95451
G1 X125.714 Y39.221 E11.00472
G1 X127.567 Y40.9 E11.05462
G1 X129.52 Y42.568 E11.10587
G1 X131.452 Y44.129 E11.15544
G1 X133.497 Y45.686 E11.20673
G1 X135.528 Y47.143 E11.25661
G1 X137.63 Y48.564 E11.30725
G1 X139.784 Y49.933 E11.35818
G1 X141.917 Y51.206 E11.40775
G1 X144.129 Y52.44 E11.4583
G1 X146.42 Y53.637 E11.50988
G1 X148.636 Y54.716 E11.55907
G1 X150.972 Y55.772 E11.61023
G1 X153.336 Y56.763 E11.66138
G1 X155.626 Y57.643 E11.71034
G1 X158.047 Y58.499 E11.76158
G1 X160.46 Y59.275 E11.81217
G1 X162.876 Y59.979 E11.86239
G1 X165.374 Y60.629 E11.9139
G1 X165.717 Y60.713 E11.92094
G1 X166.6 Y60.971 E11.9393
G1 X167.458 Y61.305 E11.95768
G1 X168.284 Y61.712 E11.97605
G1 X169.072 Y62.189 E11.99443
G1 X169.815 Y62.732 E12.0128
G1 X170.508 Y63.338 E12.03117
G1 X171.146 Y64.002 E12.04955
G1 X171.724 Y64.719 E12.06793
G1 X172.237 Y65.483 E12.08629
G1 X172.683 Y66.289 E12.10467
G1 X173.056 Y67.13 E12.12303
G1 X173.356 Y68.001 E12.14142
G1 X173.636 Y69.201 E12.16601
G1 X173.765 Y69.945 E12.18108
G1 X174.234 Y72.454 E12.23201
G1 X174.773 Y74.946 E12.28289
G1 X175.382 Y77.415 E12.33364
G1 X176.055 Y79.846 E12.38398
G1 X176.792 Y82.245 E12.43406
G1 X177.613 Y84.669 E12.48514
G1 X178.477 Y87.003 E12.5348
G1 X179.433 Y89.375 E12.58584
G1 X180.445 Y91.696 E12.63637
G1 X181.506 Y93.951 E12.6861
G1 X182.574 Y96.063 E12.73333
G1 X182.7 Y96.321 E12.73906
G1 X182.776 Y96.482 E12.74261
G1 X183.132 Y97.331 E12.76098
G1 X183.414 Y98.207 E12.77935
G1 X183.618 Y99.105 E12.79773
G1 X183.744 Y100.017 E12.8161
G1 X183.785 Y100.679 E12.82934
G1 X183.795 Y101.002 E12.83578
G1 X183.8 Y101.33 E12.84233
G1 X183.8 Y118.274 E13.18047
G1 X183.799 Y118.422 E13.18342
G1 X183.789 Y119.139 E13.19773
G1 X183.736 Y120.058 E13.2161
G1 X183.604 Y120.969 E13.23447
G1 X183.393 Y121.865 E13.25284
G1 X183.105 Y122.74 E13.27122
G1 X182.742 Y123.586 E13.28959
G1 X182.308 Y124.397 E13.30795
G1 X181.804 Y125.168 E13.32633
G1 X181.172 Y125.966 E13.34665
G1 X180.389 Y126.862 E13.37039
G1 X180.265 Y127.001 E13.37411
G1 X180.031 Y127.259 E13.38106
G1 X178.38 Y129.192 E13.43179
G1 X176.789 Y131.166 E13.48239
G1 X175.271 Y133.162 E13.53243
G1 X173.79 Y135.228 E13.58316
G1 X172.397 Y137.292 E13.63285
G1 X171.019 Y139.464 E13.68418
G1 X169.726 Y141.635 E13.73461
G1 X168.5 Y143.833 E13.78483
G1 X167.333 Y146.072 E13.83522
G1 X166.217 Y148.37 E13.8862
G1 X165.195 Y150.634 E13.93577
G1 X164.191 Y153.038 E13.98776
G1 X163.799 Y153.871 E14.00614
G1 X163.337 Y154.668 E14.02452
G1 X162.808 Y155.421 E14.04288
G1 X161.904 Y156.449 E14.0702
G1 X161.731 Y156.622 E14.07508
G1 X161.015 Y157.276 E14.09444
G1 X159.256 Y158.739 E14.14009
G1 X157.356 Y160.413 E14.19063
G1 X155.485 Y162.156 E14.24166
G1 X153.708 Y163.911 E14.2915
G1 X151.959 Y165.737 E14.34196
G1 X150.266 Y167.609 E14.39233
G1 X148.599 Y169.558 E14.44351
G1 X147.03 Y171.504 E14.49339
G1 X145.502 Y173.512 E14.54375
G1 X144.014 Y175.585 E14.59467
G1 X142.616 Y177.655 E14.64452
G1 X141.253 Y179.801 E14.69525
G1 X139.708 Y182.403 E14.75564
G1 X139.204 Y183.173 E14.77401
G1 X138.635 Y183.897 E14.79238
G1 X138.005 Y184.568 E14.81075
G1 X137.32 Y185.183 E14.82912
G1 X136.583 Y185.736 E14.84751
G1 X135.802 Y186.222 E14.86586
G1 X134.981 Y186.639 E14.88424
G1 X134.127 Y186.984 E14.90262
G1 X133.247 Y187.253 E14.92099
G1 X132.346 Y187.444 E14.93937
G1 X131.218 Y187.572 E14.96202
G1 X130.657 Y187.605 E14.97323
G1 X128.053 Y187.792 E15.02533
G1 X125.522 Y188.047 E15.0761
G1 X123.036 Y188.369 E15.12612
G1 X120.544 Y188.762 E15.17647
G1 X118.011 Y189.236 E15.2279
G1 X117.286 Y189.382 E15.24265
G1 X116.376 Y189.524 E15.26103
G1 X115.521 Y189.585 E15.27814
G1 X115.194 Y189.595 E15.28467
G1 X114.87 Y189.6 E15.29113
G1 X105.507 Y189.6 E15.47798
G1 X105.355 Y189.599 E15.48102
G1 X104.657 Y189.589 E15.49495
G1 X103.738 Y189.536 E15.51332
G1 X102.888 Y189.415 E15.53045
G1 X102.291 Y189.305 E15.54257
G1 X102.13 Y189.273 E15.54584
G1 X100.596 Y188.966 E15.57706
G1 X98.068 Y188.534 E15.62824
G1 X95.59 Y188.183 E15.67819
G1 X93.042 Y187.894 E15.72936
G1 X90.562 Y187.685 E15.77903
G1 X89.667 Y187.634 E15.79692
G1 X89.526 Y187.625 E15.79974
G1 X88.66 Y187.564 E15.81706
G1 X87.745 Y187.459 E15.83544
G1 X86.843 Y187.276 E15.85381
G1 X85.96 Y187.015 E15.87218
G1 X85.104 Y186.678 E15.89054
G1 X84.279 Y186.268 E15.90893
G1 X83.493 Y185.788 E15.92731
G1 X82.752 Y185.242 E15.94567
G1 X82.061 Y184.634 E15.96404
G1 X81.426 Y183.968 E15.9824
G1 X80.85 Y183.249 E16.00079
G1 X80.301 Y182.419 E16.02065
G1 X79.815 Y181.604 E16.03959
G1 X79.742 Y181.48 E16.04246
G1 X79.358 Y180.816 E16.05776
G1 X78.041 Y178.68 E16.10784
G1 X76.64 Y176.545 E16.1588
G1 X75.213 Y174.5 E16.20857
G1 X73.688 Y172.44 E16.25971
G1 X72.138 Y170.466 E16.3098
G1 X70.525 Y168.527 E16.36013
G1 X68.831 Y166.604 E16.41128
G1 X67.124 Y164.774 E16.46122
G1 X65.368 Y162.995 E16.5111
G1 X63.505 Y161.211 E16.56258
G1 X61.632 Y159.517 E16.61297
G1 X59.661 Y157.833 E16.66471
G1 X58.841 Y157.152 E16.68598
G1 X58.159 Y156.534 E16.70435
G1 X57.533 Y155.859 E16.72272
G1 X56.968 Y155.132 E16.74109
G1 X56.468 Y154.359 E16.75946
G1 X56.037 Y153.545 E16.77784
G1 X55.679 Y152.697 E16.79621
G1 X55.395 Y151.821 E16.81459
G1 X55.189 Y150.924 E16.83296
G1 X55.061 Y150.012 E16.85134
G1 X55.019 Y149.379 E16.864
G1 X55.007 Y149.046 E16.87064
G1 X55.001 Y148.773 E16.87609
G1 X54.998 Y148.452 E16.8825
G1 X54.997 Y148.452 E16.88252
G1 X54.963 Y146.407 E16.92334
G1 X54.856 Y143.903 E16.97335
G1 X54.678 Y141.383 E17.02377
G1 X54.429 Y138.869 E17.07418
G1 X54.11 Y136.38 E17.12426
G1 X53.709 Y133.828 E17.17581
