;FLAVOR:Marlin
;TIME:1628
;Filament used: 0.798515m
;Layer height: 0.12
;Generated with Cura_SteamEngine 4.0.0
M140 S60
M105
M190 S60
M104 S200
M105
M109 S200
M82 ;absolute extrusion mode
; Ender 3 Custom Start G-code
M117 Clean ; Indicate nozzle clean in progress on LCD
M107 ; Turn layer fan off
G21 ; Set to metric [change to G20 if you want Imperial]
G28 ; Home all axes
; ***SET NEW E STEP *** (93 is factory value)
G90                          ; Force coordinates to be absolute relative to the origin
M92 E95 ;
G90                          ; Force coordinates to be absolute relative to the origin
G28                          ; Home X/Y/Z axis
;
G92 E0 ; Reset Extruder
G1 Z2.0 F3000 ; Move Z Axis up little to prevent scratching of Heat Bed
G1 X0.1 Y20 Z0.3 F5000.0 ; Move to start position
G1 X0.1 Y200.0 Z0.3 F1500.0 E15 ; Draw the first line
G1 X0.4 Y200.0 Z0.3 F5000.0 ; Move to side a little
G1 X0.4 Y20 Z0.3 F1500.0 E30 ; Draw the second line
G92 E0 ; Reset Extruder
G1 Z2.0 F3000 ; Move Z Axis up little to prevent scratching of Heat Bed
M117 Printing ; Indicate printing on LCD
; End of custom start GCode
G92 E0
G1 F3000 E-6
;LAYER_COUNT:71
;LAYER:0
M107
M204 S5000
M205 X30 Y30
G0 F7200 X89.416 Y107.903 Z0.12
M204 S500
M205 X20 Y20
;TYPE:SKIRT
G1 F3000 E0
G1 F900 X91.868 Y106.118 E0.06355
G1 X96.113 Y102.792 E0.17655
G1 X98.08 Y101.112 E0.23075
G1 X100.021 Y99.355 E0.28561
G1 X103.849 Y95.585 E0.39819
G1 X106.483 Y92.733 E0.47954
G1 X106.997 Y92.236 E0.49452
G1 X107.861 Y91.606 E0.51693
G1 X108.519 Y91.206 E0.53307
G1 X109.15 Y90.869 E0.54806
G1 X109.814 Y90.605 E0.56303
G1 X110.371 Y90.447 E0.57516
G1 X110.794 Y90.347 E0.58427
G1 X111.498 Y90.221 E0.59925
G1 X112.266 Y90.175 E0.61537
G1 X122.735 Y90.175 E0.83474
G1 X123.449 Y90.215 E0.84973
G1 X124.433 Y90.404 E0.87072
G1 X124.978 Y90.554 E0.88257
G1 X125.656 Y90.782 E0.89755
G1 X126.305 Y91.085 E0.91256
G1 X126.839 Y91.406 E0.92562
G1 X127.407 Y91.786 E0.93994
G1 X127.978 Y92.216 E0.95492
G1 X128.498 Y92.707 E0.9699
G1 X129.076 Y93.413 E0.98902
G1 X129.492 Y94.002 E1.00413
G1 X129.871 Y94.608 E1.01911
G1 X130.18 Y95.253 E1.03409
G1 X130.426 Y95.964 E1.04986
G1 X130.588 Y96.541 E1.06242
G1 X130.742 Y97.239 E1.07739
G1 X130.826 Y98.243 E1.0985
G1 X130.85 Y103.762 E1.21415
G1 X130.849 Y103.904 E1.21713
G1 X130.727 Y110.793 E1.3615
G1 X130.834 Y114.255 E1.43408
G1 X130.837 Y114.511 E1.43944
G1 X130.726 Y126.771 E1.69635
G1 X130.834 Y130.255 E1.76938
G1 X130.837 Y130.493 E1.77437
G1 X130.797 Y136.943 E1.90953
G1 X130.752 Y137.657 E1.92452
G1 X130.572 Y138.585 E1.94433
G1 X130.508 Y138.82 E1.94943
G1 X130.282 Y139.498 E1.9644
G1 X130.04 Y140.035 E1.97675
G1 X129.809 Y140.49 E1.98744
G1 X129.45 Y141.109 E2.00243
G1 X129.024 Y141.684 E2.01743
G1 X128.564 Y142.181 E2.03162
G1 X128.016 Y142.714 E2.04764
G1 X127.476 Y143.183 E2.06262
G1 X126.888 Y143.589 E2.0776
G1 X126.084 Y144.004 E2.09655
G1 X125.48 Y144.264 E2.11033
G1 X124.809 Y144.51 E2.12531
G1 X124.114 Y144.679 E2.1403
G1 X123.742 Y144.737 E2.14818
G1 X123.317 Y144.79 E2.15716
G1 X122.497 Y144.839 E2.17437
G1 X112.047 Y144.793 E2.39334
G1 X111.333 Y144.75 E2.40833
G1 X110.628 Y144.627 E2.42333
G1 X109.609 Y144.299 E2.44576
G1 X108.996 Y144.043 E2.45968
G1 X108.352 Y143.731 E2.47467
G1 X107.747 Y143.349 E2.48966
G1 X107.453 Y143.126 E2.4974
G1 X107.112 Y142.852 E2.50656
G1 X106.494 Y142.285 E2.52414
G1 X101.517 Y137.077 E2.67508
G1 X97.64 Y133.511 E2.78546
G1 X93.53 Y130.138 E2.89687
G1 X89.275 Y126.971 E3.00801
G1 X88.726 Y126.513 E3.02299
G1 X88.232 Y125.996 E3.03798
G1 X87.63 Y125.166 E3.05946
G1 X87.197 Y124.455 E3.0769
G1 X86.86 Y123.824 E3.09189
G1 X86.595 Y123.16 E3.10687
G1 X86.388 Y122.384 E3.1237
G1 X86.291 Y121.9 E3.13405
G1 X86.19 Y121.192 E3.14903
G1 X86.167 Y120.556 E3.16237
G1 X86.258 Y113.812 E3.30369
G1 X86.307 Y113.098 E3.31869
G1 X86.436 Y112.395 E3.33367
G1 X86.643 Y111.71 E3.34866
G1 X86.882 Y111.139 E3.36163
G1 X87.096 Y110.691 E3.37203
G1 X87.44 Y110.064 E3.38702
G1 X87.961 Y109.345 E3.40563
G1 X88.272 Y108.973 E3.41579
G1 X88.761 Y108.451 E3.43077
G1 X89.416 Y107.903 E3.44867
M204 S5000
M205 X30 Y30
G0 F7200 X89.651 Y108.227
M204 S500
M205 X20 Y20
G1 F900 X92.092 Y106.45 E3.51193
G1 X96.375 Y103.094 E3.62595
G1 X98.343 Y101.414 E3.68017
G1 X100.301 Y99.642 E3.7355
G1 X104.131 Y95.87 E3.84814
G1 X106.777 Y93.004 E3.92988
G1 X107.275 Y92.524 E3.94437
G1 X108.068 Y91.948 E3.96491
G1 X108.726 Y91.548 E3.98104
G1 X109.338 Y91.223 E3.99556
G1 X109.983 Y90.971 E4.01007
G1 X110.463 Y90.836 E4.02052
G1 X110.886 Y90.736 E4.02963
G1 X111.568 Y90.616 E4.04414
G1 X112.266 Y90.575 E4.05879
G1 X122.735 Y90.575 E4.27816
G1 X123.426 Y90.615 E4.29266
G1 X124.327 Y90.79 E4.31189
G1 X124.872 Y90.94 E4.32374
G1 X125.528 Y91.162 E4.33825
G1 X126.154 Y91.458 E4.35276
G1 X126.616 Y91.738 E4.36408
G1 X127.184 Y92.118 E4.3784
G1 X127.737 Y92.536 E4.39292
G1 X128.237 Y93.014 E4.40742
G1 X128.749 Y93.644 E4.42443
G1 X129.165 Y94.233 E4.43954
G1 X129.531 Y94.82 E4.45403
G1 X129.827 Y95.446 E4.46854
G1 X130.041 Y96.072 E4.4824
G1 X130.203 Y96.649 E4.49496
G1 X130.351 Y97.326 E4.50948
G1 X130.426 Y98.245 E4.5288
G1 X130.45 Y103.764 E4.64445
G1 X130.449 Y103.896 E4.64721
G1 X130.327 Y110.797 E4.79184
G1 X130.434 Y114.267 E4.86458
G1 X130.437 Y114.507 E4.86961
G1 X130.326 Y126.779 E5.12677
G1 X130.434 Y130.267 E5.19989
G1 X130.437 Y130.49 E5.20457
G1 X130.397 Y136.94 E5.33972
G1 X130.353 Y137.631 E5.35423
G1 X130.186 Y138.48 E5.37236
G1 X130.122 Y138.715 E5.37746
G1 X129.902 Y139.371 E5.39196
G1 X129.683 Y139.854 E5.40307
G1 X129.452 Y140.309 E5.41377
G1 X129.103 Y140.908 E5.42829
G1 X128.688 Y141.462 E5.4428
G1 X128.285 Y141.894 E5.45518
G1 X127.737 Y142.427 E5.47119
G1 X127.214 Y142.88 E5.48569
G1 X126.642 Y143.271 E5.50021
G1 X125.926 Y143.637 E5.51706
G1 X125.322 Y143.897 E5.53084
G1 X124.671 Y144.134 E5.54536
G1 X123.692 Y144.34 E5.56632
G1 X123.267 Y144.393 E5.57529
G1 X122.499 Y144.439 E5.59142
G1 X112.049 Y144.393 E5.81039
G1 X111.357 Y144.35 E5.82491
G1 X110.676 Y144.228 E5.83941
G1 X109.763 Y143.93 E5.85953
G1 X109.15 Y143.674 E5.87345
G1 X108.527 Y143.37 E5.88798
G1 X107.704 Y142.814 E5.90879
G1 X107.363 Y142.54 E5.91796
G1 X106.783 Y142.009 E5.93443
G1 X101.794 Y136.789 E6.08574
G1 X97.901 Y133.207 E6.19659
G1 X93.773 Y129.82 E6.30847
G1 X89.514 Y126.65 E6.41972
G1 X88.983 Y126.205 E6.43424
G1 X88.507 Y125.702 E6.44875
G1 X87.972 Y124.958 E6.46795
G1 X87.539 Y124.247 E6.4854
G1 X87.213 Y123.636 E6.49991
G1 X86.96 Y122.991 E6.51443
G1 X86.78 Y122.305 E6.52929
G1 X86.683 Y121.821 E6.53963
G1 X86.586 Y121.135 E6.55415
G1 X86.567 Y120.561 E6.56618
G1 X86.658 Y113.817 E6.70751
G1 X86.707 Y113.126 E6.72202
G1 X86.835 Y112.446 E6.73652
G1 X87.042 Y111.785 E6.75103
G1 X87.243 Y111.312 E6.7618
G1 X87.457 Y110.864 E6.77221
G1 X87.791 Y110.257 E6.78672
G1 X88.268 Y109.602 E6.8037
G1 X88.579 Y109.23 E6.81386
G1 X89.053 Y108.725 E6.82838
G1 X89.651 Y108.227 E6.84468
M204 S5000
M205 X30 Y30
G0 F7200 X89.887 Y108.55
M204 S500
M205 X20 Y20
G1 F900 X92.34 Y106.765 E6.90825
G1 X96.624 Y103.407 E7.02231
G1 X98.607 Y101.714 E7.07694
G1 X100.579 Y99.93 E7.13266
G1 X104.423 Y96.144 E7.24572
G1 X107.071 Y93.276 E7.32751
G1 X107.553 Y92.812 E7.34153
G1 X108.276 Y92.29 E7.36022
G1 X108.934 Y91.89 E7.37635
G1 X109.525 Y91.577 E7.39036
G1 X110.15 Y91.337 E7.40439
G1 X110.555 Y91.225 E7.4132
G1 X110.978 Y91.125 E7.42231
G1 X111.637 Y91.01 E7.43632
G1 X112.266 Y90.975 E7.44952
G1 X122.735 Y90.975 E7.66889
G1 X123.403 Y91.015 E7.68291
G1 X124.221 Y91.176 E7.70038
G1 X124.766 Y91.326 E7.71223
G1 X125.399 Y91.542 E7.72624
G1 X126.002 Y91.831 E7.74025
G1 X126.394 Y92.071 E7.74988
G1 X126.962 Y92.451 E7.7642
G1 X127.495 Y92.855 E7.77822
G1 X127.976 Y93.32 E7.79224
G1 X128.422 Y93.874 E7.80714
G1 X128.838 Y94.463 E7.82225
G1 X129.191 Y95.032 E7.83628
G1 X129.473 Y95.638 E7.85028
G1 X129.656 Y96.18 E7.86227
G1 X129.818 Y96.757 E7.87483
G1 X129.96 Y97.411 E7.88885
G1 X130.026 Y98.247 E7.90642
G1 X130.05 Y103.766 E8.02207
G1 X130.049 Y103.889 E8.02465
G1 X129.926 Y110.803 E8.16955
G1 X130.034 Y114.28 E8.24244
G1 X130.037 Y114.504 E8.24713
G1 X129.926 Y126.789 E8.50456
G1 X130.034 Y130.28 E8.57774
G1 X130.037 Y130.488 E8.5821
G1 X129.997 Y136.938 E8.71726
G1 X129.953 Y137.605 E8.73127
G1 X129.8 Y138.375 E8.74772
G1 X129.736 Y138.61 E8.75282
G1 X129.522 Y139.243 E8.76682
G1 X129.326 Y139.673 E8.77672
G1 X129.095 Y140.128 E8.78741
G1 X128.757 Y140.705 E8.80143
G1 X128.353 Y141.238 E8.81544
G1 X128.006 Y141.607 E8.82605
G1 X127.458 Y142.14 E8.84207
G1 X126.952 Y142.577 E8.85608
G1 X126.397 Y142.951 E8.87011
G1 X125.768 Y143.27 E8.88488
G1 X125.164 Y143.53 E8.89866
G1 X124.535 Y143.757 E8.91267
G1 X123.643 Y143.943 E8.93177
G1 X123.218 Y143.996 E8.94074
G1 X122.5 Y144.039 E8.95581
G1 X112.05 Y143.993 E9.17478
G1 X111.383 Y143.95 E9.18879
G1 X110.725 Y143.828 E9.20281
G1 X109.917 Y143.56 E9.22065
G1 X109.304 Y143.304 E9.23457
G1 X108.703 Y143.01 E9.24859
G1 X107.954 Y142.502 E9.26755
G1 X107.613 Y142.228 E9.27672
G1 X107.073 Y141.732 E9.29208
G1 X102.08 Y136.508 E9.4435
G1 X98.18 Y132.919 E9.55456
G1 X94.006 Y129.494 E9.6677
G1 X89.753 Y126.329 E9.77878
G1 X89.241 Y125.899 E9.79279
G1 X88.784 Y125.41 E9.80682
G1 X88.313 Y124.75 E9.82381
G1 X87.88 Y124.039 E9.84125
G1 X87.567 Y123.448 E9.85526
G1 X87.326 Y122.823 E9.8693
G1 X87.172 Y122.226 E9.88222
G1 X87.075 Y121.742 E9.89256
G1 X86.983 Y121.08 E9.90657
G1 X86.967 Y120.566 E9.91734
G1 X87.058 Y113.822 E10.05867
G1 X87.106 Y113.155 E10.07268
G1 X87.235 Y112.499 E10.08669
G1 X87.44 Y111.862 E10.10071
G1 X87.604 Y111.484 E10.10935
G1 X87.818 Y111.036 E10.11975
G1 X88.142 Y110.451 E10.13376
G1 X88.575 Y109.858 E10.14915
G1 X88.886 Y109.486 E10.15931
G1 X89.345 Y108.999 E10.17333
G1 X89.887 Y108.55 E10.18808
M204 S5000
M205 X30 Y30
G0 F7200 X90.122 Y108.874
M204 S500
M205 X20 Y20
G1 F900 X92.568 Y107.094 E10.25147
G1 X96.871 Y103.721 E10.36603
G1 X98.906 Y101.984 E10.42209
G1 X100.833 Y100.24 E10.47655
G1 X104.715 Y96.417 E10.59072
G1 X107.365 Y93.547 E10.67257
G1 X107.831 Y93.102 E10.68607
G1 X108.484 Y92.632 E10.70293
G1 X109.142 Y92.232 E10.71907
G1 X109.712 Y91.932 E10.73256
G1 X110.316 Y91.704 E10.74609
G1 X110.647 Y91.614 E10.75328
G1 X111.07 Y91.514 E10.76239
G1 X111.705 Y91.405 E10.77589
G1 X112.266 Y91.375 E10.78766
G1 X122.735 Y91.375 E11.00702
G1 X123.378 Y91.415 E11.02052
G1 X124.115 Y91.561 E11.03627
G1 X124.66 Y91.711 E11.04811
G1 X125.27 Y91.921 E11.06163
G1 X125.849 Y92.204 E11.07513
G1 X126.171 Y92.403 E11.08307
G1 X126.739 Y92.783 E11.09739
G1 X127.252 Y93.174 E11.1109
G1 X127.712 Y93.625 E11.1244
G1 X128.095 Y94.105 E11.13727
G1 X128.511 Y94.694 E11.15238
G1 X128.85 Y95.243 E11.1659
G1 X129.118 Y95.829 E11.1794
G1 X129.27 Y96.288 E11.18953
G1 X129.432 Y96.865 E11.20209
G1 X129.568 Y97.496 E11.21561
G1 X129.626 Y98.248 E11.23142
G1 X129.65 Y103.767 E11.34706
G1 X129.649 Y103.882 E11.34947
G1 X129.526 Y110.788 E11.4942
G1 X129.635 Y114.292 E11.56766
G1 X129.637 Y114.5 E11.57202
G1 X129.526 Y126.772 E11.82918
G1 X129.635 Y130.292 E11.90297
G1 X129.637 Y130.485 E11.90701
G1 X129.597 Y136.935 E12.04217
G1 X129.553 Y137.578 E12.05567
G1 X129.414 Y138.269 E12.07044
G1 X129.35 Y138.504 E12.07555
G1 X129.143 Y139.115 E12.08906
G1 X128.97 Y139.492 E12.09776
G1 X128.739 Y139.947 E12.10845
G1 X128.412 Y140.503 E12.12196
G1 X128.019 Y141.014 E12.13547
G1 X127.728 Y141.321 E12.14434
G1 X127.18 Y141.854 E12.16035
G1 X126.69 Y142.274 E12.17388
G1 X126.153 Y142.63 E12.18738
G1 X125.61 Y142.902 E12.2001
G1 X125.006 Y143.162 E12.21388
G1 X124.399 Y143.38 E12.2274
G1 X123.593 Y143.546 E12.24464
G1 X123.168 Y143.599 E12.25361
G1 X122.502 Y143.639 E12.26759
G1 X112.052 Y143.593 E12.48656
G1 X111.409 Y143.55 E12.50007
G1 X110.776 Y143.428 E12.51358
G1 X110.071 Y143.191 E12.52916
G1 X109.458 Y142.935 E12.54308
G1 X108.88 Y142.651 E12.55657
G1 X108.205 Y142.191 E12.57369
G1 X107.864 Y141.917 E12.58286
G1 X107.362 Y141.456 E12.59714
G1 X102.365 Y136.228 E12.74868
G1 X98.431 Y132.608 E12.8607
G1 X94.272 Y129.195 E12.97343
G1 X89.991 Y126.009 E13.08525
G1 X89.499 Y125.592 E13.09877
G1 X89.062 Y125.118 E13.11228
G1 X88.655 Y124.542 E13.12705
G1 X88.222 Y123.831 E13.1445
G1 X87.921 Y123.26 E13.15802
G1 X87.694 Y122.657 E13.17152
G1 X87.564 Y122.148 E13.18253
G1 X87.467 Y121.664 E13.19287
G1 X87.38 Y121.025 E13.20639
G1 X87.366 Y120.572 E13.21588
G1 X87.457 Y113.828 E13.35721
G1 X87.506 Y113.185 E13.37072
G1 X87.634 Y112.553 E13.38423
G1 X87.965 Y111.657 E13.40425
G1 X88.179 Y111.209 E13.41465
G1 X88.492 Y110.645 E13.42817
G1 X88.882 Y110.115 E13.44196
G1 X89.193 Y109.743 E13.45212
G1 X89.636 Y109.275 E13.46562
G1 X90.122 Y108.874 E13.47882
M204 S5000
M205 X30 Y30
G1 F3000 E7.47882
;MESH:btn_v5_2.stl(3)
G0 F7200 X94.514 Y111.921
G0 X94.551 Y111.946
G0 X100.322 Y115.951
G0 X100.359 Y115.976
G0 X100.414 Y116.015
G0 X100.414 Y114.18
G0 X102.65 Y114.35
M204 S500
M205 X20 Y20
;TYPE:WALL-INNER
G1 F3000 E13.47882
G1 F900 X96.35 Y114.35 E13.61083
G1 X96.35 Y120.65 E13.74284
G1 X102.65 Y120.65 E13.87485
G1 X102.65 Y114.35 E14.00686
M204 S5000
M205 X30 Y30
G0 F7200 X102.25 Y114.75
M204 S500
M205 X20 Y20
G1 F900 X96.75 Y114.75 E14.12211
G1 X96.75 Y120.25 E14.23735
G1 X102.25 Y120.25 E14.3526
G1 X102.25 Y114.75 E14.46785
M204 S5000
M205 X30 Y30
G0 F7200 X101.85 Y115.15
M204 S500
M205 X20 Y20
;TYPE:WALL-OUTER
G1 F900 X97.15 Y115.15 E14.56633
G1 X97.15 Y119.85 E14.66481
G1 X101.85 Y119.85 E14.7633
G1 X101.85 Y115.15 E14.86178
M204 S5000
M205 X30 Y30
G0 F7200 X101.65 Y115.15
G0 X101.65 Y114.71
G1 F3000 E8.86178
G0 F7200 X96.922 Y114.922
G0 X96.154 Y120.846
G0 X96.154 Y121.24
G0 X93.994 Y121.301
M204 S500
M205 X20 Y20
;TYPE:WALL-INNER
G1 F3000 E14.86178
G1 F900 X93.909 Y121.241 E14.86396
G1 X93.827 Y121.169 E14.86625
G1 X93.754 Y121.086 E14.86856
G1 X93.699 Y121.008 E14.87056
G1 X93.646 Y120.913 E14.87284
G1 X93.604 Y120.812 E14.87513
G1 X93.576 Y120.716 E14.87723
G1 X93.557 Y120.602 E14.87965
G1 X93.55 Y120.488 E14.88204
G1 X93.551 Y114.502 E15.00747
G1 X93.558 Y114.391 E15.0098
G1 X93.578 Y114.28 E15.01217
G1 X93.608 Y114.179 E15.01438
G1 X93.652 Y114.079 E15.01666
G1 X93.703 Y113.987 E15.01887
G1 X93.755 Y113.915 E15.02073
G1 X93.84 Y113.821 E15.02338
G1 X93.919 Y113.752 E15.02558
G1 X94 Y113.694 E15.02767
G1 X94.1 Y113.64 E15.03005
G1 X94.19 Y113.603 E15.03209
G1 X94.301 Y113.572 E15.03451
G1 X94.393 Y113.558 E15.03646
G1 X94.527 Y113.55 E15.03927
G1 X104.473 Y113.55 E15.24768
G1 X104.604 Y113.557 E15.25042
G1 X104.717 Y113.576 E15.25283
G1 X104.813 Y113.604 E15.25492
G1 X104.91 Y113.645 E15.25713
G1 X105.008 Y113.699 E15.25947
G1 X105.086 Y113.754 E15.26147
G1 X105.17 Y113.829 E15.26383
G1 X105.243 Y113.91 E15.26612
G1 X105.301 Y113.992 E15.26822
G1 X105.356 Y114.091 E15.27059
G1 X105.396 Y114.187 E15.27277
G1 X105.424 Y114.285 E15.27491
G1 X105.441 Y114.393 E15.2772
G1 X105.45 Y114.523 E15.27993
G1 X105.45 Y120.485 E15.40486
G1 X105.443 Y120.602 E15.40731
G1 X105.424 Y120.716 E15.40974
G1 X105.396 Y120.812 E15.41183
G1 X105.354 Y120.913 E15.41412
G1 X105.301 Y121.008 E15.4164
G1 X105.246 Y121.086 E15.4184
G1 X105.173 Y121.169 E15.42072
G1 X105.091 Y121.241 E15.423
G1 X105.006 Y121.301 E15.42518
G1 X104.914 Y121.352 E15.42739
G1 X104.8 Y121.4 E15.42998
G1 X104.72 Y121.424 E15.43173
G1 X104.604 Y121.443 E15.43419
G1 X104.473 Y121.45 E15.43694
G1 X94.527 Y121.45 E15.64535
G1 X94.396 Y121.443 E15.6481
G1 X94.28 Y121.424 E15.65056
G1 X94.2 Y121.4 E15.65231
G1 X94.086 Y121.352 E15.6549
G1 X93.994 Y121.301 E15.65711
M204 S5000
M205 X30 Y30
G0 F7200 X93.782 Y121.641
M204 S500
M205 X20 Y20
G1 F900 X93.655 Y121.551 E15.66037
G1 X93.544 Y121.453 E15.66347
G1 X93.444 Y121.34 E15.66663
G1 X93.359 Y121.22 E15.66972
G1 X93.285 Y121.086 E15.67292
G1 X93.224 Y120.94 E15.67624
G1 X93.185 Y120.804 E15.6792
G1 X93.16 Y120.654 E15.68239
G1 X93.159 Y120.626 E15.68298
G1 X93.152 Y120.514 E15.68533
G1 X93.15 Y120.488 E15.68587
G1 X93.151 Y114.502 E15.8113
G1 X93.161 Y114.338 E15.81475
G1 X93.187 Y114.194 E15.81781
G1 X93.234 Y114.036 E15.82127
G1 X93.291 Y113.903 E15.8243
G1 X93.36 Y113.78 E15.82725
G1 X93.45 Y113.654 E15.8305
