;FLAVOR:Marlin
;TIME:3251
;Filament used: 2.71328m
;Layer height: 0.2
;Generated with Cura_SteamEngine 4.0.0
M140 S60
M105
M190 S60
M104 S200
M105
M109 S200
M82 ;absolute extrusion mode
; Ender 3 Custom Start G-code
M117 Clean ; Indicate nozzle clean in progress on LCD
M107 ; Turn layer fan off
G21 ; Set to metric [change to G20 if you want Imperial]
G28 ; Home all axes
; ***SET NEW E STEP *** (93 is factory value)
G90                          ; Force coordinates to be absolute relative to the origin
M92 E95 ;
G90                          ; Force coordinates to be absolute relative to the origin
G28                          ; Home X/Y/Z axis
;
G92 E0 ; Reset Extruder
G1 Z2.0 F3000 ; Move Z Axis up little to prevent scratching of Heat Bed
G1 X0.1 Y20 Z0.3 F5000.0 ; Move to start position
G1 X0.1 Y200.0 Z0.3 F1500.0 E15 ; Draw the first line
G1 X0.4 Y200.0 Z0.3 F5000.0 ; Move to side a little
G1 X0.4 Y20 Z0.3 F1500.0 E30 ; Draw the second line
G92 E0 ; Reset Extruder
G1 Z2.0 F3000 ; Move Z Axis up little to prevent scratching of Heat Bed
M117 Printing ; Indicate printing on LCD
; End of custom start GCode
G92 E0
G1 F3000 E-6
;LAYER_COUNT:33
;LAYER:0
M107
M204 S5000
M205 X30 Y30
G0 F7200 X59.136 Y104.152 Z0.2
M204 S500
M205 X20 Y20
;TYPE:SKIRT
G1 F3000 E0
G1 F900 X59.761 Y103.803 E0.025
G1 X60.344 Y103.555 E0.04713
G1 X63.199 Y102.501 E0.15341
G1 X68.135 Y100.433 E0.34031
G1 X72.879 Y98.122 E0.52459
G1 X77.503 Y95.535 E0.70963
G1 X81.972 Y92.693 E0.89459
G1 X86.263 Y89.608 E1.07916
G1 X90.393 Y86.271 E1.26459
G1 X94.344 Y82.69 E1.45081
G1 X96.082 Y80.987 E1.53579
G1 X96.62 Y80.516 E1.56076
G1 X97.208 Y80.108 E1.58575
G1 X97.837 Y79.768 E1.61072
G1 X98.5 Y79.5 E1.6357
G1 X99.189 Y79.308 E1.66067
G1 X99.895 Y79.194 E1.68565
G1 X100.561 Y79.159 E1.70894
G1 X134.441 Y79.16 E2.89214
G1 X135.155 Y79.2 E2.91711
G1 X135.861 Y79.319 E2.94211
G1 X136.548 Y79.517 E2.96708
G1 X137.209 Y79.79 E2.99206
G1 X137.836 Y80.135 E3.01705
G1 X138.42 Y80.547 E3.04201
G1 X138.955 Y81.023 E3.06702
G1 X139.433 Y81.555 E3.092
G1 X139.848 Y82.137 E3.11696
G1 X140.197 Y82.761 E3.14193
G1 X140.473 Y83.421 E3.16691
G1 X140.674 Y84.107 E3.19188
G1 X140.797 Y84.812 E3.21687
G1 X140.841 Y85.556 E3.2429
G1 X140.85 Y100.739 E3.77314
G1 X140.848 Y100.896 E3.77862
G1 X140.772 Y104.058 E3.88908
G1 X140.85 Y124.7 E4.60997
G1 X140.848 Y124.876 E4.61611
G1 X140.772 Y128.059 E4.72731
G1 X140.84 Y149.421 E5.47334
G1 X140.802 Y150.135 E5.49831
G1 X140.685 Y150.841 E5.5233
G1 X140.49 Y151.529 E5.54827
G1 X140.219 Y152.191 E5.57326
G1 X139.876 Y152.818 E5.59821
G1 X139.465 Y153.404 E5.62321
G1 X138.992 Y153.94 E5.64818
G1 X138.461 Y154.42 E5.67317
G1 X137.881 Y154.837 E5.69812
G1 X137.257 Y155.188 E5.72312
G1 X136.598 Y155.466 E5.7481
G1 X135.912 Y155.669 E5.77309
G1 X135.208 Y155.795 E5.79806
G1 X134.44 Y155.841 E5.82493
G1 X100.554 Y155.84 E7.00834
G1 X99.84 Y155.8 E7.03331
G1 X99.134 Y155.681 E7.05832
G1 X98.447 Y155.483 E7.08328
G1 X97.786 Y155.21 E7.10826
G1 X97.159 Y154.865 E7.13325
G1 X96.575 Y154.453 E7.15821
G1 X96.171 Y154.104 E7.17686
G1 X91.287 Y149.514 E7.41092
G1 X87.229 Y146.146 E7.59509
G1 X82.978 Y143.006 E7.77966
G1 X78.544 Y140.104 E7.96473
G1 X73.958 Y137.46 E8.1496
G1 X69.218 Y135.072 E8.33495
G1 X64.38 Y132.969 E8.51918
G1 X60.302 Y131.431 E8.67139
G1 X59.648 Y131.142 E8.69636
G1 X59.03 Y130.781 E8.72136
G1 X58.456 Y130.354 E8.74634
G1 X57.934 Y129.865 E8.77132
G1 X57.469 Y129.322 E8.79629
G1 X57.068 Y128.729 E8.82129
G1 X56.736 Y128.096 E8.84625
G1 X56.476 Y127.43 E8.87122
G1 X56.292 Y126.738 E8.89622
G1 X56.187 Y126.031 E8.92119
G1 X56.16 Y125.443 E8.94174
G1 X56.16 Y109.559 E9.49646
G1 X56.2 Y108.845 E9.52144
G1 X56.319 Y108.14 E9.5464
G1 X56.517 Y107.452 E9.57141
G1 X56.79 Y106.791 E9.59638
G1 X57.134 Y106.164 E9.62136
G1 X57.547 Y105.58 E9.64634
G1 X58.022 Y105.046 E9.6713
G1 X58.554 Y104.567 E9.6963
G1 X59.136 Y104.152 E9.72126
M204 S5000
M205 X30 Y30
G0 F7200 X59.519 Y104.386
M204 S500
M205 X20 Y20
G1 F900 X60.136 Y104.071 E9.74545
G1 X60.483 Y103.93 E9.75853
G1 X63.344 Y102.874 E9.86504
G1 X68.292 Y100.801 E10.05239
G1 X73.078 Y98.469 E10.23832
G1 X77.7 Y95.883 E10.42328
G1 X82.198 Y93.023 E10.60943
G1 X86.511 Y89.923 E10.79492
G1 X90.65 Y86.578 E10.98077
G1 X94.622 Y82.977 E11.16801
G1 X96.362 Y81.273 E11.25306
G1 X96.884 Y80.818 E11.27724
G1 X97.455 Y80.426 E11.30143
G1 X98.067 Y80.102 E11.32562
G1 X98.712 Y79.851 E11.34979
G1 X99.383 Y79.676 E11.374
G1 X100.068 Y79.579 E11.39816
G1 X100.561 Y79.559 E11.4154
G1 X134.441 Y79.56 E12.59859
G1 X135.133 Y79.6 E12.6228
G1 X135.815 Y79.719 E12.64698
G1 X136.479 Y79.917 E12.67117
G1 X137.115 Y80.189 E12.69533
G1 X137.716 Y80.533 E12.71952
G1 X138.274 Y80.944 E12.74372
G1 X138.78 Y81.416 E12.76788
G1 X139.229 Y81.944 E12.79209
G1 X139.614 Y82.52 E12.81628
G1 X139.93 Y83.136 E12.84046
G1 X140.172 Y83.784 E12.86462
G1 X140.339 Y84.457 E12.88884
G1 X140.427 Y85.144 E12.91302
G1 X140.441 Y85.556 E12.92742
G1 X140.45 Y100.739 E13.45766
G1 X140.448 Y100.887 E13.46283
G1 X140.372 Y104.05 E13.57332
G1 X140.45 Y124.701 E14.29452
G1 X140.448 Y124.867 E14.30032
G1 X140.372 Y128.051 E14.41155
G1 X140.44 Y149.422 E15.15789
G1 X140.402 Y150.113 E15.18206
G1 X140.285 Y150.796 E15.20626
G1 X140.09 Y151.461 E15.23046
G1 X139.82 Y152.098 E15.25463
G1 X139.478 Y152.7 E15.27881
G1 X139.068 Y153.259 E15.30302
G1 X138.598 Y153.767 E15.32719
G1 X138.071 Y154.217 E15.35139
G1 X137.497 Y154.604 E15.37556
G1 X136.882 Y154.922 E15.39974
G1 X136.234 Y155.167 E15.42394
G1 X135.562 Y155.335 E15.44813
G1 X134.876 Y155.425 E15.47229
G1 X134.44 Y155.441 E15.48753
G1 X100.554 Y155.44 E16.67093
G1 X99.862 Y155.4 E16.69514
G1 X99.18 Y155.281 E16.71932
G1 X98.516 Y155.083 E16.74351
G1 X97.88 Y154.811 E16.76767
G1 X97.279 Y154.467 E16.79186
G1 X96.721 Y154.056 E16.81606
G1 X96.445 Y153.812 E16.82892
G1 X91.559 Y149.22 E17.06309
G1 X87.476 Y145.831 E17.2484
G1 X83.2 Y142.673 E17.43404
G1 X78.75 Y139.76 E17.61979
G1 X74.145 Y137.105 E17.80542
G1 X69.414 Y134.722 E17.99042
G1 X64.518 Y132.594 E18.17686
G1 X60.443 Y131.057 E18.32895
G1 X59.81 Y130.776 E18.35314
G1 X59.214 Y130.423 E18.37733
G1 X58.662 Y130.005 E18.40151
G1 X58.163 Y129.525 E18.42569
G1 X57.722 Y128.991 E18.44988
G1 X57.345 Y128.41 E18.47407
G1 X57.038 Y127.789 E18.49826
G1 X56.804 Y127.137 E18.52245
G1 X56.647 Y126.463 E18.54662
G1 X56.56 Y125.443 E18.58237
G1 X56.56 Y109.559 E19.13709
G1 X56.6 Y108.868 E19.16126
G1 X56.719 Y108.185 E19.18547
G1 X56.917 Y107.522 E19.20964
G1 X57.189 Y106.885 E19.23383
G1 X57.533 Y106.284 E19.25801
G1 X57.944 Y105.726 E19.28221
G1 X58.416 Y105.22 E19.30638
G1 X58.944 Y104.771 E19.33058
G1 X59.519 Y104.386 E19.35475
M204 S5000
M205 X30 Y30
G0 F7200 X59.331 Y104.983
M204 S500
M205 X20 Y20
G1 F900 X59.9 Y104.631 E19.37812
G1 X60.621 Y104.305 E19.40575
G1 X63.504 Y103.241 E19.51307
G1 X68.458 Y101.165 E19.70066
G1 X73.256 Y98.828 E19.88704
G1 X77.918 Y96.22 E20.0736
G1 X82.421 Y93.356 E20.25997
G1 X86.743 Y90.25 E20.44584
G1 X90.914 Y86.878 E20.63315
G1 X94.902 Y83.264 E20.8211
G1 X96.642 Y81.559 E20.90618
G1 X97.147 Y81.12 E20.92955
G1 X97.701 Y80.744 E20.95293
G1 X98.295 Y80.438 E20.97627
G1 X98.922 Y80.204 E20.99964
G1 X99.573 Y80.047 E21.02303
G1 X100.561 Y79.959 E21.05767
G1 X134.441 Y79.96 E22.24086
G1 X135.109 Y80 E22.26423
G1 X135.767 Y80.119 E22.28759
G1 X136.407 Y80.316 E22.31097
G1 X137.018 Y80.588 E22.33433
G1 X137.593 Y80.931 E22.35771
G1 X138.122 Y81.34 E22.38106
G1 X138.599 Y81.809 E22.40442
G1 X139.017 Y82.332 E22.42781
G1 X139.369 Y82.9 E22.45114
G1 X139.651 Y83.507 E22.47452
G1 X139.859 Y84.143 E22.49789
G1 X139.989 Y84.799 E22.52124
G1 X140.041 Y85.557 E22.54777
G1 X140.05 Y100.74 E23.07801
G1 X140.048 Y100.877 E23.0828
G1 X139.972 Y104.042 E23.19336
G1 X140.05 Y124.703 E23.91491
G1 X140.048 Y124.857 E23.92029
G1 X139.972 Y128.042 E24.03155
G1 X140.04 Y149.423 E24.77825
G1 X140.002 Y150.091 E24.80162
G1 X139.885 Y150.75 E24.82499
G1 X139.69 Y151.39 E24.84836
G1 X139.42 Y152.002 E24.87172
G1 X139.079 Y152.578 E24.89509
G1 X138.672 Y153.109 E24.91846
G1 X138.204 Y153.587 E24.94182
G1 X137.683 Y154.006 E24.96517
G1 X137.115 Y154.361 E24.98856
G1 X136.51 Y154.645 E25.0119
G1 X135.874 Y154.854 E25.03528
G1 X135.219 Y154.987 E25.05862
G1 X134.44 Y155.041 E25.08589
G1 X100.554 Y155.04 E26.2693
G1 X99.886 Y155 E26.29267
G1 X99.228 Y154.881 E26.31602
G1 X98.588 Y154.684 E26.33941
G1 X97.977 Y154.412 E26.36276
G1 X97.402 Y154.069 E26.38615
G1 X96.719 Y153.521 E26.41673
G1 X91.815 Y148.912 E26.65176
G1 X87.724 Y145.517 E26.83742
G1 X83.444 Y142.355 E27.02325
G1 X78.963 Y139.422 E27.21029
G1 X74.324 Y136.748 E27.39728
G1 X69.582 Y134.359 E27.58272
G1 X64.673 Y132.225 E27.76965
G1 X60.584 Y130.683 E27.92227
G1 X59.973 Y130.41 E27.94564
G1 X59.399 Y130.066 E27.96901
G1 X58.871 Y129.656 E27.99236
G1 X58.394 Y129.186 E28.01574
G1 X57.978 Y128.662 E28.03911
G1 X57.627 Y128.093 E28.06246
G1 X57.346 Y127.486 E28.08582
G1 X57.139 Y126.849 E28.10921
G1 X57.01 Y126.193 E28.13256
G1 X56.96 Y125.443 E28.15881
G1 X56.96 Y109.559 E28.71353
G1 X57 Y108.891 E28.7369
G1 X57.119 Y108.233 E28.76025
G1 X57.316 Y107.593 E28.78363
G1 X57.588 Y106.982 E28.80699
G1 X57.931 Y106.408 E28.83034
G1 X58.34 Y105.878 E28.85372
G1 X58.809 Y105.401 E28.87708
G1 X59.331 Y104.983 E28.90044
M204 S5000
M205 X30 Y30
G0 F7200 X59.717 Y105.205
M204 S500
M205 X20 Y20
G1 F900 X60.278 Y104.886 E28.92298
G1 X60.76 Y104.681 E28.94127
G1 X63.629 Y103.622 E29.04807
G1 X68.616 Y101.533 E29.2369
G1 X73.447 Y99.179 E29.42457
G1 X78.114 Y96.568 E29.61133
G1 X82.643 Y93.688 E29.79877
G1 X87.013 Y90.547 E29.98672
G1 X91.16 Y87.195 E30.17294
G1 X95.168 Y83.562 E30.36185
G1 X96.922 Y81.844 E30.4476
G1 X97.41 Y81.423 E30.47011
G1 X97.946 Y81.065 E30.49262
G1 X98.522 Y80.775 E30.51514
G1 X99.129 Y80.56 E30.53763
G1 X99.759 Y80.421 E30.56016
G1 X100.561 Y80.359 E30.58825
G1 X134.441 Y80.36 E31.77144
G1 X135.085 Y80.4 E31.79398
G1 X135.718 Y80.519 E31.81647
G1 X136.332 Y80.716 E31.83899
G1 X136.917 Y80.987 E31.86151
G1 X137.464 Y81.329 E31.88404
G1 X137.964 Y81.735 E31.90653
G1 X138.41 Y82.201 E31.92906
G1 X138.795 Y82.718 E31.95157
G1 X139.114 Y83.278 E31.97408
G1 X139.36 Y83.874 E31.99659
G1 X139.531 Y84.496 E32.01912
G1 X139.623 Y85.134 E32.04163
G1 X139.641 Y85.557 E32.05642
G1 X139.65 Y100.74 E32.58666
G1 X139.649 Y100.867 E32.59109
G1 X139.572 Y104.069 E32.70295
G1 X139.65 Y124.704 E33.42359
G1 X139.649 Y124.848 E33.42862
G1 X139.572 Y128.071 E33.54121
G1 X139.64 Y149.425 E34.28696
G1 X139.602 Y150.068 E34.30946
G1 X139.485 Y150.702 E34.33197
G1 X139.29 Y151.317 E34.3545
G1 X139.021 Y151.902 E34.37699
G1 X138.681 Y152.45 E34.39951
G1 X138.276 Y152.952 E34.42204
G1 X137.812 Y153.399 E34.44454
G1 X137.296 Y153.786 E34.46706
G1 X136.737 Y154.106 E34.48956
G1 X136.142 Y154.355 E34.51208
G1 X135.521 Y154.527 E34.53459
G1 X134.883 Y154.622 E34.55712
G1 X134.44 Y154.641 E34.5726
G1 X100.554 Y154.64 E35.75601
G1 X99.91 Y154.6 E35.77854
G1 X99.277 Y154.481 E35.80103
G1 X98.663 Y154.284 E35.82355
G1 X98.078 Y154.013 E35.84607
G1 X97.531 Y153.671 E35.8686
G1 X96.993 Y153.229 E35.89291
G1 X92.087 Y148.618 E36.12804
G1 X87.974 Y145.205 E36.3147
G1 X83.663 Y142.02 E36.50188
G1 X79.168 Y139.078 E36.6895
G1 X74.525 Y136.402 E36.87665
G1 X69.743 Y133.992 E37.06366
G1 X64.819 Y131.852 E37.25116
G1 X60.725 Y130.308 E37.40396
G1 X60.137 Y130.044 E37.42647
G1 X59.586 Y129.709 E37.44899
G1 X59.081 Y129.308 E37.47151
G1 X58.63 Y128.848 E37.49401
G1 X58.239 Y128.336 E37.51651
G1 X57.914 Y127.779 E37.53903
G1 X57.661 Y127.186 E37.56155
G1 X57.483 Y126.566 E37.58407
G1 X57.383 Y125.929 E37.60659
G1 X57.36 Y125.443 E37.62358
G1 X57.36 Y109.559 E38.1783
G1 X57.4 Y108.916 E38.2008
G1 X57.519 Y108.282 E38.22333
G1 X57.716 Y107.668 E38.24585
G1 X57.987 Y107.083 E38.26837
G1 X58.329 Y106.536 E38.29089
G1 X58.735 Y106.036 E38.31339
G1 X59.2 Y105.59 E38.33589
G1 X59.717 Y105.205 E38.3584
M204 S5000
M205 X30 Y30
G1 F3000 E32.3584
;MESH:sup_btn._v5_2.stl(3)
G0 F7200 X62.964 Y108.885
G0 X62.964 Y109.964
G0 X63.751 Y116.301
G0 X66.438 Y114.534
G0 X68.136 Y115.965
G0 X68.403 Y116.333
G0 X69.221 Y118.198
M204 S500
M205 X20 Y20
;TYPE:WALL-INNER
G1 F3000 E38.3584
G1 F900 X69.308 Y117.5 E38.38297
G1 X69.221 Y116.802 E38.40753
G1 X68.961 Y116.148 E38.43211
G1 X68.548 Y115.578 E38.45669
G1 X68.005 Y115.128 E38.48132
G1 X67.367 Y114.83 E38.50591
G1 X66.676 Y114.698 E38.53048
G1 X65.973 Y114.742 E38.55508
G1 X65.304 Y114.959 E38.57964
G1 X64.713 Y115.336 E38.60412
G1 X64.228 Y115.846 E38.6287
G1 X63.945 Y116.363 E38.64928
G1 X63.888 Y116.467 E38.65343
G1 X63.714 Y117.15 E38.67804
G1 X63.714 Y117.85 E38.70249
G1 X63.888 Y118.533 E38.7271
G1 X63.945 Y118.637 E38.73124
G1 X64.228 Y119.154 E38.75183
G1 X64.713 Y119.664 E38.7764
G1 X65.304 Y120.041 E38.80089
G1 X65.973 Y120.258 E38.82545
G1 X66.626 Y120.298 E38.8483
G1 X66.676 Y120.302 E38.85005
G1 X67.367 Y120.17 E38.87462
G1 X68.005 Y119.872 E38.89921
G1 X68.548 Y119.422 E38.92384
G1 X68.961 Y118.852 E38.94842
G1 X69.221 Y118.198 E38.973
M204 S5000
M205 X30 Y30
G0 F7200 X68.83 Y118.098
M204 S500
M205 X20 Y20
G1 F900 X68.905 Y117.5 E38.99404
G1 X68.83 Y116.902 E39.01509
G1 X68.608 Y116.342 E39.03613
G1 X68.254 Y115.854 E39.05718
G1 X67.789 Y115.469 E39.07827
G1 X67.243 Y115.213 E39.09933
G1 X66.651 Y115.1 E39.12037
G1 X66.049 Y115.138 E39.14144
G1 X65.476 Y115.324 E39.16248
G1 X64.969 Y115.647 E39.18347
G1 X64.554 Y116.084 E39.20452
G1 X64.263 Y116.615 E39.22567
G1 X64.114 Y117.2 E39.24675
G1 X64.114 Y117.8 E39.2677
G1 X64.263 Y118.385 E39.28878
G1 X64.554 Y118.916 E39.30993
G1 X64.969 Y119.353 E39.33098
G1 X65.476 Y119.676 E39.35197
G1 X66.049 Y119.862 E39.37301
G1 X66.651 Y119.9 E39.39408
G1 X67.243 Y119.787 E39.41512
G1 X67.789 Y119.531 E39.43618
G1 X68.254 Y119.146 E39.45727
G1 X68.608 Y118.658 E39.47832
G1 X68.83 Y118.098 E39.49936
M204 S5000
M205 X30 Y30
G0 F7200 X68.439 Y117.998
M204 S500
M205 X20 Y20
;TYPE:WALL-OUTER
G1 F900 X68.502 Y117.5 E39.51689
G1 X68.439 Y117.002 E39.53442
G1 X68.255 Y116.536 E39.55192
G1 X67.96 Y116.13 E39.56944
G1 X67.573 Y115.809 E39.587
G1 X67.119 Y115.596 E39.60452
G1 X66.626 Y115.502 E39.62204
G1 X66.125 Y115.534 E39.63957
G1 X65.648 Y115.689 E39.65709
G1 X65.225 Y115.958 E39.6746
G1 X64.88 Y116.322 E39.69211
G1 X64.638 Y116.763 E39.70968
G1 X64.514 Y117.25 E39.72723
G1 X64.514 Y117.75 E39.74469
G1 X64.638 Y118.237 E39.76224
G1 X64.88 Y118.678 E39.77981
G1 X65.225 Y119.042 E39.79732
G1 X65.648 Y119.311 E39.81483
G1 X66.125 Y119.466 E39.83235
G1 X66.626 Y119.498 E39.84988
G1 X67.119 Y119.404 E39.86741
G1 X67.573 Y119.191 E39.88492
G1 X67.96 Y118.87 E39.90248
G1 X68.255 Y118.464 E39.92
G1 X68.439 Y117.998 E39.9375
M204 S5000
M205 X30 Y30
G0 F7200 X68.464 Y117.8
G0 X68.901 Y117.856
G0 X67.42 Y120.333
G0 X63.751 Y118.699
G0 X63.732 Y124.268
G0 X95.268 Y124.268
G0 X95.247 Y118.675
G0 X92.569 Y120.093
G0 X90.713 Y119.664
M204 S500
M205 X20 Y20
;TYPE:WALL-INNER
G1 F900 X91.304 Y120.041 E39.96198
G1 X91.973 Y120.258 E39.98654
G1 X92.626 Y120.298 E40.00939
G1 X92.676 Y120.302 E40.01114
G1 X93.368 Y120.17 E40.03575
G1 X94.009 Y119.87 E40.06046
G1 X94.562 Y119.403 E40.08574
G1 X94.97 Y118.831 E40.11028
G1 X95.06 Y118.597 E40.11903
G1 X95.205 Y118.221 E40.13311
G1 X95.224 Y118.174 E40.13488
G1 X95.229 Y118.125 E40.1366
G1 X95.306 Y117.477 E40.15939
G1 X95.214 Y116.78 E40.18394
G1 X95.058 Y116.396 E40.19841
G1 X94.947 Y116.125 E40.20864
G1 X94.531 Y115.563 E40.23306
G1 X93.985 Y115.118 E40.25766
G1 X93.345 Y114.824 E40.28226
G1 X93.297 Y114.816 E40.28395
G1 X92.653 Y114.697 E40.30683
G1 X91.95 Y114.749 E40.33144
G1 X91.284 Y114.972 E40.35597
G1 X90.695 Y115.352 E40.38045
G1 X90.216 Y115.868 E40.40504
G1 X89.884 Y116.485 E40.42951
G1 X89.714 Y117.15 E40.45348
G1 X89.714 Y117.85 E40.47792
G1 X89.888 Y118.533 E40.50254
G1 X90.228 Y119.154 E40.52726
G1 X90.713 Y119.664 E40.55184
M204 S5000
M205 X30 Y30
G0 F7200 X90.969 Y119.353
M204 S500
M205 X20 Y20
G1 F900 X91.476 Y119.676 E40.57284
G1 X92.049 Y119.862 E40.59388
G1 X92.651 Y119.9 E40.61494
G1 X93.244 Y119.787 E40.63602
G1 X93.791 Y119.53 E40.65713
G1 X94.266 Y119.13 E40.67882
