;FLAVOR:Marlin
;TIME:7578
;Filament used: 6.22971m
;Layer height: 0.28
;MINX:23.2
;MINY:56.7
;MINZ:0.28
;MAXX:211.8
;MAXY:178.299
;MAXZ:8.4
;Generated with Cura_SteamEngine 4.5.0
M140 S60
M105
M190 S60
M104 S205
M105
M109 S205
M82 ;absolute extrusion mode
; Ender 3 Custom Start G-code
G92 E0 ; Reset Extruder
G28 ; Home all axes
G1 Z2.0 F3000 ; Move Z Axis up little to prevent scratching of Heat Bed
G1 X0.1 Y20 Z0.3 F5000.0 ; Move to start position
G1 X0.1 Y200.0 Z0.3 F1500.0 E15 ; Draw the first line
G1 X0.4 Y200.0 Z0.3 F5000.0 ; Move to side a little
G1 X0.4 Y20 Z0.3 F1500.0 E30 ; Draw the second line
G92 E0 ; Reset Extruder
G1 Z2.0 F3000 ; Move Z Axis up little to prevent scratching of Heat Bed
G1 X5 Y20 Z0.3 F5000.0 ; Move over to prevent blob squish
G92 E0
G92 E0
G1 F1500 E-6
;LAYER_COUNT:30
;LAYER:0
M107
G0 F7500 X29.452 Y58.227 Z0.28
;TYPE:SKIRT
G1 F1500 E0
G1 X30.315 Y57.858 E0.0437
G1 X31.205 Y57.563 E0.08736
G1 X32.117 Y57.346 E0.13102
G1 X33.045 Y57.207 E0.17471
G1 X34.045 Y57.146 E0.22136
G1 X36.685 Y57.106 E0.3443
G1 X39.181 Y56.999 E0.46063
G1 X41.288 Y56.833 E0.55905
G1 X42.683 Y56.736 E0.62416
G1 X43.288 Y56.711 E0.65236
G1 X44.142 Y56.7 E0.69213
G1 X50.998 Y56.701 E1.01137
G1 X52 Y56.72 E1.05804
G1 X52.445 Y56.739 E1.07878
G1 X54.998 Y56.812 E1.1977
G1 X57.513 Y56.812 E1.31481
G1 X60.877 Y56.711 E1.47153
G1 X61.74 Y56.7 E1.51171
G1 X68.596 Y56.701 E1.83096
G1 X69.598 Y56.72 E1.87762
G1 X70.043 Y56.739 E1.89836
G1 X72.596 Y56.812 E2.01729
G1 X75.111 Y56.812 E2.1344
G1 X78.475 Y56.711 E2.29111
G1 X79.338 Y56.7 E2.3313
G1 X86.194 Y56.701 E2.65054
G1 X87.196 Y56.72 E2.69721
G1 X87.641 Y56.739 E2.71795
G1 X90.194 Y56.812 E2.83688
G1 X92.709 Y56.812 E2.95399
G1 X96.073 Y56.711 E3.1107
G1 X96.936 Y56.7 E3.15089
G1 X103.792 Y56.701 E3.47013
G1 X104.794 Y56.72 E3.5168
G1 X105.239 Y56.739 E3.53754
G1 X107.792 Y56.812 E3.65646
G1 X110.307 Y56.812 E3.77357
G1 X113.671 Y56.711 E3.93028
G1 X114.534 Y56.7 E3.97047
G1 X121.385 Y56.701 E4.28948
G1 X122.42 Y56.72 E4.33769
G1 X122.834 Y56.738 E4.35698
G1 X125.46 Y56.811 E4.47931
G1 X127.981 Y56.811 E4.5967
G1 X131.213 Y56.713 E4.74726
G1 X132.187 Y56.7 E4.79262
G1 X138.983 Y56.701 E5.10907
G1 X140.018 Y56.72 E5.15727
G1 X140.432 Y56.738 E5.17657
G1 X143.058 Y56.811 E5.29889
G1 X145.579 Y56.811 E5.41628
G1 X148.811 Y56.713 E5.56684
G1 X149.785 Y56.7 E5.6122
G1 X156.581 Y56.701 E5.92865
G1 X157.616 Y56.72 E5.97685
G1 X158.03 Y56.738 E5.99615
G1 X160.656 Y56.811 E6.11847
G1 X163.177 Y56.811 E6.23586
G1 X166.409 Y56.713 E6.38643
G1 X167.383 Y56.7 E6.43178
G1 X174.179 Y56.701 E6.74823
G1 X175.214 Y56.72 E6.79644
G1 X175.628 Y56.738 E6.81573
G1 X178.254 Y56.811 E6.93806
G1 X180.775 Y56.811 E7.05545
G1 X184.007 Y56.713 E7.20601
G1 X184.981 Y56.7 E7.25137
G1 X191.782 Y56.701 E7.56805
G1 X192.48 Y56.711 E7.60056
G1 X193.416 Y56.765 E7.64421
G1 X194.344 Y56.897 E7.68786
G1 X194.917 Y57.021 E7.71516
G1 X195.782 Y57.231 E7.75661
G1 X198.322 Y57.817 E7.87799
G1 X200.789 Y58.313 E7.99516
G1 X201.882 Y58.501 E8.0468
G1 X202.805 Y58.673 E8.09052
G1 X203.719 Y58.884 E8.1342
G1 X204.612 Y59.172 E8.17789
G1 X205.476 Y59.535 E8.22153
G1 X206.307 Y59.971 E8.26522
G1 X207.098 Y60.475 E8.3089
G1 X207.842 Y61.045 E8.35254
G1 X208.536 Y61.677 E8.39625
G1 X209.173 Y62.365 E8.43991
G1 X209.749 Y63.105 E8.48357
G1 X210.26 Y63.891 E8.52723
G1 X210.703 Y64.718 E8.57091
G1 X211.073 Y65.58 E8.61459
G1 X211.368 Y66.47 E8.65825
G1 X211.587 Y67.382 E8.70192
G1 X211.727 Y68.309 E8.74558
G1 X211.785 Y69.147 E8.78469
G1 X211.793 Y69.406 E8.79676
G1 X211.798 Y69.741 E8.81236
G1 X211.799 Y74.684 E9.04253
G1 X211.779 Y76.119 E9.10935
G1 X211.779 Y78.761 E9.23238
G1 X211.796 Y79.541 E9.2687
G1 X211.8 Y79.995 E9.28984
G1 X211.799 Y84.844 E9.51563
G1 X211.779 Y86.279 E9.58246
G1 X211.779 Y88.921 E9.70548
G1 X211.796 Y89.701 E9.74181
G1 X211.8 Y90.155 E9.76295
G1 X211.799 Y95.005 E9.98879
G1 X211.779 Y96.44 E10.05562
G1 X211.779 Y99.082 E10.17864
G1 X211.796 Y99.862 E10.21497
G1 X211.8 Y100.316 E10.23611
G1 X211.799 Y105.165 E10.4619
G1 X211.779 Y106.6 E10.52872
G1 X211.779 Y109.242 E10.65175
G1 X211.796 Y110.022 E10.68807
G1 X211.8 Y110.476 E10.70922
G1 X211.799 Y115.325 E10.93501
G1 X211.779 Y116.76 E11.00183
G1 X211.779 Y119.402 E11.12485
G1 X211.796 Y120.182 E11.16118
G1 X211.8 Y120.636 E11.18232
G1 X211.799 Y125.485 E11.40811
G1 X211.779 Y126.92 E11.47494
G1 X211.779 Y129.562 E11.59796
G1 X211.796 Y130.342 E11.63429
G1 X211.8 Y130.796 E11.65543
G1 X211.799 Y135.646 E11.88127
G1 X211.779 Y137.081 E11.94809
G1 X211.779 Y139.723 E12.07112
G1 X211.796 Y140.503 E12.10745
G1 X211.8 Y140.957 E12.12859
G1 X211.799 Y145.806 E12.35438
G1 X211.779 Y147.241 E12.4212
G1 X211.779 Y149.883 E12.54422
G1 X211.796 Y150.663 E12.58055
G1 X211.8 Y151.117 E12.60169
G1 X211.799 Y155.966 E12.82748
G1 X211.779 Y157.401 E12.89431
G1 X211.779 Y160.043 E13.01733
G1 X211.796 Y160.823 E13.05366
G1 X211.8 Y161.277 E13.0748
G1 X211.799 Y166.05 E13.29705
G1 X211.79 Y166.777 E13.33091
G1 X211.739 Y167.714 E13.3746
G1 X211.607 Y168.642 E13.41825
G1 X211.398 Y169.556 E13.46191
G1 X211.111 Y170.449 E13.50558
G1 X210.749 Y171.315 E13.54929
G1 X210.315 Y172.146 E13.59294
G1 X209.811 Y172.937 E13.63662
G1 X209.242 Y173.682 E13.68027
G1 X208.611 Y174.377 E13.72398
G1 X207.924 Y175.015 E13.76764
G1 X207.185 Y175.592 E13.81129
G1 X206.399 Y176.104 E13.85497
G1 X205.573 Y176.547 E13.89862
G1 X204.711 Y176.919 E13.94233
G1 X203.822 Y177.215 E13.98596
G1 X202.91 Y177.435 E14.02965
G1 X201.983 Y177.576 E14.07331
G1 X201.415 Y177.623 E14.09985
G1 X199.732 Y177.719 E14.17834
G1 X197.155 Y177.913 E14.29868
G1 X195.466 Y178.097 E14.37779
G1 X194.078 Y178.235 E14.44274
G1 X193.107 Y178.288 E14.48802
G1 X191.792 Y178.299 E14.54926
G1 X189.315 Y178.262 E14.66461
G1 X186.831 Y178.287 E14.78028
G1 X184.125 Y178.299 E14.90628
G1 X183.138 Y178.284 E14.95225
G1 X180.756 Y178.216 E15.06321
G1 X178.273 Y178.216 E15.17883
G1 X175.799 Y178.284 E15.29407
G1 X174.191 Y178.299 E15.36895
G1 X171.745 Y178.262 E15.48286
G1 X169.233 Y178.287 E15.59983
G1 X166.531 Y178.299 E15.72565
G1 X165.521 Y178.283 E15.77269
G1 X163.183 Y178.216 E15.8816
G1 X160.669 Y178.216 E15.99866
G1 X158.16 Y178.285 E16.11554
G1 X156.593 Y178.299 E16.1885
G1 X154.147 Y178.262 E16.30241
G1 X151.635 Y178.287 E16.41939
G1 X148.933 Y178.299 E16.54521
G1 X147.923 Y178.283 E16.59224
G1 X145.585 Y178.216 E16.70115
G1 X143.071 Y178.216 E16.81822
G1 X140.562 Y178.285 E16.93509
G1 X138.995 Y178.299 E17.00806
G1 X136.549 Y178.262 E17.12197
G1 X134.037 Y178.287 E17.23894
G1 X131.335 Y178.299 E17.36476
G1 X130.325 Y178.283 E17.4118
G1 X127.987 Y178.216 E17.52071
G1 X125.473 Y178.216 E17.63777
G1 X122.964 Y178.285 E17.75464
G1 X121.397 Y178.299 E17.82761
G1 X118.951 Y178.262 E17.94152
G1 X116.439 Y178.287 E18.0585
G1 X113.735 Y178.299 E18.18441
G1 X112.735 Y178.283 E18.23098
G1 X110.394 Y178.216 E18.34003
G1 X107.878 Y178.216 E18.45719
G1 X105.405 Y178.284 E18.57238
G1 X103.795 Y178.299 E18.64735
G1 X101.682 Y178.266 E18.74576
G1 X99.037 Y178.264 E18.86892
G1 X96.137 Y178.299 E19.00396
G1 X95.137 Y178.283 E19.05053
G1 X92.796 Y178.216 E19.15959
G1 X90.28 Y178.216 E19.27674
G1 X87.807 Y178.284 E19.39194
G1 X86.197 Y178.299 E19.46691
G1 X84.084 Y178.266 E19.56531
G1 X81.439 Y178.264 E19.68847
G1 X78.539 Y178.299 E19.82352
G1 X77.539 Y178.283 E19.87009
G1 X75.198 Y178.216 E19.97914
G1 X72.682 Y178.216 E20.0963
G1 X70.209 Y178.284 E20.21149
G1 X68.599 Y178.299 E20.28647
G1 X66.486 Y178.266 E20.38487
G1 X63.841 Y178.264 E20.50803
G1 X60.938 Y178.299 E20.64322
G1 X59.951 Y178.284 E20.68918
G1 X57.569 Y178.216 E20.80014
G1 X55.086 Y178.216 E20.91576
G1 X52.612 Y178.284 E21.031
G1 X51.007 Y178.299 E21.10574
G1 X48.53 Y178.262 E21.22109
G1 X46.046 Y178.287 E21.33677
G1 X43.34 Y178.299 E21.46277
G1 X42.353 Y178.284 E21.50873
G1 X39.971 Y178.216 E21.61969
G1 X37.488 Y178.216 E21.73531
G1 X35.037 Y178.284 E21.84949
G1 X34.073 Y178.289 E21.89437
G1 X33.137 Y178.238 E21.93802
G1 X32.208 Y178.106 E21.98172
G1 X31.294 Y177.897 E22.02537
G1 X30.401 Y177.61 E22.06905
G1 X29.536 Y177.248 E22.11271
G1 X28.705 Y176.814 E22.15637
G1 X27.913 Y176.31 E22.20008
G1 X27.168 Y175.741 E22.24373
G1 X26.474 Y175.111 E22.28738
G1 X25.835 Y174.423 E22.3311
G1 X25.258 Y173.684 E22.37476
G1 X24.746 Y172.898 E22.41844
G1 X24.303 Y172.072 E22.46208
G1 X23.931 Y171.211 E22.50575
G1 X23.635 Y170.321 E22.54943
G1 X23.415 Y169.409 E22.59311
G1 X23.274 Y168.482 E22.63677
G1 X23.213 Y167.586 E22.67859
G1 X23.2 Y166.956 E22.70793
G1 X23.2 Y159.837 E23.03942
G1 X23.206 Y158.263 E23.11272
G1 X23.2 Y157.506 E23.14797
G1 X23.2 Y149.677 E23.51252
G1 X23.206 Y148.103 E23.58581
G1 X23.2 Y147.346 E23.62106
G1 X23.2 Y139.674 E23.9783
G1 X23.206 Y137.894 E24.06119
G1 X23.2 Y137.157 E24.09551
G1 X23.2 Y129.514 E24.4514
G1 X23.206 Y127.734 E24.53428
G1 X23.2 Y126.997 E24.5686
G1 X23.2 Y119.407 E24.92202
G1 X23.206 Y117.602 E25.00607
G1 X23.2 Y116.853 E25.04095
G1 X23.2 Y109.247 E25.39511
G1 X23.206 Y107.442 E25.47916
G1 X23.2 Y106.693 E25.51404
G1 X23.2 Y99.033 E25.87072
G1 X23.206 Y97.253 E25.95361
G1 X23.2 Y96.516 E25.98793
G1 X23.2 Y88.873 E26.34382
G1 X23.206 Y87.093 E26.4267
G1 X23.2 Y86.356 E26.46102
G1 X23.2 Y78.766 E26.81444
G1 X23.206 Y76.961 E26.89849
G1 X23.2 Y76.212 E26.93337
G1 X23.201 Y68.658 E27.28512
G1 X23.211 Y67.982 E27.3166
G1 X23.265 Y67.046 E27.36025
G1 X23.398 Y66.118 E27.40391
G1 X23.61 Y65.204 E27.4476
G1 X23.899 Y64.312 E27.49126
G1 X24.263 Y63.447 E27.53495
G1 X24.7 Y62.617 E27.57863
G1 X25.205 Y61.827 E27.62229
G1 X25.776 Y61.083 E27.66596
G1 X26.408 Y60.39 E27.70964
G1 X27.097 Y59.754 E27.7533
G1 X27.838 Y59.179 E27.79697
G1 X28.625 Y58.668 E27.84066
G1 X28.949 Y58.495 E27.85777
G0 F1350 X29.452 Y58.227
G0 F7500 X29.824 Y58.495
G1 F1500 X30.678 Y58.151 E27.90064
G1 X31.559 Y57.882 E27.94353
G1 X32.459 Y57.691 E27.98637
G1 X33.373 Y57.578 E28.02926
G1 X34.051 Y57.546 E28.06086
G1 X36.71 Y57.506 E28.18469
G1 X39.173 Y57.4 E28.29948
G1 X41.316 Y57.233 E28.39957
G1 X42.711 Y57.136 E28.46469
G1 X43.294 Y57.111 E28.49186
G1 X44.142 Y57.1 E28.53135
G1 X50.993 Y57.101 E28.85036
G1 X51.983 Y57.119 E28.89647
G1 X52.415 Y57.137 E28.9166
G1 X55.022 Y57.212 E29.03804
G1 X57.525 Y57.212 E29.15459
G1 X60.233 Y57.135 E29.28074
G1 X60.883 Y57.111 E29.31103
G1 X61.74 Y57.1 E29.35093
G1 X68.591 Y57.101 E29.66995
G1 X69.581 Y57.119 E29.71605
G1 X70.013 Y57.137 E29.73619
G1 X72.62 Y57.212 E29.85763
G1 X75.123 Y57.212 E29.97418
G1 X77.831 Y57.135 E30.10033
G1 X78.481 Y57.111 E30.13061
G1 X79.338 Y57.1 E30.17052
G1 X86.189 Y57.101 E30.48953
G1 X87.179 Y57.119 E30.53564
G1 X87.611 Y57.137 E30.55577
G1 X90.218 Y57.212 E30.67722
G1 X92.721 Y57.212 E30.79377
G1 X95.429 Y57.135 E30.91991
G1 X96.079 Y57.111 E30.9502
G1 X96.936 Y57.1 E30.99011
G1 X103.787 Y57.101 E31.30912
G1 X104.777 Y57.119 E31.35523
G1 X105.209 Y57.137 E31.37536
G1 X107.816 Y57.212 E31.4968
G1 X110.319 Y57.212 E31.61335
G1 X113.027 Y57.135 E31.7395
G1 X113.677 Y57.111 E31.76979
G1 X114.534 Y57.1 E31.8097
G1 X121.379 Y57.101 E32.12843
G1 X122.403 Y57.12 E32.17612
G1 X122.806 Y57.137 E32.1949
G1 X125.449 Y57.211 E32.31802
G1 X127.958 Y57.211 E32.43485
G1 X131.219 Y57.113 E32.58676
G1 X132.187 Y57.1 E32.63184
G1 X138.977 Y57.101 E32.94801
G1 X140.001 Y57.12 E32.9957
G1 X140.404 Y57.137 E33.01448
G1 X143.047 Y57.211 E33.1376
G1 X145.556 Y57.211 E33.25443
G1 X148.817 Y57.113 E33.40634
G1 X149.785 Y57.1 E33.45142
G1 X156.575 Y57.101 E33.76759
G1 X157.599 Y57.12 E33.81528
G1 X158.002 Y57.137 E33.83406
G1 X160.645 Y57.211 E33.95718
G1 X163.154 Y57.211 E34.07401
G1 X166.415 Y57.113 E34.22593
G1 X167.383 Y57.1 E34.271
G1 X174.173 Y57.101 E34.58717
G1 X175.197 Y57.12 E34.63486
G1 X175.6 Y57.137 E34.65365
G1 X178.243 Y57.211 E34.77676
G1 X180.752 Y57.211 E34.89359
G1 X184.013 Y57.113 E35.04551
G1 X184.981 Y57.1 E35.09059
G1 X191.776 Y57.101 E35.40699
G1 X192.474 Y57.111 E35.43949
G1 X193.393 Y57.164 E35.48236
G1 X194.304 Y57.297 E35.52523
G1 X194.823 Y57.409 E35.54995
G1 X195.675 Y57.616 E35.59078
G1 X198.267 Y58.214 E35.71464
G1 X200.741 Y58.712 E35.83215
G1 X201.809 Y58.894 E35.8826
G1 X202.732 Y59.066 E35.92632
G1 X203.629 Y59.274 E35.9692
G1 X204.504 Y59.559 E36.01205
G1 X205.352 Y59.919 E36.05494
G1 X206.165 Y60.351 E36.09781
G1 X206.937 Y60.852 E36.14067
G1 X207.663 Y61.418 E36.18353
G1 X208.338 Y62.044 E36.2264
G1 X208.955 Y62.727 E36.26926
G1 X209.511 Y63.461 E36.31213
G1 X210.001 Y64.241 E36.35503
G1 X210.421 Y65.06 E36.39788
G1 X210.769 Y65.912 E36.44074
G1 X211.042 Y66.792 E36.48364
G1 X211.237 Y67.691 E36.52648
G1 X211.353 Y68.605 E36.56938
G1 X211.385 Y69.16 E36.59526
G1 X211.398 Y69.742 E36.62237
G1 X211.399 Y74.679 E36.85226
G1 X211.379 Y76.114 E36.91908
G1 X211.379 Y78.767 E37.04262
G1 X211.396 Y79.545 E37.07885
G1 X211.4 Y79.999 E37.1
G1 X211.399 Y84.839 E37.32537
G1 X211.379 Y86.274 E37.39219
G1 X211.379 Y88.929 E37.51582
G1 X211.396 Y89.705 E37.55196
G1 X211.4 Y90.159 E37.5731
G1 X211.399 Y95 E37.79852
G1 X211.379 Y96.435 E37.86535
G1 X211.379 Y99.09 E37.98897
G1 X211.396 Y99.866 E38.02512
G1 X211.4 Y100.32 E38.04626
G1 X211.399 Y105.16 E38.27163
G1 X211.379 Y106.595 E38.33846
G1 X211.379 Y109.248 E38.46199
G1 X211.396 Y110.026 E38.49823
G1 X211.4 Y110.48 E38.51937
G1 X211.399 Y115.32 E38.74474
G1 X211.379 Y116.755 E38.81156
G1 X211.379 Y119.408 E38.9351
G1 X211.396 Y120.186 E38.97133
G1 X211.4 Y120.64 E38.99247
G1 X211.399 Y125.48 E39.21785
G1 X211.379 Y126.915 E39.28467
G1 X211.379 Y129.57 E39.4083
G1 X211.396 Y130.346 E39.44444
G1 X211.4 Y130.8 E39.46558
G1 X211.399 Y135.641 E39.691
G1 X211.379 Y137.076 E39.75783
G1 X211.379 Y139.731 E39.88145
G1 X211.396 Y140.507 E39.9176
G1 X211.4 Y140.961 E39.93874
G1 X211.399 Y145.801 E40.16411
G1 X211.379 Y147.236 E40.23093
G1 X211.379 Y149.891 E40.35456
G1 X211.396 Y150.667 E40.3907
G1 X211.4 Y151.121 E40.41185
G1 X211.399 Y155.961 E40.63722
G1 X211.379 Y157.396 E40.70404
G1 X211.379 Y160.051 E40.82767
G1 X211.396 Y160.827 E40.86381
G1 X211.4 Y161.281 E40.88495
G1 X211.399 Y166.045 E41.10679
G1 X211.39 Y166.772 E41.14064
G1 X211.339 Y167.691 E41.1835
G1 X211.208 Y168.603 E41.2264
G1 X210.998 Y169.499 E41.26925
G1 X210.712 Y170.374 E41.31212
G1 X210.351 Y171.221 E41.35499
G1 X209.917 Y172.033 E41.39786
G1 X209.415 Y172.805 E41.44074
G1 X208.847 Y173.53 E41.48363
G1 X208.219 Y174.203 E41.52649
G1 X207.535 Y174.819 E41.56935
G1 X206.8 Y175.373 E41.61221
G1 X206.02 Y175.862 E41.65508
G1 X205.2 Y176.281 E41.69796
G1 X204.347 Y176.627 E41.74082
G1 X203.467 Y176.898 E41.78369
G1 X202.567 Y177.091 E41.82655
G1 X201.393 Y177.224 E41.88157
G1 X199.677 Y177.322 E41.9616
G1 X197.14 Y177.513 E42.08007
G1 X195.427 Y177.699 E42.16031
G1 X194.039 Y177.837 E42.22526
G1 X193.103 Y177.888 E42.2689
G1 X191.798 Y177.899 E42.32967
G1 X189.317 Y177.862 E42.44521
G1 X186.829 Y177.887 E42.56107
G1 X184.131 Y177.899 E42.6867
G1 X183.15 Y177.884 E42.73238
G1 X180.768 Y177.816 E42.84335
G1 X178.262 Y177.816 E42.96004
G1 X175.794 Y177.884 E43.075
G1 X174.197 Y177.899 E43.14937
G1 X171.747 Y177.862 E43.26346
G1 X169.231 Y177.887 E43.38062
G1 X166.536 Y177.899 E43.50611
G1 X165.532 Y177.884 E43.55287
G1 X163.16 Y177.816 E43.66337
G1 X160.657 Y177.816 E43.77992
G1 X158.156 Y177.885 E43.89642
G1 X156.599 Y177.899 E43.96892
G1 X154.149 Y177.862 E44.08302
G1 X151.633 Y177.887 E44.20018
G1 X148.938 Y177.899 E44.32567
G1 X147.934 Y177.884 E44.37242
G1 X145.562 Y177.816 E44.48292
G1 X143.059 Y177.816 E44.59947
G1 X140.558 Y177.885 E44.71597
G1 X139.001 Y177.899 E44.78848
G1 X136.551 Y177.862 E44.90257
G1 X134.035 Y177.887 E45.01973
G1 X131.34 Y177.899 E45.14522
G1 X130.336 Y177.884 E45.19198
G1 X127.964 Y177.816 E45.30247
G1 X125.461 Y177.816 E45.41902
G1 X122.96 Y177.885 E45.53553
G1 X121.403 Y177.899 E45.60803
G1 X118.953 Y177.862 E45.72212
G1 X116.437 Y177.887 E45.83929
G1 X113.741 Y177.899 E45.96482
G1 X112.747 Y177.884 E46.01111
G1 X110.371 Y177.816 E46.1218
G1 X107.866 Y177.816 E46.23844
G1 X105.4 Y177.884 E46.35331
G1 X103.801 Y177.899 E46.42777
G1 X101.688 Y177.866 E46.52617
G1 X99.032 Y177.864 E46.64985
G1 X96.143 Y177.899 E46.78438
