;FLAVOR:Marlin
;TIME:5520
;Filament used: 3.70621m
;Layer height: 0.24
;MINX:11.5
;MINY:46.5
;MINZ:0.24
;MAXX:223.5
;MAXY:188.5
;MAXZ:8.88
;Generated with Cura_SteamEngine 4.5.0
M140 S50
M105
M190 S50
M104 S205
M105
M109 S205
M82 ;absolute extrusion mode
; Ender 3 Custom Start G-code
G92 E0 ; Reset Extruder
G28 ; Home all axes
G1 Z2.0 F3000 ; Move Z Axis up little to prevent scratching of Heat Bed
G1 X0.1 Y20 Z0.3 F5000.0 ; Move to start position
G1 X0.1 Y200.0 Z0.3 F1500.0 E15 ; Draw the first line
G1 X0.4 Y200.0 Z0.3 F5000.0 ; Move to side a little
G1 X0.4 Y20 Z0.3 F1500.0 E30 ; Draw the second line
G92 E0 ; Reset Extruder
G1 Z2.0 F3000 ; Move Z Axis up little to prevent scratching of Heat Bed
G1 X5 Y20 Z0.3 F5000.0 ; Move over to prevent blob squish
G92 E0
G92 E0
G1 F1500 E-6
;LAYER_COUNT:37
;LAYER:0
M107
M204 S500
M205 X20 Y20
G0 F7500 X18.601 Y47.227 Z0.24
;TYPE:SKIRT
G1 F1500 E0
G1 X19.491 Y46.931 E0.03743
G1 X20.403 Y46.713 E0.07486
G1 X21.33 Y46.572 E0.11228
G1 X22.201 Y46.513 E0.14713
G1 X22.83 Y46.5 E0.17224
G1 X211.793 Y46.5 E7.71416
G1 X211.951 Y46.501 E7.72047
G1 X212.649 Y46.511 E7.74833
G1 X213.585 Y46.565 E7.78575
G1 X214.513 Y46.697 E7.82316
G1 X215.427 Y46.909 E7.86061
G1 X216.319 Y47.198 E7.89803
G1 X217.184 Y47.561 E7.93547
G1 X218.014 Y47.997 E7.97289
G1 X218.805 Y48.502 E8.01035
G1 X219.549 Y49.073 E8.04778
G1 X220.242 Y49.705 E8.08521
G1 X220.879 Y50.393 E8.12263
G1 X221.454 Y51.134 E8.16007
G1 X221.965 Y51.92 E8.19749
G1 X222.407 Y52.748 E8.23495
G1 X222.776 Y53.61 E8.27237
G1 X223.071 Y54.5 E8.30979
G1 X223.289 Y55.412 E8.34722
G1 X223.429 Y56.34 E8.38468
G1 X223.487 Y57.201 E8.41912
G1 X223.5 Y57.83 E8.44423
G1 X223.5 Y176.764 E13.19114
G1 X223.49 Y177.627 E13.22559
G1 X223.439 Y178.564 E13.26304
G1 X223.307 Y179.492 E13.30045
G1 X223.098 Y180.406 E13.33788
G1 X222.811 Y181.299 E13.37531
G1 X222.449 Y182.165 E13.41277
G1 X222.015 Y182.996 E13.45019
G1 X221.511 Y183.787 E13.48763
G1 X220.942 Y184.532 E13.52504
G1 X220.311 Y185.227 E13.56251
G1 X219.624 Y185.865 E13.59993
G1 X218.885 Y186.442 E13.63735
G1 X218.099 Y186.954 E13.67479
G1 X217.273 Y187.397 E13.7122
G1 X216.411 Y187.769 E13.74967
G1 X215.522 Y188.065 E13.78707
G1 X214.61 Y188.285 E13.82451
G1 X213.683 Y188.426 E13.86193
G1 X212.799 Y188.487 E13.8973
G1 X212.17 Y188.5 E13.92241
G1 X23.207 Y188.5 E21.46433
G1 X22.367 Y188.49 E21.49786
G1 X21.431 Y188.438 E21.53528
G1 X20.502 Y188.306 E21.57273
G1 X19.588 Y188.096 E21.61016
G1 X18.695 Y187.809 E21.64759
G1 X17.83 Y187.446 E21.68504
G1 X16.999 Y187.012 E21.72245
G1 X16.208 Y186.508 E21.75989
G1 X15.463 Y185.938 E21.79733
G1 X14.769 Y185.307 E21.83476
G1 X14.132 Y184.62 E21.87216
G1 X13.555 Y183.88 E21.90961
G1 X13.043 Y183.094 E21.94705
G1 X12.6 Y182.267 E21.98449
G1 X12.229 Y181.406 E22.02191
G1 X11.933 Y180.516 E22.05935
G1 X11.714 Y179.604 E22.09678
G1 X11.573 Y178.677 E22.13421
G1 X11.513 Y177.788 E22.16977
G1 X11.5 Y177.158 E22.19492
G1 X11.5 Y58.174 E26.94383
G1 X11.51 Y57.36 E26.97632
G1 X11.563 Y56.424 E27.01374
G1 X11.695 Y55.495 E27.05119
G1 X11.906 Y54.581 E27.08863
G1 X12.194 Y53.689 E27.12604
G1 X12.557 Y52.824 E27.16348
G1 X12.992 Y51.993 E27.20091
G1 X13.496 Y51.203 E27.23831
G1 X14.066 Y50.458 E27.27575
G1 X14.698 Y49.764 E27.31322
G1 X15.386 Y49.127 E27.35064
G1 X16.126 Y48.551 E27.38807
G1 X16.912 Y48.039 E27.42551
G1 X17.739 Y47.597 E27.46293
G1 X17.99 Y47.489 E27.47384
G0 F1350 X18.601 Y47.227
G0 F7500 X18.965 Y47.519
G1 F1500 X19.845 Y47.249 E27.51058
G1 X20.745 Y47.057 E27.54731
G1 X21.659 Y46.943 E27.58407
G1 X22.212 Y46.913 E27.60617
G1 X22.83 Y46.9 E27.63084
G1 X211.793 Y46.9 E35.17277
G1 X211.945 Y46.901 E35.17883
G1 X212.643 Y46.911 E35.20669
G1 X213.562 Y46.964 E35.24343
G1 X214.473 Y47.097 E35.28018
G1 X215.369 Y47.308 E35.31692
G1 X216.243 Y47.596 E35.35365
G1 X217.09 Y47.959 E35.39043
G1 X217.901 Y48.394 E35.42716
G1 X218.671 Y48.898 E35.46389
G1 X219.395 Y49.467 E35.50064
G1 X220.067 Y50.097 E35.53741
G1 X220.682 Y50.782 E35.57415
G1 X221.235 Y51.518 E35.61089
G1 X221.722 Y52.299 E35.64763
G1 X222.139 Y53.12 E35.68438
G1 X222.484 Y53.974 E35.72114
G1 X222.753 Y54.854 E35.75787
G1 X222.945 Y55.755 E35.79463
G1 X223.058 Y56.668 E35.83135
G1 X223.087 Y57.212 E35.8531
G1 X223.1 Y57.83 E35.87777
G1 X223.1 Y176.764 E40.62468
G1 X223.09 Y177.622 E40.65893
G1 X223.039 Y178.541 E40.69566
G1 X222.908 Y179.453 E40.73244
G1 X222.698 Y180.349 E40.76917
G1 X222.412 Y181.224 E40.80591
G1 X222.051 Y182.071 E40.84266
G1 X221.617 Y182.883 E40.8794
G1 X221.115 Y183.655 E40.91616
G1 X220.547 Y184.38 E40.95292
G1 X219.919 Y185.053 E40.98965
G1 X219.235 Y185.669 E41.02639
G1 X218.5 Y186.223 E41.06313
G1 X217.72 Y186.712 E41.09987
G1 X216.9 Y187.131 E41.13663
G1 X216.047 Y187.477 E41.17336
G1 X215.167 Y187.748 E41.21012
G1 X214.267 Y187.941 E41.24685
G1 X213.353 Y188.056 E41.28362
G1 X212.788 Y188.087 E41.3062
G1 X212.17 Y188.1 E41.33088
G1 X23.207 Y188.1 E48.8728
G1 X22.372 Y188.09 E48.90613
G1 X21.453 Y188.038 E48.94286
G1 X20.542 Y187.907 E48.9796
G1 X19.646 Y187.697 E49.01633
G1 X18.771 Y187.41 E49.05308
G1 X17.924 Y187.048 E49.08985
G1 X17.112 Y186.614 E49.12659
G1 X16.341 Y186.112 E49.16331
G1 X15.616 Y185.544 E49.20007
G1 X14.943 Y184.915 E49.23684
G1 X14.328 Y184.231 E49.27355
G1 X13.774 Y183.496 E49.31029
G1 X13.286 Y182.715 E49.34704
G1 X12.867 Y181.895 E49.3838
G1 X12.521 Y181.042 E49.42054
G1 X12.251 Y180.162 E49.45727
G1 X12.058 Y179.261 E49.49405
G1 X11.944 Y178.348 E49.53077
G1 X11.913 Y177.777 E49.5536
G1 X11.9 Y177.158 E49.57831
G1 X11.9 Y58.174 E54.32722
G1 X11.91 Y57.366 E54.35947
G1 X11.962 Y56.446 E54.39625
G1 X12.094 Y55.535 E54.43299
G1 X12.305 Y54.639 E54.46972
G1 X12.592 Y53.764 E54.50648
G1 X12.955 Y52.918 E54.54322
G1 X13.389 Y52.106 E54.57997
G1 X13.892 Y51.335 E54.61671
G1 X14.461 Y50.611 E54.65346
G1 X15.089 Y49.939 E54.69017
G1 X15.774 Y49.323 E54.72694
G1 X16.51 Y48.77 E54.76368
G1 X17.291 Y48.282 E54.80044
G1 X18.111 Y47.864 E54.83718
G1 X18.349 Y47.768 E54.84742
G0 F1350 X18.965 Y47.519
G0 F7500 X18.482 Y48.138
G1 F1500 X19.327 Y47.818 E54.88348
G1 X20.196 Y47.575 E54.9195
G1 X21.084 Y47.409 E54.95555
G1 X22.223 Y47.313 E55.00117
G1 X22.83 Y47.3 E55.02541
G1 X211.793 Y47.3 E62.56733
G1 X211.939 Y47.301 E62.57315
G1 X212.637 Y47.311 E62.60102
G1 X213.539 Y47.364 E62.63708
G1 X214.432 Y47.496 E62.67311
G1 X215.31 Y47.707 E62.70915
G1 X216.166 Y47.995 E62.74519
G1 X216.993 Y48.357 E62.78123
G1 X217.785 Y48.792 E62.81729
G1 X218.536 Y49.294 E62.85334
G1 X219.239 Y49.861 E62.88939
G1 X219.889 Y50.488 E62.92544
G1 X220.481 Y51.17 E62.96148
G1 X221.011 Y51.901 E62.99752
G1 X221.473 Y52.677 E63.03356
G1 X221.866 Y53.49 E63.06961
G1 X222.184 Y54.335 E63.10564
G1 X222.427 Y55.205 E63.14169
G1 X222.592 Y56.093 E63.17774
G1 X222.687 Y57.223 E63.223
G1 X222.7 Y57.83 E63.24723
G1 X222.7 Y176.764 E67.99415
G1 X222.69 Y177.617 E68.02819
G1 X222.639 Y178.519 E68.06425
G1 X222.508 Y179.413 E68.10031
G1 X222.299 Y180.291 E68.13634
G1 X222.013 Y181.148 E68.1724
G1 X221.652 Y181.976 E68.20845
G1 X221.22 Y182.768 E68.24445
G1 X220.719 Y183.52 E68.28052
G1 X220.153 Y184.224 E68.31657
G1 X219.528 Y184.875 E68.35259
G1 X218.847 Y185.469 E68.38866
G1 X218.116 Y186 E68.42472
G1 X217.342 Y186.464 E68.46074
G1 X216.529 Y186.858 E68.4968
G1 X215.685 Y187.178 E68.53282
G1 X214.815 Y187.423 E68.5689
G1 X213.928 Y187.589 E68.60491
G1 X212.777 Y187.687 E68.65102
G1 X212.17 Y187.7 E68.67525
G1 X23.207 Y187.7 E76.21717
G1 X22.377 Y187.69 E76.2503
G1 X21.476 Y187.639 E76.28632
G1 X20.582 Y187.507 E76.32239
G1 X19.704 Y187.298 E76.35841
G1 X18.847 Y187.011 E76.39448
G1 X18.02 Y186.65 E76.4305
G1 X17.227 Y186.217 E76.46656
G1 X16.476 Y185.716 E76.50259
G1 X15.772 Y185.15 E76.53864
G1 X15.121 Y184.524 E76.57469
G1 X14.528 Y183.843 E76.61073
G1 X13.998 Y183.112 E76.64677
G1 X13.534 Y182.337 E76.68282
G1 X13.14 Y181.524 E76.71888
G1 X12.82 Y180.68 E76.7549
G1 X12.576 Y179.81 E76.79097
G1 X12.41 Y178.922 E76.82702
G1 X12.313 Y177.767 E76.87328
G1 X12.3 Y177.158 E76.8976
G1 X12.3 Y58.174 E81.6465
G1 X12.31 Y57.371 E81.67856
G1 X12.362 Y56.469 E81.71462
G1 X12.494 Y55.576 E81.75065
G1 X12.704 Y54.698 E81.78668
G1 X12.991 Y53.841 E81.82275
G1 X13.353 Y53.014 E81.85878
G1 X13.786 Y52.222 E81.89481
G1 X14.288 Y51.471 E81.93086
G1 X14.855 Y50.767 E81.96694
G1 X15.481 Y50.117 E82.00296
G1 X16.162 Y49.524 E82.039
G1 X16.894 Y48.994 E82.07507
G1 X17.669 Y48.531 E82.1111
G1 X17.884 Y48.427 E82.12063
G0 F1350 X18.482 Y48.138
G1 F1500 E76.12063
;MESH:tapa_panal.stl
G0 F7500 X203.016 Y106.404
;TYPE:WALL-INNER
G1 F1500 E82.12063
G1 X203.5 Y105.567 E82.15922
G1 X203.5 Y103.456 E82.24347
G1 X203.016 Y102.619 E82.28206
G1 X203.5 Y102.489 E82.30207
G1 X203.5 Y95.136 E82.59554
G1 X203.018 Y95.008 E82.61544
G1 X203.5 Y94.174 E82.65389
G1 X203.5 Y92.064 E82.73811
G1 X203.016 Y91.227 E82.77669
G1 X203.5 Y91.097 E82.7967
G1 X203.5 Y83.749 E83.08997
G1 X203.016 Y83.619 E83.10997
G1 X203.5 Y82.782 E83.14856
G1 X203.5 Y80.672 E83.23278
G1 X203.016 Y79.835 E83.27137
G1 X203.5 Y79.705 E83.29137
G1 X203.5 Y72.357 E83.58464
G1 X203.016 Y72.227 E83.60465
G1 X203.5 Y71.39 E83.64324
G1 X203.5 Y69.279 E83.72749
G1 X201.895 Y66.5 E83.85558
G1 X31.5 Y66.5 E90.65641
G1 X31.5 Y70.136 E90.80153
G1 X31.983 Y70.266 E90.82149
G1 X31.943 Y70.335 E90.82468
G1 X31.983 Y70.404 E90.82786
G1 X31.5 Y70.534 E90.84782
G1 X31.5 Y81.528 E91.28662
G1 X31.983 Y81.658 E91.30658
G1 X31.943 Y81.727 E91.30976
G1 X31.983 Y81.796 E91.31295
G1 X31.5 Y81.926 E91.33291
G1 X31.5 Y92.92 E91.77171
G1 X31.983 Y93.05 E91.79167
G1 X31.943 Y93.119 E91.79485
G1 X31.983 Y93.188 E91.79804
G1 X31.5 Y93.318 E91.818
G1 X31.5 Y104.312 E92.25679
G1 X31.983 Y104.442 E92.27676
G1 X31.943 Y104.512 E92.27998
G1 X31.983 Y104.581 E92.28316
G1 X31.5 Y104.711 E92.30312
G1 X31.5 Y115.705 E92.74192
G1 X31.983 Y115.835 E92.76188
G1 X31.943 Y115.904 E92.76506
G1 X31.983 Y115.973 E92.76825
G1 X31.5 Y116.103 E92.78821
G1 X31.5 Y127.097 E93.227
G1 X31.983 Y127.227 E93.24697
G1 X31.943 Y127.296 E93.25015
G1 X31.983 Y127.365 E93.25333
G1 X31.5 Y127.495 E93.2733
G1 X31.5 Y138.489 E93.71209
G1 X31.983 Y138.619 E93.73206
G1 X31.943 Y138.688 E93.73524
G1 X31.983 Y138.758 E93.73846
G1 X31.5 Y138.888 E93.75842
G1 X31.5 Y149.882 E94.19721
G1 X31.983 Y150.012 E94.21718
G1 X31.943 Y150.081 E94.22036
G1 X31.983 Y150.15 E94.22354
G1 X31.5 Y150.28 E94.24351
G1 X31.5 Y161.274 E94.6823
G1 X31.983 Y161.404 E94.70227
G1 X31.943 Y161.473 E94.70545
G1 X31.983 Y161.542 E94.70863
G1 X31.5 Y161.672 E94.7286
G1 X31.5 Y168.5 E95.00112
G1 X35.619 Y168.5 E95.16552
G1 X36.099 Y167.669 E95.20382
G1 X42.097 Y167.669 E95.44321
G1 X42.577 Y168.5 E95.48151
G1 X55.351 Y168.5 E95.99135
G1 X55.831 Y167.669 E96.02965
G1 X61.829 Y167.669 E96.26905
G1 X62.309 Y168.5 E96.30735
G1 X75.083 Y168.5 E96.81719
G1 X75.563 Y167.669 E96.85549
G1 X81.562 Y167.669 E97.09492
G1 X82.042 Y168.5 E97.13322
G1 X94.815 Y168.5 E97.64302
G1 X95.295 Y167.669 E97.68133
G1 X101.293 Y167.669 E97.92072
G1 X101.773 Y168.5 E97.95902
G1 X114.547 Y168.5 E98.46886
G1 X115.027 Y167.669 E98.50716
G1 X121.025 Y167.669 E98.74655
G1 X121.505 Y168.5 E98.78486
G1 X134.279 Y168.5 E99.29469
G1 X134.759 Y167.669 E99.333
G1 X140.757 Y167.669 E99.57239
G1 X141.237 Y168.5 E99.61069
G1 X154.011 Y168.5 E100.12053
G1 X154.491 Y167.669 E100.15883
G1 X160.49 Y167.669 E100.39827
G1 X160.97 Y168.5 E100.43657
G1 X173.743 Y168.5 E100.94637
G1 X174.223 Y167.669 E100.98467
G1 X180.222 Y167.669 E101.2241
G1 X180.702 Y168.5 E101.2624
G1 X193.475 Y168.5 E101.7722
G1 X193.955 Y167.669 E101.8105
G1 X199.954 Y167.669 E102.04994
G1 X200.434 Y168.5 E102.08824
G1 X203.5 Y168.5 E102.21061
G1 X203.5 Y163.495 E102.41037
G1 X203.016 Y163.365 E102.43037
G1 X203.5 Y162.528 E102.46896
G1 X203.5 Y160.418 E102.55318
G1 X203.016 Y159.581 E102.59177
G1 X203.5 Y159.451 E102.61177
G1 X203.5 Y152.103 E102.90504
G1 X203.016 Y151.973 E102.92505
G1 X203.5 Y151.136 E102.96364
G1 X203.5 Y149.026 E103.04785
G1 X203.016 Y148.189 E103.08644
G1 X203.5 Y148.059 E103.10644
G1 X203.5 Y140.711 E103.39972
G1 X203.016 Y140.581 E103.41972
G1 X203.5 Y139.744 E103.45831
G1 X203.5 Y137.633 E103.54256
G1 X203.016 Y136.796 E103.58115
G1 X203.5 Y136.666 E103.60115
G1 X203.5 Y129.318 E103.89443
G1 X203.016 Y129.188 E103.91443
G1 X203.5 Y128.351 E103.95302
G1 X203.5 Y126.241 E104.03724
G1 X203.016 Y125.404 E104.07583
G1 X203.5 Y125.274 E104.09583
G1 X203.5 Y117.926 E104.3891
G1 X203.016 Y117.796 E104.4091
G1 X203.5 Y116.959 E104.44769
G1 X203.5 Y114.849 E104.53191
G1 X203.016 Y114.012 E104.5705
G1 X203.5 Y113.882 E104.5905
G1 X203.5 Y106.698 E104.87723
G0 F1350 X203.5 Y106.534
G0 X203.016 Y106.404
G0 F7500 X203.1 Y106.84
G1 F1500 X202.41 Y106.654 E104.90575
G1 X203.1 Y105.46 E104.96079
G1 X203.1 Y103.563 E105.03651
G1 X202.41 Y102.369 E105.09155
G1 X203.1 Y102.183 E105.12007
G1 X203.1 Y95.444 E105.38904
G1 X202.41 Y95.261 E105.41753
G1 X203.1 Y94.067 E105.47257
G1 X203.1 Y92.171 E105.54824
G1 X202.41 Y90.977 E105.60328
G1 X203.1 Y90.791 E105.6318
G1 X203.1 Y84.055 E105.90065
G1 X202.41 Y83.869 E105.92917
G1 X203.1 Y82.675 E105.98421
G1 X203.1 Y80.779 E106.05989
G1 X202.41 Y79.585 E106.11493
G1 X203.1 Y79.399 E106.14345
G1 X203.1 Y72.663 E106.4123
G1 X202.41 Y72.477 E106.44082
G1 X203.1 Y71.283 E106.49586
G1 X203.1 Y69.386 E106.57158
G1 X201.664 Y66.9 E106.68616
G1 X31.9 Y66.9 E113.46181
G1 X31.9 Y69.83 E113.57875
G1 X32.589 Y70.016 E113.60724
G1 X32.405 Y70.335 E113.62193
G1 X32.589 Y70.654 E113.63663
G1 X31.9 Y70.84 E113.66512
G1 X31.9 Y81.222 E114.07948
G1 X32.589 Y81.408 E114.10797
G1 X32.405 Y81.727 E114.12267
G1 X32.589 Y82.046 E114.13736
G1 X31.9 Y82.232 E114.16585
G1 X31.9 Y92.614 E114.58022
G1 X32.589 Y92.8 E114.6087
G1 X32.405 Y93.119 E114.6234
G1 X32.589 Y93.438 E114.6381
G1 X31.9 Y93.624 E114.66658
G1 X31.9 Y104.006 E115.08095
G1 X32.59 Y104.192 E115.10947
G1 X32.405 Y104.512 E115.12422
G1 X32.589 Y104.831 E115.13892
G1 X31.9 Y105.017 E115.16741
G1 X31.9 Y115.399 E115.58177
G1 X32.589 Y115.585 E115.61026
G1 X32.405 Y115.904 E115.62496
G1 X32.589 Y116.223 E115.63965
G1 X31.9 Y116.409 E115.66814
G1 X31.9 Y126.791 E116.08251
G1 X32.589 Y126.977 E116.11099
G1 X32.405 Y127.296 E116.12569
G1 X32.589 Y127.615 E116.14039
G1 X31.9 Y127.801 E116.16887
G1 X31.9 Y138.183 E116.58324
G1 X32.589 Y138.369 E116.61172
G1 X32.405 Y138.688 E116.62642
G1 X32.59 Y139.008 E116.64117
G1 X31.9 Y139.194 E116.66969
G1 X31.9 Y149.576 E117.08406
G1 X32.589 Y149.762 E117.11255
G1 X32.405 Y150.081 E117.12724
G1 X32.589 Y150.4 E117.14194
G1 X31.9 Y150.586 E117.17043
G1 X31.9 Y160.968 E117.58479
G1 X32.589 Y161.154 E117.61328
G1 X32.405 Y161.473 E117.62798
G1 X32.589 Y161.792 E117.64268
G1 X31.9 Y161.978 E117.67116
G1 X31.9 Y168.1 E117.9155
G1 X35.388 Y168.1 E118.05471
G1 X35.868 Y167.269 E118.09302
G1 X42.329 Y167.269 E118.35089
G1 X42.808 Y168.1 E118.38917
G1 X55.12 Y168.1 E118.88057
G1 X55.6 Y167.269 E118.91887
G1 X62.061 Y167.269 E119.17675
G1 X62.54 Y168.1 E119.21503
G1 X74.852 Y168.1 E119.70643
G1 X75.332 Y167.269 E119.74473
G1 X81.793 Y167.269 E120.0026
G1 X82.273 Y168.1 E120.0409
G1 X94.584 Y168.1 E120.53226
G1 X95.064 Y167.269 E120.57056
G1 X101.525 Y167.269 E120.82844
G1 X102.004 Y168.1 E120.86672
G1 X114.316 Y168.1 E121.35812
G1 X114.796 Y167.269 E121.39642
G1 X121.257 Y167.269 E121.65429
G1 X121.736 Y168.1 E121.69258
G1 X134.048 Y168.1 E122.18397
G1 X134.528 Y167.269 E122.22228
G1 X140.989 Y167.269 E122.48015
G1 X141.468 Y168.1 E122.51843
G1 X153.78 Y168.1 E123.00983
G1 X154.26 Y167.269 E123.04813
G1 X160.721 Y167.269 E123.306
G1 X161.201 Y168.1 E123.34431
G1 X173.512 Y168.1 E123.83567
G1 X173.992 Y167.269 E123.87397
G1 X180.453 Y167.269 E124.13184
G1 X180.933 Y168.1 E124.17014
G1 X193.244 Y168.1 E124.6615
G1 X193.724 Y167.269 E124.6998
G1 X200.186 Y167.269 E124.95772
G1 X200.665 Y168.1 E124.996
G1 X203.1 Y168.1 E125.09319
G1 X203.1 Y163.801 E125.26477
G1 X202.41 Y163.615 E125.29329
G1 X203.1 Y162.421 E125.34833
G1 X203.1 Y160.525 E125.424
G1 X202.41 Y159.331 E125.47904
G1 X203.1 Y159.145 E125.50757
G1 X203.1 Y152.409 E125.77641
G1 X202.41 Y152.223 E125.80494
G1 X203.1 Y151.029 E125.85998
