;FLAVOR:Marlin
;TIME:2782
;Filament used: 1.51172m
;Layer height: 0.24
;MINX:46.5
;MINY:72
;MINZ:0.24
;MAXX:188.5
;MAXY:163
;MAXZ:7.92
;Generated with Cura_SteamEngine 4.5.0
M140 S50
M105
M190 S50
M104 S205
M105
M109 S205
M82 ;absolute extrusion mode
; Ender 3 Custom Start G-code
G92 E0 ; Reset Extruder
G28 ; Home all axes
G1 Z2.0 F3000 ; Move Z Axis up little to prevent scratching of Heat Bed
G1 X0.1 Y20 Z0.3 F5000.0 ; Move to start position
G1 X0.1 Y200.0 Z0.3 F1500.0 E15 ; Draw the first line
G1 X0.4 Y200.0 Z0.3 F5000.0 ; Move to side a little
G1 X0.4 Y20 Z0.3 F1500.0 E30 ; Draw the second line
G92 E0 ; Reset Extruder
G1 Z2.0 F3000 ; Move Z Axis up little to prevent scratching of Heat Bed
G1 X5 Y20 Z0.3 F5000.0 ; Move over to prevent blob squish
G92 E0
G92 E0
G1 F1500 E-6
;LAYER_COUNT:33
;LAYER:0
M107
M204 S500
M205 X20 Y20
G0 F7500 X51.126 Y74.051 Z0.24
;TYPE:SKIRT
G1 F1500 E0
G1 X51.912 Y73.539 E0.03744
G1 X52.739 Y73.097 E0.07487
G1 X53.601 Y72.727 E0.11231
G1 X54.491 Y72.431 E0.14974
G1 X55.403 Y72.213 E0.18717
G1 X56.33 Y72.072 E0.22459
G1 X57.201 Y72.013 E0.25943
G1 X57.83 Y72 E0.28454
G1 X176.793 Y72 E5.03261
G1 X176.951 Y72.001 E5.03892
G1 X177.649 Y72.011 E5.06678
G1 X178.585 Y72.065 E5.1042
G1 X179.513 Y72.197 E5.14161
G1 X180.427 Y72.409 E5.17906
G1 X181.319 Y72.698 E5.21648
G1 X182.184 Y73.061 E5.25392
G1 X183.014 Y73.497 E5.29134
G1 X183.805 Y74.002 E5.3288
G1 X184.549 Y74.573 E5.36623
G1 X185.242 Y75.205 E5.40367
G1 X185.879 Y75.893 E5.44109
G1 X186.454 Y76.634 E5.47852
G1 X186.965 Y77.42 E5.51594
G1 X187.407 Y78.248 E5.5534
G1 X187.776 Y79.11 E5.59083
G1 X188.071 Y80 E5.62825
G1 X188.289 Y80.912 E5.66567
G1 X188.429 Y81.84 E5.70313
G1 X188.487 Y82.701 E5.73757
G1 X188.5 Y83.33 E5.76268
G1 X188.5 Y151.264 E8.47408
G1 X188.49 Y152.127 E8.50852
G1 X188.439 Y153.064 E8.54598
G1 X188.307 Y153.992 E8.58339
G1 X188.098 Y154.906 E8.62081
G1 X187.811 Y155.799 E8.65825
G1 X187.449 Y156.665 E8.69571
G1 X187.015 Y157.496 E8.73313
G1 X186.511 Y158.287 E8.77056
G1 X185.942 Y159.032 E8.80798
G1 X185.311 Y159.727 E8.84544
G1 X184.624 Y160.365 E8.88286
G1 X183.885 Y160.942 E8.92028
G1 X183.099 Y161.454 E8.95772
G1 X182.273 Y161.897 E8.99513
G1 X181.411 Y162.269 E9.0326
G1 X180.522 Y162.565 E9.07
G1 X179.61 Y162.785 E9.10744
G1 X178.683 Y162.926 E9.14487
G1 X177.799 Y162.987 E9.18023
G1 X177.17 Y163 E9.20534
G1 X58.207 Y163 E13.95341
G1 X57.367 Y162.99 E13.98694
G1 X56.431 Y162.938 E14.02436
G1 X55.502 Y162.806 E14.06181
G1 X54.588 Y162.596 E14.09924
G1 X53.695 Y162.309 E14.13668
G1 X52.83 Y161.946 E14.17412
G1 X51.999 Y161.512 E14.21154
G1 X51.208 Y161.008 E14.24897
G1 X50.463 Y160.438 E14.28641
G1 X49.769 Y159.807 E14.32385
G1 X49.132 Y159.12 E14.36124
G1 X48.555 Y158.38 E14.39869
G1 X48.043 Y157.594 E14.43613
G1 X47.6 Y156.767 E14.47358
G1 X47.229 Y155.906 E14.51099
G1 X46.933 Y155.016 E14.54843
G1 X46.714 Y154.104 E14.58586
G1 X46.573 Y153.177 E14.62329
G1 X46.513 Y152.288 E14.65885
G1 X46.5 Y151.658 E14.684
G1 X46.5 Y83.674 E17.39739
G1 X46.51 Y82.86 E17.42988
G1 X46.563 Y81.924 E17.4673
G1 X46.695 Y80.995 E17.50475
G1 X46.906 Y80.081 E17.54219
G1 X47.194 Y79.189 E17.5796
G1 X47.557 Y78.324 E17.61704
G1 X47.992 Y77.493 E17.65448
G1 X48.496 Y76.703 E17.69188
G1 X49.066 Y75.958 E17.72932
G1 X49.698 Y75.264 E17.76678
G1 X50.386 Y74.627 E17.8042
G1 X50.601 Y74.459 E17.81509
G0 F1350 X51.126 Y74.051
G0 F7500 X51.51 Y74.27
G1 F1500 X52.291 Y73.782 E17.85185
G1 X53.111 Y73.364 E17.88858
G1 X53.965 Y73.019 E17.92534
G1 X54.845 Y72.749 E17.96208
G1 X55.745 Y72.557 E17.99881
G1 X56.659 Y72.443 E18.03557
G1 X57.212 Y72.413 E18.05768
G1 X57.83 Y72.4 E18.08235
G1 X176.793 Y72.4 E22.83042
G1 X176.945 Y72.401 E22.83649
G1 X177.643 Y72.411 E22.86435
G1 X178.562 Y72.464 E22.90109
G1 X179.473 Y72.597 E22.93783
G1 X180.369 Y72.808 E22.97457
G1 X181.243 Y73.096 E23.0113
G1 X182.09 Y73.459 E23.04808
G1 X182.901 Y73.894 E23.08481
G1 X183.671 Y74.398 E23.12154
G1 X184.395 Y74.967 E23.15829
G1 X185.067 Y75.597 E23.19506
G1 X185.682 Y76.282 E23.2318
G1 X186.235 Y77.018 E23.26854
G1 X186.722 Y77.799 E23.30528
G1 X187.139 Y78.62 E23.34203
G1 X187.484 Y79.474 E23.37879
G1 X187.753 Y80.354 E23.41552
G1 X187.945 Y81.255 E23.45229
G1 X188.058 Y82.168 E23.48901
G1 X188.087 Y82.712 E23.51075
G1 X188.1 Y83.33 E23.53542
G1 X188.1 Y151.264 E26.24681
G1 X188.09 Y152.122 E26.28106
G1 X188.039 Y153.041 E26.3178
G1 X187.908 Y153.953 E26.35457
G1 X187.698 Y154.849 E26.3913
G1 X187.412 Y155.724 E26.42804
G1 X187.051 Y156.571 E26.46479
G1 X186.617 Y157.383 E26.50154
G1 X186.115 Y158.155 E26.53829
G1 X185.547 Y158.88 E26.57505
G1 X184.919 Y159.553 E26.61179
G1 X184.235 Y160.169 E26.64853
G1 X183.5 Y160.723 E26.68526
G1 X182.72 Y161.212 E26.72201
G1 X181.9 Y161.631 E26.75876
G1 X181.047 Y161.977 E26.7955
G1 X180.167 Y162.248 E26.83225
G1 X179.267 Y162.441 E26.86899
G1 X178.353 Y162.556 E26.90575
G1 X177.788 Y162.587 E26.92834
G1 X177.17 Y162.6 E26.95301
G1 X58.207 Y162.6 E31.70108
G1 X57.372 Y162.59 E31.73441
G1 X56.453 Y162.538 E31.77115
G1 X55.542 Y162.407 E31.80788
G1 X54.646 Y162.197 E31.84461
G1 X53.771 Y161.91 E31.88136
G1 X52.924 Y161.548 E31.91813
G1 X52.112 Y161.114 E31.95488
G1 X51.341 Y160.612 E31.9916
G1 X50.616 Y160.044 E32.02836
G1 X49.943 Y159.415 E32.06512
G1 X49.328 Y158.731 E32.10183
G1 X48.774 Y157.996 E32.13857
G1 X48.286 Y157.215 E32.17533
G1 X47.867 Y156.395 E32.21208
G1 X47.521 Y155.542 E32.24882
G1 X47.251 Y154.662 E32.28556
G1 X47.058 Y153.761 E32.32233
G1 X46.944 Y152.848 E32.35906
G1 X46.913 Y152.277 E32.38188
G1 X46.9 Y151.658 E32.40659
G1 X46.9 Y83.674 E35.11998
G1 X46.91 Y82.866 E35.15223
G1 X46.962 Y81.946 E35.18901
G1 X47.094 Y81.035 E35.22575
G1 X47.305 Y80.139 E35.26249
G1 X47.592 Y79.264 E35.29924
G1 X47.955 Y78.418 E35.33598
G1 X48.389 Y77.606 E35.37273
G1 X48.892 Y76.835 E35.40947
G1 X49.461 Y76.111 E35.44623
G1 X50.089 Y75.439 E35.48294
G1 X50.774 Y74.823 E35.5197
G1 X50.978 Y74.669 E35.52991
G0 F1350 X51.51 Y74.27
G0 F7500 X51.894 Y74.494
G1 F1500 X52.669 Y74.031 E35.56594
G1 X53.482 Y73.638 E35.60198
G1 X54.327 Y73.318 E35.63804
G1 X55.196 Y73.075 E35.67406
G1 X56.084 Y72.909 E35.71011
G1 X57.223 Y72.813 E35.75573
G1 X57.83 Y72.8 E35.77996
G1 X176.793 Y72.8 E40.52803
G1 X176.939 Y72.801 E40.53386
G1 X177.637 Y72.811 E40.56172
G1 X178.539 Y72.864 E40.59779
G1 X179.432 Y72.996 E40.63382
G1 X180.31 Y73.207 E40.66986
G1 X181.166 Y73.495 E40.7059
G1 X181.993 Y73.857 E40.74193
G1 X182.785 Y74.292 E40.778
G1 X183.536 Y74.794 E40.81405
G1 X184.239 Y75.361 E40.8501
G1 X184.889 Y75.988 E40.88614
G1 X185.481 Y76.67 E40.92219
G1 X186.011 Y77.401 E40.95823
G1 X186.473 Y78.177 E40.99427
G1 X186.866 Y78.99 E41.03031
G1 X187.184 Y79.835 E41.06635
G1 X187.427 Y80.705 E41.1024
G1 X187.592 Y81.593 E41.13845
G1 X187.687 Y82.723 E41.18371
G1 X187.7 Y83.33 E41.20794
G1 X187.7 Y151.264 E43.91933
G1 X187.69 Y152.117 E43.95338
G1 X187.639 Y153.019 E43.98944
G1 X187.508 Y153.913 E44.0255
G1 X187.299 Y154.791 E44.06152
G1 X187.013 Y155.648 E44.09758
G1 X186.652 Y156.476 E44.13364
G1 X186.22 Y157.268 E44.16964
G1 X185.719 Y158.02 E44.20571
G1 X185.153 Y158.724 E44.24176
G1 X184.528 Y159.375 E44.27778
G1 X183.847 Y159.969 E44.31385
G1 X183.116 Y160.5 E44.34991
G1 X182.342 Y160.964 E44.38592
G1 X181.529 Y161.358 E44.42198
G1 X180.685 Y161.678 E44.45801
G1 X179.815 Y161.923 E44.49408
G1 X178.928 Y162.089 E44.5301
G1 X177.777 Y162.187 E44.5762
G1 X177.17 Y162.2 E44.60044
G1 X58.207 Y162.2 E49.34851
G1 X57.377 Y162.19 E49.38164
G1 X56.476 Y162.139 E49.41766
G1 X55.582 Y162.007 E49.45372
G1 X54.704 Y161.798 E49.48975
G1 X53.847 Y161.511 E49.52582
G1 X53.02 Y161.15 E49.56183
G1 X52.227 Y160.717 E49.59789
G1 X51.476 Y160.216 E49.63393
G1 X50.772 Y159.65 E49.66998
G1 X50.121 Y159.024 E49.70603
G1 X49.528 Y158.343 E49.74207
G1 X48.998 Y157.612 E49.7781
G1 X48.534 Y156.837 E49.81416
G1 X48.14 Y156.024 E49.85021
G1 X47.82 Y155.18 E49.88624
G1 X47.576 Y154.31 E49.9223
G1 X47.41 Y153.422 E49.95836
G1 X47.313 Y152.267 E50.00462
G1 X47.3 Y151.658 E50.02893
G1 X47.3 Y83.674 E52.74232
G1 X47.31 Y82.871 E52.77437
G1 X47.362 Y81.969 E52.81043
G1 X47.494 Y81.076 E52.84646
G1 X47.704 Y80.198 E52.88249
G1 X47.991 Y79.341 E52.91856
G1 X48.353 Y78.514 E52.9546
G1 X48.786 Y77.722 E52.99062
G1 X49.288 Y76.971 E53.02668
G1 X49.855 Y76.267 E53.06275
G1 X50.481 Y75.617 E53.09877
G1 X51.162 Y75.024 E53.13481
G1 X51.355 Y74.884 E53.14433
G0 F1350 X51.894 Y74.494
G1 F1500 E47.14433
;MESH:lateral_derecha_panal.stl
G0 F7500 X86.643 Y116.869
;TYPE:WALL-OUTER
G1 F1500 E53.14433
G1 X83.527 Y122.265 E53.38059
G1 X86.643 Y127.662 E53.61688
G1 X92.873 Y127.662 E53.8531
G1 X95.989 Y122.265 E54.0894
G1 X92.873 Y116.869 E54.32566
G1 X87.308 Y116.869 E54.53666
G0 F1350 X86.643 Y116.869
G0 F7500 X86.443 Y117.215
G1 F1500 E48.53666
G0 F7500 X96.509 Y122.565
G1 F1500 E54.53666
G1 X93.393 Y127.962 E54.77296
G1 X96.509 Y133.358 E55.00922
G1 X102.739 Y133.358 E55.24544
G1 X105.855 Y127.962 E55.4817
G1 X102.74 Y122.565 E55.71797
G1 X97.174 Y122.565 E55.92902
G0 F1350 X96.509 Y122.565
G0 F7500 X96.309 Y122.911
G1 F1500 E49.92902
G0 F7500 X152.59 Y105.177
G1 F1500 E55.92902
G1 X155.706 Y110.573 E56.16528
G1 X161.936 Y110.573 E56.4015
G1 X165.052 Y105.177 E56.63776
G1 X161.937 Y99.781 E56.874
G1 X155.706 Y99.781 E57.11026
G1 X152.922 Y104.602 E57.32134
G0 F1350 X152.59 Y105.177
G0 F7500 X152.79 Y105.523
G1 F1500 E51.32134
G0 F7500 X155.706 Y111.173
G1 F1500 E57.32134
G1 X152.59 Y116.569 E57.55761
G1 X155.706 Y121.965 E57.79387
G1 X161.936 Y121.965 E58.03009
G1 X165.052 Y116.569 E58.26635
G1 X161.936 Y111.173 E58.50261
G1 X156.371 Y111.173 E58.71361
G0 F1350 X155.706 Y111.173
G0 F7500 X155.506 Y111.519
G1 F1500 E52.71361
G0 F7500 X128.787 Y148
;TYPE:WALL-INNER
G1 F1500 E58.71361
G1 X172.5 Y148 E60.45829
G1 X172.5 Y88 E62.85302
G1 X155.006 Y88 E63.55125
G1 X128.601 Y88 E64.60513
G1 X128.726 Y87.671 E64.61917
G1 X128.807 Y87 E64.64615
G1 X128.726 Y86.329 E64.67313
G1 X128.486 Y85.695 E64.70018
G1 X128.1 Y85.138 E64.72723
G1 X127.594 Y84.689 E64.75423
G1 X126.995 Y84.375 E64.78122
G1 X126.339 Y84.213 E64.80819
G1 X125.661 Y84.213 E64.83525
G1 X125.005 Y84.375 E64.86222
G1 X124.406 Y84.689 E64.88921
G1 X123.9 Y85.138 E64.91621
G1 X123.514 Y85.695 E64.94326
G1 X123.274 Y86.329 E64.97032
G1 X123.193 Y87 E64.99729
G1 X123.274 Y87.671 E65.02427
G1 X123.514 Y88.305 E65.05133
G1 X123.9 Y88.862 E65.07837
G1 X124.056 Y89 E65.08669
G1 X123 Y89 E65.12883
G1 X123 Y88 E65.16875
G1 X62.822 Y88 E67.57058
G1 X62.984 Y88.281 E67.58353
G1 X62.5 Y88.412 E67.60354
G1 X62.5 Y99.157 E68.03239
G1 X62.983 Y99.287 E68.05236
G1 X62.871 Y99.481 E68.0613
G1 X62.982 Y99.674 E68.07018
G1 X62.5 Y99.804 E68.09011
G1 X62.5 Y110.55 E68.51901
G1 X62.982 Y110.68 E68.53893
G1 X62.871 Y110.873 E68.54782
G1 X62.983 Y111.067 E68.55676
G1 X62.5 Y111.197 E68.57672
G1 X62.5 Y121.942 E69.00558
G1 X62.982 Y122.072 E69.0255
G1 X62.871 Y122.265 E69.03439
G1 X62.983 Y122.459 E69.04333
G1 X62.5 Y122.589 E69.06329
G1 X62.5 Y133.334 E69.49215
G1 X62.983 Y133.464 E69.51211
G1 X62.871 Y133.658 E69.52105
G1 X62.982 Y133.851 E69.52994
G1 X62.5 Y133.981 E69.54986
G1 X62.5 Y144.727 E69.97876
G1 X62.982 Y144.857 E69.99869
G1 X62.871 Y145.05 E70.00757
G1 X62.981 Y145.24 E70.01633
G1 X62.5 Y145.368 E70.0362
G1 X62.5 Y148 E70.14125
G1 X123 Y148 E72.55594
G1 X123 Y145 E72.67567
G1 X128 Y145 E72.87523
G1 X128 Y146.053 E72.91726
G1 X127.884 Y145.919 E72.92433
G1 X127.324 Y145.525 E72.95166
G1 X126.681 Y145.276 E72.97918
G1 X126 Y145.192 E73.00657
G1 X125.318 Y145.277 E73.034
G1 X124.676 Y145.523 E73.06144
G1 X124.114 Y145.919 E73.08888
G1 X123.673 Y146.43 E73.11582
G1 X123.407 Y146.928 E73.13835
G1 X123.266 Y147.402 E73.15809
G1 X123.198 Y147.947 E73.18001
G1 X123.275 Y148.681 E73.20947
G1 X123.533 Y149.339 E73.23768
G1 X123.938 Y149.907 E73.26552
G1 X124.472 Y150.355 E73.29334
G1 X125.097 Y150.659 E73.32108
G1 X125.779 Y150.799 E73.34887
G1 X126.475 Y150.767 E73.37668
G1 X127.142 Y150.564 E73.4045
G1 X127.737 Y150.206 E73.43222
G1 X128.228 Y149.711 E73.46004
G1 X128.579 Y149.109 E73.48786
G1 X128.711 Y148.656 E73.50669
G0 F1350 X128.773 Y148.439
G0 X128.787 Y148
G0 F7500 X128.4 Y147.6
G1 F1500 X143.271 Y147.6 E74.10022
G1 X143.503 Y147.2 E74.11868
G1 X143.734 Y147.6 E74.13712
G1 X154.176 Y147.6 E74.55388
G1 X154.406 Y147.201 E74.57226
G1 X154.638 Y147.6 E74.59068
G1 X172.1 Y147.6 E75.28763
G1 X172.1 Y88.4 E77.65043
G1 X162.636 Y88.4 E78.02816
G1 X162.52 Y88.601 E78.03742
G1 X162.404 Y88.4 E78.04668
G1 X155.237 Y88.4 E78.33273
G1 X155.006 Y88.801 E78.3512
G1 X154.773 Y88.4 E78.36971
G1 X135.505 Y88.4 E79.13874
G1 X135.273 Y88.801 E79.15723
G1 X135.041 Y88.4 E79.17572
G1 X128.4 Y88.4 E79.44078
G1 X128.4 Y89.4 E79.48069
G1 X122.6 Y89.4 E79.71218
G1 X122.6 Y88.4 E79.75209
G1 X115.773 Y88.4 E80.02457
G1 X115.541 Y88.801 E80.04306
G1 X115.309 Y88.4 E80.06155
G1 X96.041 Y88.4 E80.83058
G1 X95.809 Y88.801 E80.84907
G1 X95.577 Y88.4 E80.86756
G1 X76.309 Y88.4 E81.63659
G1 X76.077 Y88.801 E81.65508
G1 X75.845 Y88.4 E81.67357
G1 X63.514 Y88.4 E82.16573
G1 X63.59 Y88.532 E82.17181
G1 X62.9 Y88.718 E82.20033
G1 X62.9 Y98.851 E82.60476
G1 X63.589 Y99.037 E82.63324
G1 X63.333 Y99.481 E82.6537
G1 X63.589 Y99.924 E82.67412
G1 X62.9 Y100.11 E82.7026
G1 X62.9 Y110.244 E83.10707
G1 X63.589 Y110.43 E83.13556
G1 X63.333 Y110.873 E83.15598
G1 X63.589 Y111.317 E83.17643
G1 X62.9 Y111.503 E83.20492
G1 X62.9 Y121.636 E83.60935
G1 X63.589 Y121.822 E83.63783
G1 X63.333 Y122.265 E83.65825
G1 X63.589 Y122.709 E83.67871
G1 X62.9 Y122.895 E83.70719
G1 X62.9 Y133.028 E84.11162
G1 X63.589 Y133.214 E84.1401
G1 X63.333 Y133.658 E84.16056
G1 X63.589 Y134.101 E84.18098
G1 X62.9 Y134.287 E84.20947
G1 X62.9 Y144.421 E84.61394
G1 X63.589 Y144.607 E84.64242
G1 X63.333 Y145.05 E84.66284
G1 X63.589 Y145.493 E84.68326
G1 X62.9 Y145.676 E84.71171
G1 X62.9 Y147.6 E84.7885
G1 X103.807 Y147.6 E86.42119
G1 X104.039 Y147.2 E86.43965
G1 X104.27 Y147.6 E86.45808
G1 X122.6 Y147.6 E87.18967
G1 X122.6 Y144.6 E87.30941
G1 X128.4 Y144.6 E87.5409
G1 X128.4 Y146.935 E87.6341
G0 F1350 X128.4 Y147.6
G1 F1500 E81.6341
G0 F7500 X135.973 Y145.35
;TYPE:WALL-OUTER
G1 F1500 E87.6341
G1 X134.905 Y147.2 E87.71509
G1 X143.041 Y147.2 E88.02358
G1 X143.157 Y147 E88.03235
G1 X142.203 Y145.35 E88.10461
G1 X136.638 Y145.35 E88.31562
G0 F1350 X135.973 Y145.35
G0 F7500 X135.773 Y145.696
G0 X135.453 Y145.05
G1 F1500 X132.337 Y139.654 E88.55188
G1 X126.107 Y139.654 E88.7881
G1 X123.483 Y144.2 E88.98712
G1 X128.8 Y144.2 E89.18872
G1 X128.8 Y147.2 E89.30247
G1 X134.213 Y147.2 E89.50772
G1 X135.121 Y145.626 E89.57662
G0 F1350 X135.453 Y145.05
G0 F7500 X135.253 Y144.704
G1 F1500 E83.57662
G0 F7500 X124.385 Y146.218
;TYPE:WALL-INNER
G1 F1500 E89.57662
G1 X124.005 Y146.658 E89.59982
G1 X123.779 Y147.081 E89.61896
G1 X123.659 Y147.484 E89.63574
G1 X123.601 Y147.951 E89.65453
G1 X123.667 Y148.586 E89.68001
G1 X123.887 Y149.147 E89.70406
G1 X124.234 Y149.633 E89.72789
G1 X124.691 Y150.017 E89.75172
G1 X125.227 Y150.277 E89.77549
G1 X125.811 Y150.397 E89.79929
G1 X126.407 Y150.37 E89.8231
G1 X126.978 Y150.196 E89.84692
G1 X127.488 Y149.889 E89.87068
G1 X127.908 Y149.465 E89.8945
G1 X128.209 Y148.95 E89.91831
G1 X128.375 Y148.376 E89.94216
G1 X128.394 Y147.78 E89.96596
G1 X128.267 Y147.198 E89.98973
G1 X128 Y146.664 E90.01356
G1 X127.614 Y146.218 E90.0371
G1 X127.134 Y145.88 E90.06054
G1 X126.583 Y145.667 E90.08411
G1 X126 Y145.595 E90.10756
G1 X125.416 Y145.668 E90.13105
G1 X124.937 Y145.852 E90.15153
G0 F1350 X124.866 Y145.879
G0 X124.385 Y146.218
G0 F7500 X124.656 Y146.517
;TYPE:WALL-OUTER
G1 F1500 X124.337 Y146.886 E90.17002
G1 X124.151 Y147.234 E90.18499
G1 X124.052 Y147.566 E90.19812
G1 X124.004 Y147.955 E90.21298
G1 X124.059 Y148.491 E90.23341
G1 X124.241 Y148.955 E90.25231
G1 X124.53 Y149.359 E90.27114
G1 X124.91 Y149.679 E90.28998
G1 X125.356 Y149.895 E90.30877
G1 X125.843 Y149.995 E90.32762
G1 X126.339 Y149.973 E90.34645
G1 X126.814 Y149.828 E90.36528
G1 X127.239 Y149.572 E90.38409
G1 X127.588 Y149.219 E90.40291
G1 X127.839 Y148.791 E90.42172
G1 X127.977 Y148.313 E90.44059
G1 X127.993 Y147.817 E90.45941
