;FLAVOR:Marlin
;TIME:4046
;Filament used: 3.0089m
;Layer height: 0.28
;MINX:46.202
;MINY:37.055
;MINZ:0.28
;MAXX:188.79
;MAXY:197.944
;MAXZ:7.84
;Generated with Cura_SteamEngine 4.5.0
M140 S60
M105
M190 S60
M104 S205
M105
M109 S205
M82 ;absolute extrusion mode
; Ender 3 Custom Start G-code
G92 E0 ; Reset Extruder
G28 ; Home all axes
G1 Z2.0 F3000 ; Move Z Axis up little to prevent scratching of Heat Bed
G1 X0.1 Y20 Z0.3 F5000.0 ; Move to start position
G1 X0.1 Y200.0 Z0.3 F1500.0 E15 ; Draw the first line
G1 X0.4 Y200.0 Z0.3 F5000.0 ; Move to side a little
G1 X0.4 Y20 Z0.3 F1500.0 E30 ; Draw the second line
G92 E0 ; Reset Extruder
G1 Z2.0 F3000 ; Move Z Axis up little to prevent scratching of Heat Bed
G1 X5 Y20 Z0.3 F5000.0 ; Move over to prevent blob squish
G92 E0
G92 E0
G1 F1500 E-6
;LAYER_COUNT:28
;LAYER:0
M107
G0 F7500 X50.713 Y74.16 Z0.28
;TYPE:SKIRT
G1 F1500 E0
G1 X51.412 Y73.689 E0.03925
G1 X51.685 Y73.52 E0.0542
G1 X51.975 Y73.347 E0.06992
G1 X105.383 Y42.512 E2.94154
G1 X111.84 Y38.785 E3.2887
G1 X112.43 Y38.455 E3.32018
G1 X113.268 Y38.032 E3.36389
G1 X114.138 Y37.682 E3.40756
G1 X115.035 Y37.408 E3.45123
G1 X115.952 Y37.211 E3.4949
G1 X116.882 Y37.093 E3.53855
G1 X117.819 Y37.055 E3.58222
G1 X118.756 Y37.097 E3.62589
G1 X119.686 Y37.218 E3.66956
G1 X120.602 Y37.418 E3.71322
G1 X121.498 Y37.695 E3.75689
G1 X122.367 Y38.048 E3.80057
G1 X123.203 Y38.473 E3.84424
G1 X124 Y38.969 E3.88795
G1 X124.751 Y39.53 E3.9316
G1 X125.452 Y40.153 E3.97527
G1 X126.098 Y40.833 E4.01894
G1 X126.683 Y41.566 E4.06261
G1 X126.995 Y42.018 E4.08818
G1 X127.169 Y42.283 E4.10295
G1 X127.5 Y42.82 E4.13232
G1 X185.237 Y142.824 E9.5093
G1 X187.093 Y146.039 E9.68215
G1 X187.389 Y146.569 E9.71042
G1 X187.811 Y147.407 E9.75411
G1 X188.16 Y148.277 E9.79776
G1 X188.478 Y149.352 E9.84996
G1 X188.666 Y150.301 E9.89501
G1 X188.768 Y151.234 E9.93871
G1 X188.79 Y152.171 E9.98235
G1 X188.732 Y153.107 E10.02602
G1 X188.595 Y154.035 E10.0697
G1 X188.379 Y154.948 E10.11339
G1 X188.086 Y155.839 E10.15706
G1 X187.719 Y156.701 E10.20069
G1 X187.279 Y157.53 E10.24439
G1 X186.77 Y158.318 E10.28807
G1 X186.196 Y159.059 E10.33172
G1 X185.561 Y159.749 E10.37538
G1 X184.869 Y160.383 E10.41908
G1 X184.126 Y160.955 E10.46274
G1 X183.579 Y161.316 E10.49326
G1 X183.035 Y161.647 E10.52291
G1 X136.172 Y188.704 E13.04264
G1 X123.136 Y196.229 E13.74353
G1 X122.573 Y196.544 E13.77357
G1 X121.736 Y196.966 E13.81722
G1 X120.866 Y197.316 E13.86088
G1 X119.969 Y197.59 E13.90456
G1 X119.052 Y197.787 E13.94823
G1 X118.121 Y197.906 E13.99193
G1 X117.184 Y197.944 E14.0356
G1 X116.247 Y197.902 E14.07927
G1 X115.317 Y197.781 E14.12294
G1 X114.401 Y197.581 E14.1666
G1 X113.505 Y197.304 E14.21027
G1 X112.636 Y196.952 E14.25393
G1 X111.8 Y196.526 E14.29762
G1 X111.003 Y196.031 E14.34131
G1 X110.252 Y195.47 E14.38496
G1 X109.551 Y194.847 E14.42862
G1 X108.905 Y194.167 E14.4723
G1 X108.32 Y193.434 E14.51597
G1 X108.034 Y193.022 E14.53932
G1 X107.853 Y192.749 E14.55457
G1 X107.494 Y192.17 E14.5863
G1 X105.562 Y188.823 E14.76625
G1 X57.575 Y105.707 E19.2352
G1 X47.913 Y88.968 E20.13517
G1 X47.602 Y88.412 E20.16483
G1 X47.179 Y87.575 E20.2085
G1 X46.83 Y86.704 E20.25219
G1 X46.555 Y85.807 E20.29588
G1 X46.358 Y84.891 E20.33951
G1 X46.24 Y83.96 E20.38321
G1 X46.202 Y83.023 E20.42687
G1 X46.244 Y82.086 E20.47055
G1 X46.365 Y81.156 E20.51422
G1 X46.565 Y80.24 E20.55787
G1 X46.842 Y79.344 E20.60154
G1 X47.195 Y78.475 E20.64522
G1 X47.62 Y77.639 E20.68889
G1 X48.115 Y76.842 E20.73257
G1 X48.677 Y76.091 E20.77625
G1 X49.3 Y75.39 E20.81992
G1 X49.98 Y74.745 E20.86356
G1 X50.268 Y74.515 E20.88073
G0 F1350 X50.713 Y74.16
G0 F7500 X51.184 Y74.316
G1 F1500 X51.623 Y74.029 E20.90515
G1 X52.175 Y73.693 E20.93524
G1 X105.583 Y42.858 E23.80686
G1 X112.036 Y39.134 E24.15379
G1 X112.626 Y38.804 E24.18526
G1 X113.448 Y38.39 E24.22812
G1 X114.303 Y38.048 E24.271
G1 X115.184 Y37.783 E24.31384
G1 X116.086 Y37.595 E24.35674
G1 X117 Y37.485 E24.39961
G1 X117.92 Y37.456 E24.44247
G1 X118.839 Y37.506 E24.48532
G1 X119.751 Y37.636 E24.52822
G1 X120.647 Y37.845 E24.57106
G1 X121.523 Y38.13 E24.61396
G1 X122.37 Y38.491 E24.65683
G1 X123.182 Y38.923 E24.69966
G1 X123.955 Y39.425 E24.74258
G1 X124.68 Y39.991 E24.7854
G1 X125.354 Y40.619 E24.8283
G1 X125.971 Y41.302 E24.87116
G1 X126.661 Y42.237 E24.92527
G1 X126.835 Y42.502 E24.94003
G1 X127.154 Y43.02 E24.96836
G1 X184.891 Y143.024 E30.34533
G1 X186.744 Y146.234 E30.51792
G1 X187.04 Y146.764 E30.54619
G1 X187.453 Y147.587 E30.58907
G1 X187.794 Y148.442 E30.63193
G1 X188.089 Y149.446 E30.68065
G1 X188.273 Y150.378 E30.72489
G1 X188.371 Y151.294 E30.76779
G1 X188.389 Y152.214 E30.81063
G1 X188.327 Y153.133 E30.85352
G1 X188.186 Y154.043 E30.8964
G1 X187.966 Y154.937 E30.93927
G1 X187.67 Y155.808 E30.98211
G1 X187.299 Y156.651 E31.02499
G1 X186.856 Y157.458 E31.06786
G1 X186.345 Y158.224 E31.11074
G1 X185.769 Y158.942 E31.1536
G1 X185.133 Y159.608 E31.19648
G1 X184.442 Y160.216 E31.23934
G1 X183.369 Y160.976 E31.30056
G1 X182.835 Y161.301 E31.32967
G1 X135.972 Y188.358 E33.8494
G1 X122.941 Y195.88 E34.55002
G1 X122.378 Y196.195 E34.58006
G1 X121.555 Y196.609 E34.62295
G1 X120.7 Y196.95 E34.66582
G1 X119.819 Y197.216 E34.70867
G1 X118.918 Y197.404 E34.75153
G1 X118.004 Y197.514 E34.79439
G1 X117.084 Y197.543 E34.83725
G1 X116.164 Y197.493 E34.88016
G1 X115.253 Y197.363 E34.92301
G1 X114.356 Y197.155 E34.96588
G1 X113.481 Y196.869 E35.00875
G1 X112.634 Y196.509 E35.0516
G1 X111.821 Y196.077 E35.09447
G1 X111.049 Y195.575 E35.13735
G1 X110.323 Y195.009 E35.18021
G1 X109.649 Y194.381 E35.22311
G1 X109.032 Y193.698 E35.26597
G1 X108.367 Y192.801 E35.31796
G1 X108.186 Y192.528 E35.33322
G1 X107.841 Y191.97 E35.36376
G1 X105.909 Y188.623 E35.54372
G1 X57.922 Y105.507 E40.01267
G1 X48.262 Y88.773 E40.91239
G1 X47.951 Y88.217 E40.94205
G1 X47.537 Y87.394 E40.98495
G1 X47.196 Y86.539 E41.02781
G1 X46.93 Y85.658 E41.07066
G1 X46.742 Y84.757 E41.11352
G1 X46.632 Y83.842 E41.15643
G1 X46.603 Y82.922 E41.19929
G1 X46.653 Y82.003 E41.24215
G1 X46.783 Y81.092 E41.285
G1 X46.992 Y80.195 E41.32789
G1 X47.277 Y79.32 E41.37074
G1 X47.638 Y78.472 E41.41365
G1 X48.07 Y77.66 E41.45648
G1 X48.572 Y76.888 E41.49936
G1 X49.138 Y76.162 E41.54223
G1 X49.766 Y75.488 E41.58512
G1 X50.449 Y74.871 E41.62798
G1 X50.73 Y74.659 E41.64437
G0 F1350 X51.184 Y74.316
G0 F7500 X50.919 Y75.007
G1 F1500 X51.833 Y74.369 E41.69627
G1 X52.106 Y74.2 E41.71122
G1 X52.375 Y74.04 E41.7258
G1 X105.783 Y43.205 E44.59742
G1 X112.231 Y39.483 E44.9441
G1 X112.821 Y39.153 E44.97558
G1 X113.628 Y38.747 E45.01764
G1 X114.467 Y38.415 E45.05965
G1 X115.333 Y38.158 E45.10172
G1 X116.218 Y37.978 E45.14377
G1 X117.116 Y37.878 E45.18584
G1 X118.019 Y37.857 E45.2279
G1 X118.92 Y37.917 E45.26995
G1 X119.812 Y38.055 E45.31198
G1 X120.689 Y38.273 E45.35406
G1 X121.543 Y38.566 E45.3961
G1 X122.367 Y38.935 E45.43814
G1 X123.156 Y39.374 E45.48018
G1 X123.903 Y39.882 E45.52225
G1 X124.602 Y40.454 E45.56431
G1 X125.248 Y41.086 E45.60639
G1 X125.835 Y41.772 E45.64843
G1 X126.326 Y42.457 E45.68767
G1 X126.5 Y42.722 E45.70243
G1 X126.807 Y43.22 E45.72968
G1 X184.544 Y143.224 E51.10665
G1 X186.394 Y146.429 E51.27897
G1 X186.69 Y146.959 E51.30723
G1 X187.095 Y147.767 E51.34932
G1 X187.427 Y148.607 E51.39138
G1 X187.7 Y149.54 E51.43664
G1 X187.88 Y150.455 E51.48007
G1 X187.974 Y151.353 E51.52211
G1 X187.988 Y152.256 E51.56416
G1 X187.922 Y153.157 E51.60623
G1 X187.776 Y154.048 E51.64827
G1 X187.553 Y154.923 E51.69032
G1 X187.252 Y155.775 E51.73239
G1 X186.878 Y156.597 E51.77444
G1 X186.433 Y157.382 E51.81646
G1 X185.919 Y158.125 E51.85853
G1 X185.342 Y158.82 E51.90059
G1 X184.706 Y159.461 E51.94264
G1 X184.016 Y160.043 E51.98467
G1 X183.158 Y160.636 E52.03324
G1 X182.635 Y160.954 E52.06174
G1 X135.772 Y188.011 E54.58147
G1 X122.745 Y195.53 E55.28185
G1 X122.182 Y195.845 E55.31189
G1 X121.376 Y196.251 E55.35391
G1 X120.536 Y196.584 E55.39599
G1 X119.67 Y196.841 E55.43805
G1 X118.785 Y197.02 E55.4801
G1 X117.888 Y197.121 E55.52213
G1 X116.985 Y197.142 E55.56419
G1 X116.084 Y197.082 E55.60623
G1 X115.191 Y196.944 E55.64831
G1 X114.315 Y196.727 E55.69033
G1 X113.461 Y196.433 E55.73239
G1 X112.636 Y196.065 E55.77445
G1 X111.847 Y195.625 E55.81652
G1 X111.1 Y195.118 E55.85856
G1 X110.401 Y194.546 E55.90061
G1 X109.755 Y193.914 E55.9427
G1 X109.168 Y193.228 E55.98474
G1 X108.701 Y192.58 E56.02193
G1 X108.52 Y192.307 E56.03718
G1 X108.187 Y191.77 E56.06661
G1 X106.255 Y188.423 E56.24656
G1 X58.268 Y105.307 E60.71551
G1 X48.611 Y88.577 E61.615
G1 X48.3 Y88.021 E61.64466
G1 X47.894 Y87.214 E61.68673
G1 X47.562 Y86.375 E61.72874
G1 X47.305 Y85.509 E61.7708
G1 X47.125 Y84.624 E61.81286
G1 X47.025 Y83.726 E61.85493
G1 X47.004 Y82.824 E61.89694
G1 X47.064 Y81.922 E61.93904
G1 X47.202 Y81.03 E61.98107
G1 X47.42 Y80.153 E62.02314
G1 X47.713 Y79.299 E62.06519
G1 X48.082 Y78.475 E62.10723
G1 X48.521 Y77.686 E62.14927
G1 X49.029 Y76.939 E62.19133
G1 X49.601 Y76.24 E62.23339
G1 X50.232 Y75.595 E62.27541
G1 X50.486 Y75.377 E62.29099
G0 F1350 X50.919 Y75.007
G1 F1500 E56.29099
;MESH:lateral_derecho_v3.stl
G0 F7500 X100.023 Y149.773
;TYPE:WALL-INNER
G1 F1500 E62.29099
G1 X99.524 Y150.23 E62.3225
G1 X99.15 Y150.796 E62.35409
G1 X98.922 Y151.43 E62.38546
G1 X98.852 Y152.099 E62.41678
G1 X98.942 Y152.767 E62.44817
G1 X99.194 Y153.4 E62.4799
G1 X99.59 Y153.948 E62.51138
G1 X100.099 Y154.385 E62.54262
G1 X100.705 Y154.69 E62.57421
G1 X101.362 Y154.84 E62.60559
G1 X102.037 Y154.83 E62.63702
G1 X102.693 Y154.656 E62.66862
G1 X103.286 Y154.333 E62.70007
G1 X103.785 Y153.873 E62.73167
G1 X104.156 Y153.309 E62.7631
G1 X104.385 Y152.677 E62.7944
G1 X104.455 Y152.006 E62.82582
G1 X104.365 Y151.337 E62.85725
G1 X104.112 Y150.706 E62.8889
G1 X103.718 Y150.157 E62.92037
G1 X103.206 Y149.72 E62.95171
G1 X102.601 Y149.415 E62.98326
G1 X101.944 Y149.265 E63.01464
G1 X101.268 Y149.275 E63.04612
G1 X100.613 Y149.45 E63.07769
G1 X100.523 Y149.5 E63.08249
G0 F1350 X100.023 Y149.773
G0 F7500 X100.257 Y150.101
G1 F1500 X99.83 Y150.492 E63.10945
G1 X99.51 Y150.976 E63.13646
G1 X99.315 Y151.52 E63.16337
G1 X99.255 Y152.093 E63.1902
G1 X99.332 Y152.665 E63.21708
G1 X99.547 Y153.206 E63.24418
G1 X99.886 Y153.675 E63.27113
G1 X100.323 Y154.05 E63.29794
G1 X100.841 Y154.311 E63.32495
G1 X101.404 Y154.439 E63.35184
G1 X101.982 Y154.431 E63.37875
G1 X102.544 Y154.282 E63.40583
G1 X103.051 Y154.005 E63.43273
G1 X103.478 Y153.612 E63.45975
G1 X103.796 Y153.129 E63.48668
G1 X103.992 Y152.587 E63.51352
G1 X104.052 Y152.012 E63.54044
G1 X103.975 Y151.44 E63.56731
G1 X103.759 Y150.9 E63.59439
G1 X103.421 Y150.43 E63.62135
G1 X102.983 Y150.055 E63.6482
G1 X102.465 Y149.794 E63.67521
G1 X101.902 Y149.666 E63.70209
G1 X101.323 Y149.674 E63.72905
G1 X100.763 Y149.824 E63.75605
G1 X100.757 Y149.827 E63.75636
G0 F1350 X100.257 Y150.101
G0 F7500 X100.491 Y150.429
;TYPE:WALL-OUTER
G1 F1500 X100.136 Y150.754 E63.77765
G1 X99.87 Y151.156 E63.79898
G1 X99.708 Y151.609 E63.82026
G1 X99.658 Y152.087 E63.84152
G1 X99.722 Y152.563 E63.86276
G1 X99.9 Y153.012 E63.88413
G1 X100.182 Y153.402 E63.90542
G1 X100.547 Y153.715 E63.92669
G1 X100.977 Y153.932 E63.948
G1 X101.446 Y154.038 E63.96927
G1 X101.927 Y154.032 E63.99054
G1 X102.394 Y153.908 E64.01192
G1 X102.816 Y153.677 E64.0332
G1 X103.171 Y153.351 E64.05452
G1 X103.436 Y152.949 E64.07582
G1 X103.599 Y152.497 E64.09707
G1 X103.649 Y152.018 E64.11838
G1 X103.585 Y151.542 E64.13962
G1 X103.406 Y151.094 E64.16097
G1 X103.124 Y150.703 E64.18229
G1 X102.759 Y150.39 E64.20356
G1 X102.329 Y150.173 E64.22487
G1 X101.86 Y150.067 E64.24614
G1 X101.378 Y150.073 E64.26746
G1 X100.999 Y150.175 E64.28482
G0 F1350 X100.913 Y150.198
G0 X100.491 Y150.429
G0 F7500 X100.196 Y150.699
G0 X99.899 Y150.375
G1 F1500 E58.28482
G0 F7500 X99.038 Y137.524
;TYPE:WALL-INNER
G1 F1500 E64.28482
G1 X107.549 Y152.264 E65.07738
G1 X108.127 Y152.264 E65.10429
G1 X107.837 Y152.764 E65.13121
G1 X120.484 Y174.667 E66.30891
G1 X165.516 Y148.666 E68.73022
G1 X157.697 Y135.123 E69.45839
G1 X157.12 Y135.123 E69.48526
G1 X157.409 Y134.623 E69.51215
G1 X152.639 Y126.363 E69.9563
G1 X152.061 Y126.363 E69.98321
G1 X152.351 Y125.863 E70.01013
G1 X148.897 Y119.883 E70.33169
G1 X148.32 Y119.883 E70.35856
G1 X148.609 Y119.383 E70.38545
G1 X143.841 Y111.123 E70.82955
G1 X143.494 Y111.123 E70.84571
G1 X143.667 Y110.823 E70.86183
G1 X140.098 Y104.642 E71.19418
G1 X139.522 Y104.642 E71.221
G1 X139.81 Y104.142 E71.24787
G1 X135.041 Y95.883 E71.69195
G1 X134.695 Y95.883 E71.70807
G1 X134.868 Y95.583 E71.72419
G1 X131.299 Y89.402 E72.05654
G1 X130.723 Y89.402 E72.08336
G1 X131.011 Y88.902 E72.11023
G1 X126.243 Y80.642 E72.55433
G1 X125.664 Y80.642 E72.58129
G1 X125.954 Y80.142 E72.6082
G1 X122.5 Y74.162 E72.92977
G1 X121.923 Y74.162 E72.95663
G1 X122.212 Y73.662 E72.98353
G1 X114.516 Y60.334 E73.70017
G1 X113.493 Y60.925 E73.75518
G1 X69.484 Y86.334 E76.12145
G1 X72.353 Y91.303 E76.38863
G1 X72.931 Y91.303 E76.41554
G1 X72.641 Y91.803 E76.44246
G1 X81.152 Y106.543 E77.23501
G1 X81.73 Y106.543 E77.26193
G1 X81.44 Y107.043 E77.28884
G1 X94.546 Y129.742 E78.50933
G1 X95.123 Y129.742 E78.5362
G1 X94.834 Y130.242 E78.56309
G1 X98.75 Y137.024 E78.92775
G1 X99.328 Y137.024 E78.95467
G1 X99.323 Y137.031 E78.95507
G0 F1350 X99.038 Y137.524
G1 F1500 E72.95507
G0 F7500 X106.104 Y142.004
G1 F1500 E78.95507
G1 X104.095 Y145.482 E79.14209
G1 X107.78 Y151.864 E79.48525
G1 X111.796 Y151.864 E79.67225
G1 X114.643 Y146.934 E79.93734
G1 X111.796 Y142.004 E80.20243
G1 X106.674 Y142.004 E80.44093
G0 F1350 X106.104 Y142.004
G0 F7500 X106.335 Y142.404
;TYPE:WALL-OUTER
G1 F1500 X104.557 Y145.482 E80.59817
G1 X108.011 Y151.464 E80.90374
G1 X111.565 Y151.464 E81.06095
G1 X114.181 Y146.934 E81.29235
G1 X111.565 Y142.404 E81.52375
G1 X106.905 Y142.404 E81.72989
G0 F1350 X106.335 Y142.404
G0 F7500 X106.135 Y142.75
G0 X105.755 Y142.529
G1 F1500 E75.72989
G0 F7500 X99.848 Y136.924
;TYPE:WALL-INNER
G1 F1500 E81.72989
G1 X99.5 Y137.524 E81.76219
G1 X103.922 Y145.182 E82.17396
G1 X105.844 Y141.854 E82.35291
G1 X102.997 Y136.924 E82.618
G1 X100.418 Y136.924 E82.73809
G0 F1350 X99.848 Y136.924
G0 F7500 X100.078 Y137.324
;TYPE:WALL-OUTER
G1 F1500 X99.962 Y137.524 E82.74832
G1 X103.922 Y144.382 E83.09863
G1 X105.382 Y141.854 E83.22777
G1 X102.766 Y137.324 E83.45917
G1 X100.648 Y137.324 E83.55287
G0 F1350 X100.078 Y137.324
G0 F7500 X99.962 Y137.524
G0 X100.046 Y137.67
G0 X99.665 Y137.889
G1 F1500 E77.55287
G0 F7500 X106.104 Y131.844
;TYPE:WALL-INNER
G1 F1500 E83.55287
G1 X103.257 Y136.774 E83.81796
G1 X104.131 Y138.286 E83.89928
G1 X106.104 Y141.704 E84.08305
G1 X111.796 Y141.704 E84.34809
G1 X114.643 Y136.774 E84.61318
G1 X111.796 Y131.844 E84.87827
G1 X106.674 Y131.844 E85.11677
G0 F1350 X106.104 Y131.844
G0 F7500 X106.335 Y132.244
;TYPE:WALL-OUTER
G1 F1500 X103.719 Y136.774 E85.34817
G1 X104.477 Y138.086 E85.4152
G1 X106.335 Y141.304 E85.57958
G1 X111.565 Y141.304 E85.81093
G1 X114.181 Y136.774 E86.04233
G1 X111.565 Y132.244 E86.27374
G1 X106.905 Y132.244 E86.47988
G0 F1350 X106.335 Y132.244
G0 F7500 X106.135 Y132.59
G0 X105.755 Y132.369
G1 F1500 E80.47988
G0 F7500 X152.844 Y119.796
;TYPE:WALL-INNER
G1 F1500 E86.47988
G1 X152.615 Y120.429 E86.51122
G1 X152.545 Y121.099 E86.54259
G1 X152.635 Y121.767 E86.57397
G1 X152.888 Y122.4 E86.60572
G1 X153.284 Y122.948 E86.6372
G1 X153.793 Y123.385 E86.66844
G1 X154.399 Y123.69 E86.70003
G1 X155.056 Y123.84 E86.73141
G1 X155.731 Y123.83 E86.76284
G1 X156.386 Y123.656 E86.7944
G1 X156.979 Y123.333 E86.82584
G1 X157.478 Y122.874 E86.85741
G1 X157.85 Y122.309 E86.88891
G1 X158.078 Y121.677 E86.9202
G1 X158.148 Y121.006 E86.95161
G1 X158.058 Y120.338 E86.983
G1 X157.806 Y119.706 E87.01468
G1 X157.412 Y119.157 E87.04614
G1 X156.9 Y118.72 E87.07749
G1 X156.295 Y118.415 E87.10904
G1 X155.638 Y118.265 E87.14042
G1 X154.962 Y118.275 E87.1719
G1 X154.306 Y118.45 E87.20351
G1 X153.716 Y118.773 E87.23483
G1 X153.215 Y119.23 E87.26641
G1 X153.156 Y119.319 E87.27138
G0 F1350 X152.844 Y119.796
G0 F7500 X153.204 Y119.976
G1 F1500 X153.008 Y120.519 E87.29826
G1 X152.948 Y121.093 E87.32514
