;FLAVOR:Marlin
;TIME:5353
;Filament used: 3.53325m
;Layer height: 0.24
;MINX:12.5
;MINY:46.5
;MINZ:0.24
;MAXX:222.5
;MAXY:188.5
;MAXZ:7.92
;Generated with Cura_SteamEngine 4.5.0
M140 S50
M105
M190 S50
M104 S205
M105
M109 S205
M82 ;absolute extrusion mode
; Ender 3 Custom Start G-code
G92 E0 ; Reset Extruder
G28 ; Home all axes
G1 Z2.0 F3000 ; Move Z Axis up little to prevent scratching of Heat Bed
G1 X0.1 Y20 Z0.3 F5000.0 ; Move to start position
G1 X0.1 Y200.0 Z0.3 F1500.0 E15 ; Draw the first line
G1 X0.4 Y200.0 Z0.3 F5000.0 ; Move to side a little
G1 X0.4 Y20 Z0.3 F1500.0 E30 ; Draw the second line
G92 E0 ; Reset Extruder
G1 Z2.0 F3000 ; Move Z Axis up little to prevent scratching of Heat Bed
G1 X5 Y20 Z0.3 F5000.0 ; Move over to prevent blob squish
G92 E0
G92 E0
G1 F1500 E-6
;LAYER_COUNT:33
;LAYER:0
M107
M204 S500
M205 X20 Y20
G0 F7500 X25.412 Y47.759 Z0.24
;TYPE:SKIRT
G1 F1500 E0
G1 X26.261 Y47.361 E0.03742
G1 X27.141 Y47.036 E0.07487
G1 X28.045 Y46.788 E0.11228
G1 X28.968 Y46.618 E0.14974
G1 X30.167 Y46.515 E0.19777
G1 X30.494 Y46.505 E0.21083
G1 X30.83 Y46.5 E0.22424
G1 X203.793 Y46.5 E7.12757
G1 X203.951 Y46.501 E7.13387
G1 X204.649 Y46.511 E7.16173
G1 X205.585 Y46.565 E7.19915
G1 X206.513 Y46.697 E7.23656
G1 X207.427 Y46.909 E7.27401
G1 X208.319 Y47.198 E7.31144
G1 X209.184 Y47.561 E7.34888
G1 X210.014 Y47.997 E7.3863
G1 X211.137 Y48.744 E7.44013
G1 X213.17 Y50.285 E7.54195
G1 X215.208 Y51.747 E7.64205
G1 X217.627 Y53.376 E7.75845
G1 X218.381 Y53.933 E7.79586
G1 X219.086 Y54.552 E7.83331
G1 X219.736 Y55.228 E7.87074
G1 X220.325 Y55.958 E7.90818
G1 X220.85 Y56.735 E7.9456
G1 X221.307 Y57.554 E7.98304
G1 X221.693 Y58.409 E8.02048
G1 X222.004 Y59.293 E8.05788
G1 X222.239 Y60.201 E8.09531
G1 X222.396 Y61.126 E8.13276
G1 X222.466 Y61.901 E8.16382
G1 X222.484 Y62.231 E8.17701
G1 X222.5 Y62.83 E8.20093
G1 X222.5 Y172.564 E12.58065
G1 X222.499 Y172.715 E12.58667
G1 X222.489 Y173.442 E12.61569
G1 X222.436 Y174.379 E12.65315
G1 X222.304 Y175.307 E12.69056
G1 X222.093 Y176.221 E12.728
G1 X221.804 Y177.113 E12.76542
G1 X221.441 Y177.978 E12.80286
G1 X221.006 Y178.809 E12.8403
G1 X220.501 Y179.599 E12.87772
G1 X219.931 Y180.344 E12.91516
G1 X219.3 Y181.038 E12.9526
G1 X218.611 Y181.675 E12.99005
G1 X217.871 Y182.251 E13.02748
G1 X216.891 Y182.874 E13.07383
G1 X216.071 Y183.336 E13.11139
G1 X213.804 Y184.647 E13.21591
G1 X211.601 Y186.005 E13.3192
G1 X210.427 Y186.756 E13.37483
G1 X209.616 Y187.227 E13.41226
G1 X208.768 Y187.627 E13.44968
G1 X207.888 Y187.954 E13.48715
G1 X206.985 Y188.205 E13.52456
G1 X206.063 Y188.377 E13.56199
G1 X204.866 Y188.483 E13.60995
G1 X204.536 Y188.494 E13.62313
G1 X204.17 Y188.5 E13.63774
G1 X31.207 Y188.5 E20.54107
G1 X31.051 Y188.499 E20.54729
G1 X30.348 Y188.489 E20.57535
G1 X29.411 Y188.436 E20.61281
G1 X28.483 Y188.303 E20.65023
G1 X27.569 Y188.091 E20.68768
G1 X26.677 Y187.803 E20.72509
G1 X25.812 Y187.439 E20.76255
G1 X24.606 Y186.775 E20.81749
G1 X22.26 Y185.285 E20.92842
G1 X20.075 Y183.982 E21.02995
G1 X18.418 Y183.056 E21.10571
G1 X18.014 Y182.823 E21.12433
G1 X17.223 Y182.32 E21.16174
G1 X16.477 Y181.752 E21.19916
G1 X15.782 Y181.122 E21.2366
G1 X15.143 Y180.435 E21.27405
G1 X14.565 Y179.696 E21.31149
G1 X14.052 Y178.911 E21.34892
G1 X13.608 Y178.085 E21.38635
G1 X13.236 Y177.224 E21.42379
G1 X12.939 Y176.335 E21.4612
G1 X12.718 Y175.423 E21.49865
G1 X12.576 Y174.496 E21.53608
G1 X12.515 Y173.633 E21.57061
G1 X12.505 Y173.309 E21.58355
G1 X12.5 Y172.97 E21.59708
G1 X12.5 Y63.173 E25.97931
G1 X12.501 Y63.007 E25.98594
G1 X12.511 Y62.343 E26.01244
G1 X12.565 Y61.407 E26.04986
G1 X12.699 Y60.479 E26.08729
G1 X12.911 Y59.565 E26.12474
G1 X13.201 Y58.673 E26.16217
G1 X13.565 Y57.809 E26.19959
G1 X14.001 Y56.979 E26.23701
G1 X14.507 Y56.189 E26.27445
G1 X15.078 Y55.445 E26.31189
G1 X15.71 Y54.752 E26.34932
G1 X16.399 Y54.116 E26.38674
G1 X17.313 Y53.421 E26.43257
G1 X18.308 Y52.745 E26.48058
G1 X18.678 Y52.503 E26.49823
G1 X20.724 Y51.082 E26.59765
G1 X23.037 Y49.371 E26.71248
G1 X23.831 Y48.765 E26.75235
G1 X24.6 Y48.228 E26.78978
G1 X24.836 Y48.091 E26.80067
G0 F1350 X25.412 Y47.759
G0 F7500 X25.627 Y48.098
G1 F1500 X26.462 Y47.71 E26.83742
G1 X27.328 Y47.397 E26.87418
G1 X28.217 Y47.159 E26.91091
G1 X29.124 Y47 E26.94766
G1 X30.179 Y46.915 E26.9899
G1 X30.83 Y46.9 E27.01589
G1 X203.793 Y46.9 E33.91922
G1 X203.945 Y46.901 E33.92529
G1 X204.643 Y46.911 E33.95315
G1 X205.562 Y46.964 E33.98989
G1 X206.473 Y47.097 E34.02663
G1 X207.369 Y47.308 E34.06337
G1 X208.243 Y47.596 E34.1001
G1 X209.09 Y47.959 E34.13688
G1 X209.901 Y48.394 E34.17361
G1 X210.895 Y49.063 E34.22143
G1 X212.934 Y50.609 E34.32356
G1 X214.98 Y52.076 E34.42404
G1 X217.403 Y53.708 E34.54064
G1 X218.144 Y54.255 E34.5774
G1 X218.834 Y54.864 E34.61413
G1 X219.469 Y55.531 E34.65089
G1 X220.043 Y56.25 E34.68761
G1 X220.553 Y57.017 E34.72437
G1 X220.995 Y57.824 E34.7611
G1 X221.365 Y58.668 E34.79788
G1 X221.66 Y59.54 E34.83462
G1 X221.879 Y60.434 E34.87135
G1 X222.019 Y61.344 E34.9081
G1 X222.066 Y61.923 E34.93129
G1 X222.084 Y62.253 E34.94448
G1 X222.1 Y62.83 E34.96752
G1 X222.1 Y172.564 E39.34724
G1 X222.099 Y172.71 E39.35306
G1 X222.089 Y173.437 E39.38208
G1 X222.036 Y174.356 E39.41882
G1 X221.904 Y175.267 E39.45556
G1 X221.693 Y176.163 E39.4923
G1 X221.406 Y177.038 E39.52906
G1 X221.043 Y177.884 E39.5658
G1 X220.609 Y178.696 E39.60255
G1 X220.105 Y179.467 E39.63931
G1 X219.537 Y180.191 E39.67604
G1 X218.908 Y180.863 E39.71278
G1 X218.223 Y181.478 E39.74952
G1 X217.487 Y182.031 E39.78626
G1 X216.695 Y182.525 E39.82352
G1 X215.883 Y182.983 E39.86072
G1 X213.589 Y184.31 E39.9665
G1 X211.398 Y185.66 E40.06921
G1 X210.211 Y186.419 E40.12545
G1 X209.415 Y186.881 E40.16218
G1 X208.581 Y187.272 E40.19894
G1 X207.717 Y187.589 E40.23567
G1 X206.828 Y187.83 E40.27244
G1 X205.922 Y187.993 E40.30918
G1 X204.853 Y188.083 E40.352
G1 X204.523 Y188.094 E40.36517
G1 X204.17 Y188.1 E40.37926
G1 X31.207 Y188.1 E47.28259
G1 X31.056 Y188.099 E47.28862
G1 X30.353 Y188.089 E47.31668
G1 X29.434 Y188.036 E47.35342
G1 X28.523 Y187.903 E47.39017
G1 X27.627 Y187.692 E47.4269
G1 X26.753 Y187.404 E47.46363
G1 X25.906 Y187.041 E47.50041
G1 X24.821 Y186.438 E47.54996
G1 X22.449 Y184.931 E47.66212
G1 X20.295 Y183.647 E47.7622
G1 X18.618 Y182.709 E47.8389
G1 X18.214 Y182.476 E47.85751
G1 X17.437 Y181.982 E47.89426
G1 X16.706 Y181.422 E47.93101
G1 X16.027 Y180.801 E47.96774
G1 X15.404 Y180.124 E48.00446
G1 X14.842 Y179.395 E48.0412
G1 X14.345 Y178.619 E48.07798
G1 X13.917 Y177.804 E48.11472
G1 X13.562 Y176.955 E48.15144
G1 X13.282 Y176.078 E48.18819
G1 X13.079 Y175.18 E48.22493
G1 X12.955 Y174.267 E48.26171
G1 X12.915 Y173.621 E48.28754
G1 X12.905 Y173.297 E48.30048
G1 X12.9 Y172.97 E48.31353
G1 X12.9 Y63.173 E52.69577
G1 X12.901 Y63.013 E52.70215
G1 X12.911 Y62.349 E52.72866
G1 X12.965 Y61.43 E52.7654
G1 X13.098 Y60.519 E52.80215
G1 X13.31 Y59.623 E52.83889
G1 X13.599 Y58.749 E52.87564
G1 X13.963 Y57.903 E52.91239
G1 X14.398 Y57.092 E52.94912
G1 X14.903 Y56.322 E52.98588
G1 X15.472 Y55.599 E53.0226
G1 X16.102 Y54.927 E53.05936
G1 X16.788 Y54.313 E53.09611
G1 X17.538 Y53.751 E53.13351
G1 X18.526 Y53.08 E53.18118
G1 X18.919 Y52.823 E53.19992
G1 X20.961 Y51.404 E53.29917
G1 X23.226 Y49.729 E53.4116
G1 X24.073 Y49.083 E53.45412
G1 X24.829 Y48.557 E53.49088
G1 X25.051 Y48.429 E53.50111
G0 F1350 X25.627 Y48.098
G0 F7500 X25.842 Y48.437
G1 F1500 X26.662 Y48.061 E53.53711
G1 X27.513 Y47.758 E53.57317
G1 X28.388 Y47.532 E53.60923
G1 X29.278 Y47.384 E53.64524
G1 X30.191 Y47.315 E53.68179
G1 X30.83 Y47.3 E53.7073
G1 X203.793 Y47.3 E60.61063
G1 X203.939 Y47.301 E60.61645
G1 X204.637 Y47.311 E60.64431
G1 X205.539 Y47.364 E60.68038
G1 X206.432 Y47.496 E60.71641
G1 X207.31 Y47.707 E60.75245
G1 X208.166 Y47.995 E60.78849
G1 X208.993 Y48.357 E60.82452
G1 X209.785 Y48.792 E60.86059
G1 X210.653 Y49.382 E60.90248
G1 X212.681 Y50.92 E61.00406
G1 X214.753 Y52.406 E61.10583
G1 X217.18 Y54.04 E61.22261
G1 X217.906 Y54.577 E61.25865
G1 X218.581 Y55.176 E61.29467
G1 X219.201 Y55.833 E61.33072
G1 X219.761 Y56.542 E61.36678
G1 X220.255 Y57.297 E61.40279
G1 X220.681 Y58.094 E61.43886
G1 X221.035 Y58.925 E61.47491
G1 X221.314 Y59.784 E61.51096
G1 X221.515 Y60.664 E61.54699
G1 X221.667 Y61.944 E61.59843
G1 X221.685 Y62.274 E61.61162
G1 X221.7 Y62.83 E61.63382
G1 X221.7 Y172.564 E66.01354
G1 X221.689 Y173.431 E66.04815
G1 X221.637 Y174.333 E66.08421
G1 X221.505 Y175.226 E66.12024
G1 X221.294 Y176.105 E66.15632
G1 X221.007 Y176.961 E66.19235
G1 X220.645 Y177.788 E66.22839
G1 X220.211 Y178.58 E66.26443
G1 X219.709 Y179.331 E66.30048
G1 X219.143 Y180.034 E66.33651
G1 X218.516 Y180.685 E66.37258
G1 X217.835 Y181.277 E66.4086
G1 X217.104 Y181.807 E66.44463
G1 X216.498 Y182.177 E66.47297
G1 X215.618 Y182.673 E66.51329
G1 X213.385 Y183.965 E66.61626
G1 X211.223 Y185.298 E66.71763
G1 X209.996 Y186.082 E66.77574
G1 X209.214 Y186.534 E66.81179
G1 X208.395 Y186.916 E66.84786
G1 X207.546 Y187.223 E66.8839
G1 X206.673 Y187.455 E66.91995
G1 X205.783 Y187.608 E66.95599
G1 X204.84 Y187.683 E66.99375
G1 X204.51 Y187.694 E67.00693
G1 X204.17 Y187.7 E67.0205
G1 X31.207 Y187.7 E73.92383
G1 X31.062 Y187.699 E73.92961
G1 X30.359 Y187.689 E73.95767
G1 X29.457 Y187.636 E73.99374
G1 X28.564 Y187.504 E74.02977
G1 X27.686 Y187.293 E74.06581
G1 X26.83 Y187.005 E74.10185
G1 X26.003 Y186.643 E74.13788
G1 X25.035 Y186.1 E74.18218
G1 X22.672 Y184.599 E74.29391
G1 X20.489 Y183.297 E74.39536
G1 X18.818 Y182.363 E74.47177
G1 X18.414 Y182.13 E74.49038
G1 X17.653 Y181.644 E74.52642
G1 X16.937 Y181.094 E74.56245
G1 X16.273 Y180.482 E74.5985
G1 X15.665 Y179.813 E74.63458
G1 X15.119 Y179.094 E74.67061
G1 X14.639 Y178.329 E74.70665
G1 X14.229 Y177.525 E74.74268
G1 X13.891 Y176.687 E74.77874
G1 X13.628 Y175.823 E74.81479
G1 X13.444 Y174.939 E74.85083
G1 X13.315 Y173.609 E74.90416
G1 X13.3 Y172.97 E74.92967
G1 X13.3 Y63.173 E79.3119
G1 X13.301 Y63.019 E79.31805
G1 X13.311 Y62.355 E79.34456
G1 X13.365 Y61.454 E79.38058
G1 X13.498 Y60.561 E79.41662
G1 X13.709 Y59.683 E79.45266
G1 X13.998 Y58.827 E79.48872
G1 X14.361 Y58 E79.52476
G1 X14.795 Y57.208 E79.56081
G1 X15.299 Y56.458 E79.59687
G1 X15.866 Y55.756 E79.63289
G1 X16.493 Y55.106 E79.66893
G1 X17.176 Y54.514 E79.70501
G1 X17.764 Y54.082 E79.73413
G1 X18.745 Y53.415 E79.78148
G1 X19.12 Y53.17 E79.79936
G1 X21.22 Y51.711 E79.90141
G1 X23.456 Y50.057 E80.01242
G1 X24.316 Y49.401 E80.05559
G1 X25.057 Y48.885 E80.09163
G1 X25.264 Y48.766 E80.10116
G0 F1350 X25.842 Y48.437
G1 F1500 E74.10116
;MESH:base_panal.stl
G0 F7500 X180.857 Y136.185
;TYPE:WALL-OUTER
G1 F1500 E80.10116
G1 X183.973 Y141.581 E80.33742
G1 X190.204 Y141.581 E80.57368
G1 X190.621 Y140.857 E80.60536
G1 X193.319 Y136.185 E80.80992
G1 X190.204 Y130.788 E81.0462
G1 X183.973 Y130.788 E81.28245
G1 X181.189 Y135.61 E81.49357
G0 F1350 X180.857 Y136.185
G0 F7500 X181.057 Y136.531
G1 F1500 E75.49357
G0 F7500 X203.016 Y143.773
;TYPE:WALL-INNER
G1 F1500 E81.49357
G1 X203.5 Y142.936 E81.53216
G1 X203.5 Y140.826 E81.61638
G1 X203.016 Y139.989 E81.65497
G1 X203.5 Y139.859 E81.67497
G1 X203.5 Y132.511 E81.96824
G1 X203.016 Y132.381 E81.98824
G1 X203.5 Y131.544 E82.02683
G1 X203.5 Y129.433 E82.11109
G1 X203.016 Y128.596 E82.14968
G1 X203.5 Y128.466 E82.16968
G1 X203.5 Y121.118 E82.46295
G1 X203.016 Y120.988 E82.48296
G1 X203.5 Y120.151 E82.52155
G1 X203.5 Y118.041 E82.60576
G1 X203.016 Y117.204 E82.64435
G1 X203.5 Y117.074 E82.66435
G1 X203.5 Y109.721 E82.95783
G1 X203.018 Y109.593 E82.97773
G1 X203.5 Y108.759 E83.01618
G1 X203.5 Y106.649 E83.10039
G1 X203.016 Y105.812 E83.13898
G1 X203.5 Y105.682 E83.15898
G1 X203.5 Y98.334 E83.45226
G1 X203.016 Y98.204 E83.47226
G1 X203.5 Y97.367 E83.51085
G1 X203.5 Y95.256 E83.59511
G1 X203.016 Y94.419 E83.63369
G1 X203.5 Y94.289 E83.6537
G1 X203.5 Y86.941 E83.94697
G1 X203.016 Y86.811 E83.96697
G1 X203.5 Y85.974 E84.00556
G1 X203.5 Y83.864 E84.08978
G1 X203.016 Y83.027 E84.12837
G1 X203.5 Y82.897 E84.14837
G1 X203.5 Y75.549 E84.44164
G1 X203.016 Y75.419 E84.46165
G1 X203.5 Y74.582 E84.50024
G1 X203.5 Y72.472 E84.58445
G1 X203.016 Y71.635 E84.62304
G1 X203.5 Y71.505 E84.64304
G1 X203.5 Y66.5 E84.8428
G1 X200.434 Y66.5 E84.96517
G1 X199.954 Y67.331 E85.00348
G1 X193.954 Y67.331 E85.24295
G1 X193.474 Y66.5 E85.28125
G1 X180.701 Y66.5 E85.79105
G1 X180.221 Y67.331 E85.82935
G1 X174.222 Y67.331 E86.06878
G1 X173.742 Y66.5 E86.10709
G1 X160.969 Y66.5 E86.61689
G1 X160.489 Y67.331 E86.65519
G1 X154.49 Y67.331 E86.89462
G1 X154.01 Y66.5 E86.93292
G1 X141.237 Y66.5 E87.44272
G1 X140.757 Y67.331 E87.48102
G1 X134.758 Y67.331 E87.72046
G1 X134.278 Y66.5 E87.75876
G1 X121.505 Y66.5 E88.26856
G1 X121.025 Y67.331 E88.30686
G1 X115.026 Y67.331 E88.54629
G1 X114.546 Y66.5 E88.58459
G1 X101.773 Y66.5 E89.09439
G1 X101.293 Y67.331 E89.1327
G1 X95.294 Y67.331 E89.37213
G1 X94.814 Y66.5 E89.41043
G1 X82.041 Y66.5 E89.92023
G1 X81.561 Y67.331 E89.95853
G1 X75.562 Y67.331 E90.19796
G1 X75.082 Y66.5 E90.23627
G1 X62.309 Y66.5 E90.74606
G1 X61.829 Y67.331 E90.78437
G1 X55.83 Y67.331 E91.0238
G1 X55.35 Y66.5 E91.0621
G1 X42.577 Y66.5 E91.5719
G1 X42.097 Y67.331 E91.6102
G1 X36.098 Y67.331 E91.84964
G1 X35.618 Y66.5 E91.88794
G1 X31.5 Y66.5 E92.0523
G1 X31.5 Y73.328 E92.32482
G1 X31.983 Y73.458 E92.34478
G1 X31.943 Y73.527 E92.34796
G1 X31.983 Y73.596 E92.35115
G1 X31.5 Y73.726 E92.37111
G1 X31.5 Y84.72 E92.8099
G1 X31.983 Y84.85 E92.82987
G1 X31.943 Y84.919 E92.83305
G1 X31.983 Y84.988 E92.83624
G1 X31.5 Y85.118 E92.8562
G1 X31.5 Y96.112 E93.29499
G1 X31.983 Y96.242 E93.31496
G1 X31.943 Y96.312 E93.31817
G1 X31.983 Y96.381 E93.32136
G1 X31.5 Y96.511 E93.34132
G1 X31.5 Y107.505 E93.78012
G1 X31.983 Y107.635 E93.80008
G1 X31.943 Y107.704 E93.80326
G1 X31.983 Y107.773 E93.80645
G1 X31.5 Y107.903 E93.82641
G1 X31.5 Y118.897 E94.2652
G1 X31.983 Y119.027 E94.28517
G1 X31.943 Y119.096 E94.28835
G1 X31.983 Y119.165 E94.29153
G1 X31.5 Y119.295 E94.3115
G1 X31.5 Y130.289 E94.75029
G1 X31.983 Y130.419 E94.77026
G1 X31.943 Y130.488 E94.77344
G1 X31.983 Y130.558 E94.77666
G1 X31.5 Y130.688 E94.79662
G1 X31.5 Y141.682 E95.23541
G1 X31.983 Y141.812 E95.25538
G1 X31.943 Y141.881 E95.25856
G1 X31.983 Y141.95 E95.26174
G1 X31.5 Y142.08 E95.28171
G1 X31.5 Y153.074 E95.7205
G1 X31.983 Y153.204 E95.74047
G1 X31.943 Y153.273 E95.74365
G1 X31.983 Y153.342 E95.74683
G1 X31.5 Y153.472 E95.7668
G1 X31.5 Y164.466 E96.20559
G1 X31.983 Y164.596 E96.22555
G1 X31.943 Y164.665 E96.22874
G1 X31.983 Y164.734 E96.23192
G1 X31.5 Y164.864 E96.25188
G1 X31.5 Y168.5 E96.397
G1 X201.895 Y168.5 E103.19784
G1 X203.5 Y165.721 E103.32592
G1 X203.5 Y163.61 E103.41018
G1 X203.016 Y162.773 E103.44877
G1 X203.5 Y162.643 E103.46877
G1 X203.5 Y155.295 E103.76204
G1 X203.016 Y155.165 E103.78205
G1 X203.5 Y154.328 E103.82064
G1 X203.5 Y152.218 E103.90485
G1 X203.016 Y151.381 E103.94344
G1 X203.5 Y151.251 E103.96344
G1 X203.5 Y144.067 E104.25017
G0 F1350 X203.5 Y143.903
G0 X203.016 Y143.773
G0 F7500 X203.1 Y144.209
G1 F1500 X202.41 Y144.023 E104.27869
G1 X203.1 Y142.829 E104.33373
G1 X203.1 Y140.933 E104.40941
G1 X202.41 Y139.739 E104.46445
G1 X203.1 Y139.553 E104.49297
G1 X203.1 Y132.817 E104.76182
G1 X202.41 Y132.631 E104.79034
G1 X203.1 Y131.437 E104.84538
G1 X203.1 Y129.54 E104.92109
G1 X202.41 Y128.346 E104.97613
G1 X203.1 Y128.16 E105.00466
G1 X203.1 Y121.424 E105.27351
G1 X202.41 Y121.238 E105.30203
G1 X203.1 Y120.044 E105.35707
G1 X203.1 Y118.148 E105.43274
G1 X202.41 Y116.954 E105.48778
G1 X203.1 Y116.768 E105.5163
G1 X203.1 Y110.029 E105.78527
G1 X202.41 Y109.846 E105.81376
G1 X203.1 Y108.652 E105.8688
G1 X203.1 Y106.756 E105.94448
G1 X202.41 Y105.562 E105.99952
G1 X203.1 Y105.376 E106.02804
G1 X203.1 Y98.64 E106.29689
G1 X202.41 Y98.454 E106.32541
G1 X203.1 Y97.26 E106.38045
G1 X203.1 Y95.363 E106.45616
G1 X202.41 Y94.169 E106.5112
G1 X203.1 Y93.983 E106.53973
G1 X203.1 Y87.247 E106.80858
G1 X202.41 Y87.061 E106.8371
G1 X203.1 Y85.867 E106.89214
G1 X203.1 Y83.971 E106.96781
G1 X202.41 Y82.777 E107.02285
G1 X203.1 Y82.591 E107.05137
G1 X203.1 Y75.855 E107.32022
G1 X202.41 Y75.669 E107.34874
G1 X203.1 Y74.475 E107.40379
