;FLAVOR:Marlin
;TIME:7635
;Filament used: 6.23939m
;Layer height: 0.28
;MINX:13.2
;MINY:46.7
;MINZ:0.28
;MAXX:221.8
;MAXY:188.3
;MAXZ:7.84
;Generated with Cura_SteamEngine 4.5.0
M140 S60
M105
M190 S60
M104 S205
M105
M109 S205
M82 ;absolute extrusion mode
; Ender 3 Custom Start G-code
G92 E0 ; Reset Extruder
G28 ; Home all axes
G1 Z2.0 F3000 ; Move Z Axis up little to prevent scratching of Heat Bed
G1 X0.1 Y20 Z0.3 F5000.0 ; Move to start position
G1 X0.1 Y200.0 Z0.3 F1500.0 E15 ; Draw the first line
G1 X0.4 Y200.0 Z0.3 F5000.0 ; Move to side a little
G1 X0.4 Y20 Z0.3 F1500.0 E30 ; Draw the second line
G92 E0 ; Reset Extruder
G1 Z2.0 F3000 ; Move Z Axis up little to prevent scratching of Heat Bed
G1 X5 Y20 Z0.3 F5000.0 ; Move over to prevent blob squish
G92 E0
G92 E0
G1 F1500 E-6
;LAYER_COUNT:28
;LAYER:0
M107
G0 F7500 X25.328 Y48.112 Z0.28
;TYPE:SKIRT
G1 F1500 E0
G1 X26.165 Y47.689 E0.04367
G1 X27.035 Y47.339 E0.08733
G1 X27.932 Y47.065 E0.13101
G1 X28.849 Y46.867 E0.17469
G1 X29.779 Y46.749 E0.21834
G1 X30.367 Y46.715 E0.24577
G1 X30.695 Y46.705 E0.26105
G1 X31.03 Y46.7 E0.27665
G1 X203.593 Y46.7 E8.31191
G1 X203.751 Y46.701 E8.31926
G1 X204.449 Y46.711 E8.35177
G1 X205.385 Y46.765 E8.39542
G1 X206.313 Y46.897 E8.43907
G1 X207.227 Y47.109 E8.48276
G1 X208.119 Y47.398 E8.52642
G1 X208.984 Y47.761 E8.5701
G1 X209.814 Y48.197 E8.61376
G1 X210.453 Y48.598 E8.64889
G1 X212.941 Y50.281 E8.78876
G1 X215.068 Y51.633 E8.90611
G1 X215.625 Y51.965 E8.93631
G1 X216.549 Y52.533 E8.98681
G1 X217.326 Y53.058 E9.03048
G1 X218.056 Y53.647 E9.07415
G1 X218.733 Y54.296 E9.11782
G1 X219.352 Y55 E9.16147
G1 X219.909 Y55.755 E9.20516
G1 X220.399 Y56.554 E9.2488
G1 X220.82 Y57.392 E9.29247
G1 X221.168 Y58.263 E9.33615
G1 X221.44 Y59.161 E9.37984
G1 X221.635 Y60.078 E9.42349
G1 X221.752 Y61.009 E9.46718
G1 X221.781 Y61.499 E9.49004
G1 X221.793 Y61.825 E9.50523
G1 X221.8 Y62.23 E9.52409
G1 X221.8 Y172.374 E14.65286
G1 X221.799 Y172.527 E14.65998
G1 X221.789 Y173.244 E14.69337
G1 X221.736 Y174.181 E14.73707
G1 X221.603 Y175.109 E14.78073
G1 X221.392 Y176.023 E14.8244
G1 X221.104 Y176.915 E14.86805
G1 X220.74 Y177.78 E14.91175
G1 X220.305 Y178.611 E14.95543
G1 X219.8 Y179.401 E14.99909
G1 X219.23 Y180.146 E15.04276
G1 X218.598 Y180.839 E15.08644
G1 X217.91 Y181.476 E15.1301
G1 X217.17 Y182.052 E15.17376
G1 X216.536 Y182.471 E15.20915
G1 X216.313 Y182.608 E15.22134
G1 X214.033 Y184.015 E15.34609
G1 X211.934 Y185.393 E15.46301
G1 X211.343 Y185.804 E15.49653
G1 X210.464 Y186.399 E15.54595
G1 X209.666 Y186.891 E15.58961
G1 X208.828 Y187.314 E15.63332
G1 X207.958 Y187.663 E15.67697
G1 X207.061 Y187.937 E15.72064
G1 X206.144 Y188.134 E15.76431
G1 X205.214 Y188.252 E15.80796
G1 X204.633 Y188.285 E15.83506
G1 X204.305 Y188.295 E15.85034
G1 X203.97 Y188.3 E15.86594
G1 X31.407 Y188.3 E23.9012
G1 X31.249 Y188.299 E23.90856
G1 X30.551 Y188.289 E23.94106
G1 X29.615 Y188.235 E23.98472
G1 X28.687 Y188.103 E24.02836
G1 X27.773 Y187.891 E24.07205
G1 X26.881 Y187.602 E24.11571
G1 X26.016 Y187.239 E24.1594
G1 X25.186 Y186.803 E24.20305
G1 X24.495 Y186.367 E24.2411
G1 X24.216 Y186.176 E24.25684
G1 X22.063 Y184.722 E24.37781
G1 X19.932 Y183.367 E24.4954
G1 X19.375 Y183.035 E24.5256
G1 X18.451 Y182.467 E24.5761
G1 X17.674 Y181.942 E24.61977
G1 X16.944 Y181.353 E24.66344
G1 X16.267 Y180.704 E24.70711
G1 X15.648 Y180 E24.75076
G1 X15.091 Y179.245 E24.79445
G1 X14.601 Y178.446 E24.83809
G1 X14.18 Y177.608 E24.88176
G1 X13.832 Y176.737 E24.92544
G1 X13.56 Y175.839 E24.96913
G1 X13.365 Y174.922 E25.01278
G1 X13.248 Y173.991 E25.05648
G1 X13.219 Y173.501 E25.07933
G1 X13.207 Y173.175 E25.09452
G1 X13.2 Y172.77 E25.11338
G1 X13.2 Y62.607 E30.24303
G1 X13.201 Y62.449 E30.25039
G1 X13.211 Y61.751 E30.2829
G1 X13.265 Y60.815 E30.32655
G1 X13.397 Y59.887 E30.3702
G1 X13.609 Y58.973 E30.41389
G1 X13.898 Y58.081 E30.45755
G1 X14.261 Y57.216 E30.50123
G1 X14.697 Y56.386 E30.54489
G1 X15.202 Y55.595 E30.58859
G1 X15.773 Y54.851 E30.63226
G1 X16.405 Y54.158 E30.67593
G1 X17.093 Y53.521 E30.71959
G1 X17.834 Y52.946 E30.76326
G1 X18.464 Y52.529 E30.79844
G1 X18.717 Y52.374 E30.81226
G1 X20.963 Y50.989 E30.93513
G1 X23.082 Y49.597 E31.05318
G1 X23.667 Y49.19 E31.08637
G1 X24.53 Y48.605 E31.13491
G1 X24.844 Y48.411 E31.1521
G0 F1350 X25.328 Y48.112
G0 F7500 X25.538 Y48.453
G1 F1500 X26.361 Y48.04 E31.19498
G1 X27.216 Y47.7 E31.23782
G1 X28.098 Y47.435 E31.2807
G1 X29 Y47.248 E31.3236
G1 X29.914 Y47.139 E31.36646
G1 X30.379 Y47.115 E31.38814
G1 X31.03 Y47.1 E31.41846
G1 X203.593 Y47.1 E39.45372
G1 X203.745 Y47.101 E39.4608
G1 X204.443 Y47.111 E39.4933
G1 X205.362 Y47.164 E39.53616
G1 X206.273 Y47.297 E39.57903
G1 X207.169 Y47.508 E39.6219
G1 X208.043 Y47.796 E39.66475
G1 X208.89 Y48.159 E39.70766
G1 X209.701 Y48.594 E39.75051
G1 X210.229 Y48.93 E39.77965
G1 X212.709 Y50.607 E39.91905
G1 X214.87 Y51.981 E40.0383
G1 X215.415 Y52.306 E40.06784
G1 X216.339 Y52.874 E40.11835
G1 X217.102 Y53.389 E40.16121
G1 X217.817 Y53.969 E40.20408
G1 X218.479 Y54.609 E40.24696
G1 X219.083 Y55.304 E40.28983
G1 X219.624 Y56.049 E40.33271
G1 X220.099 Y56.838 E40.37559
G1 X220.503 Y57.665 E40.41845
G1 X220.835 Y58.524 E40.46133
G1 X221.09 Y59.408 E40.50417
G1 X221.268 Y60.311 E40.54703
G1 X221.381 Y61.514 E40.60329
G1 X221.393 Y61.84 E40.61848
G1 X221.4 Y62.23 E40.63664
G1 X221.4 Y172.374 E45.76541
G1 X221.399 Y172.522 E45.7723
G1 X221.389 Y173.239 E45.80569
G1 X221.336 Y174.158 E45.84855
G1 X221.204 Y175.069 E45.89142
G1 X220.993 Y175.965 E45.93428
G1 X220.705 Y176.84 E45.97717
G1 X220.342 Y177.686 E46.02004
G1 X219.908 Y178.497 E46.06287
G1 X219.404 Y179.268 E46.10576
G1 X218.836 Y179.992 E46.14861
G1 X218.206 Y180.664 E46.1915
G1 X217.521 Y181.279 E46.23437
G1 X216.785 Y181.833 E46.27726
G1 X216.327 Y182.13 E46.30268
G1 X216.074 Y182.285 E46.3165
G1 X213.809 Y183.682 E46.44041
G1 X211.73 Y185.047 E46.55622
G1 X211.119 Y185.473 E46.5909
G1 X210.24 Y186.068 E46.64033
G1 X209.456 Y186.551 E46.68321
G1 X208.633 Y186.963 E46.72606
G1 X207.777 Y187.303 E46.76895
G1 X206.895 Y187.567 E46.81182
G1 X205.994 Y187.754 E46.85467
G1 X204.621 Y187.885 E46.91889
G1 X203.97 Y187.9 E46.94921
G1 X31.407 Y187.9 E54.98447
G1 X31.255 Y187.899 E54.99155
G1 X30.557 Y187.889 E55.02405
G1 X29.638 Y187.836 E55.06692
G1 X28.727 Y187.703 E55.10979
G1 X27.831 Y187.492 E55.15265
G1 X26.957 Y187.204 E55.1955
G1 X26.11 Y186.841 E55.23841
G1 X25.299 Y186.406 E55.28126
G1 X24.721 Y186.037 E55.31319
G1 X24.442 Y185.846 E55.32894
G1 X22.296 Y184.396 E55.44953
G1 X20.13 Y183.019 E55.56905
G1 X19.585 Y182.694 E55.5986
G1 X18.661 Y182.126 E55.6491
G1 X17.898 Y181.611 E55.69196
G1 X17.183 Y181.031 E55.73483
G1 X16.521 Y180.391 E55.77771
G1 X15.917 Y179.696 E55.82059
G1 X15.376 Y178.951 E55.86346
G1 X14.901 Y178.162 E55.90634
G1 X14.497 Y177.335 E55.9492
G1 X14.165 Y176.476 E55.99208
G1 X13.91 Y175.592 E56.03492
G1 X13.732 Y174.689 E56.07778
G1 X13.619 Y173.486 E56.13404
G1 X13.607 Y173.16 E56.14923
G1 X13.6 Y172.77 E56.1674
G1 X13.6 Y62.607 E61.29705
G1 X13.601 Y62.455 E61.30412
G1 X13.611 Y61.757 E61.33663
G1 X13.664 Y60.838 E61.37949
G1 X13.797 Y59.927 E61.42236
G1 X14.008 Y59.031 E61.46523
G1 X14.296 Y58.157 E61.50807
G1 X14.659 Y57.31 E61.55098
G1 X15.094 Y56.499 E61.59384
G1 X15.598 Y55.729 E61.63669
G1 X16.167 Y55.005 E61.67957
G1 X16.797 Y54.333 E61.72246
G1 X17.482 Y53.718 E61.76532
G1 X18.218 Y53.165 E61.80819
G1 X18.673 Y52.87 E61.83344
G1 X18.926 Y52.715 E61.84726
G1 X21.187 Y51.321 E61.97094
G1 X23.284 Y49.944 E62.08776
G1 X23.891 Y49.521 E62.12221
G1 X24.754 Y48.936 E62.17075
G1 X25.053 Y48.752 E62.1871
G0 F1350 X25.538 Y48.453
G0 F7500 X25.748 Y48.794
G1 F1500 X26.556 Y48.391 E62.22915
G1 X27.397 Y48.06 E62.27123
G1 X28.263 Y47.806 E62.31325
G1 X29.149 Y47.629 E62.35532
G1 X30.391 Y47.515 E62.4134
G1 X31.03 Y47.5 E62.44316
G1 X203.593 Y47.5 E70.47842
G1 X203.739 Y47.501 E70.48522
G1 X204.437 Y47.511 E70.51772
G1 X205.339 Y47.564 E70.5598
G1 X206.232 Y47.696 E70.60183
G1 X207.11 Y47.907 E70.64388
G1 X207.966 Y48.195 E70.68593
G1 X208.793 Y48.557 E70.72797
G1 X209.585 Y48.992 E70.77004
G1 X210.005 Y49.261 E70.79327
G1 X212.492 Y50.943 E70.93307
G1 X214.642 Y52.309 E71.05168
G1 X215.206 Y52.647 E71.0823
G1 X216.13 Y53.215 E71.1328
G1 X216.877 Y53.721 E71.17481
G1 X217.577 Y54.292 E71.21688
G1 X218.224 Y54.922 E71.25893
G1 X218.812 Y55.607 E71.30096
G1 X219.338 Y56.342 E71.34305
G1 X219.796 Y57.12 E71.38509
G1 X220.184 Y57.935 E71.42712
G1 X220.498 Y58.782 E71.46918
G1 X220.737 Y59.653 E71.51124
G1 X220.897 Y60.542 E71.5533
G1 X220.981 Y61.529 E71.59942
G1 X220.993 Y61.855 E71.61462
G1 X221 Y62.23 E71.63208
G1 X221 Y172.374 E76.76085
G1 X220.989 Y173.233 E76.80085
G1 X220.936 Y174.135 E76.84292
G1 X220.804 Y175.028 E76.88495
G1 X220.594 Y175.906 E76.92699
G1 X220.306 Y176.763 E76.96909
G1 X219.944 Y177.59 E77.01113
G1 X219.51 Y178.382 E77.05318
G1 X219.008 Y179.133 E77.09524
G1 X218.442 Y179.836 E77.13727
G1 X217.815 Y180.486 E77.17932
G1 X217.133 Y181.079 E77.2214
G1 X216.119 Y181.789 E77.27904
G1 X215.866 Y181.944 E77.29286
G1 X213.601 Y183.341 E77.41677
G1 X211.488 Y184.729 E77.53449
G1 X210.895 Y185.142 E77.56814
G1 X210.016 Y185.737 E77.61757
G1 X209.246 Y186.209 E77.65962
G1 X208.438 Y186.612 E77.70167
G1 X207.597 Y186.942 E77.74373
G1 X206.73 Y187.196 E77.7858
G1 X205.845 Y187.372 E77.82782
G1 X204.609 Y187.485 E77.88561
G1 X203.97 Y187.5 E77.91537
G1 X31.407 Y187.5 E85.95063
G1 X31.261 Y187.499 E85.95743
G1 X30.563 Y187.489 E85.98993
G1 X29.661 Y187.436 E86.03201
G1 X28.768 Y187.304 E86.07404
G1 X27.89 Y187.093 E86.11609
G1 X27.034 Y186.805 E86.15814
G1 X26.207 Y186.443 E86.20018
G1 X25.415 Y186.008 E86.24225
G1 X24.947 Y185.707 E86.26816
G1 X24.668 Y185.516 E86.28391
G1 X22.496 Y184.049 E86.40595
G1 X20.358 Y182.691 E86.52389
G1 X19.794 Y182.353 E86.55451
G1 X18.87 Y181.785 E86.60501
G1 X18.123 Y181.279 E86.64703
G1 X17.423 Y180.708 E86.68909
G1 X16.776 Y180.078 E86.73114
G1 X16.188 Y179.393 E86.77318
G1 X15.662 Y178.658 E86.81526
G1 X15.204 Y177.88 E86.8573
G1 X14.816 Y177.065 E86.89933
G1 X14.502 Y176.218 E86.94139
G1 X14.263 Y175.347 E86.98345
G1 X14.103 Y174.458 E87.02551
G1 X14.019 Y173.471 E87.07164
G1 X14.007 Y173.145 E87.08683
G1 X14 Y172.77 E87.10429
G1 X14 Y62.607 E92.23394
G1 X14.001 Y62.461 E92.24074
G1 X14.011 Y61.763 E92.27325
G1 X14.064 Y60.861 E92.31532
G1 X14.196 Y59.968 E92.35735
G1 X14.407 Y59.09 E92.3994
G1 X14.695 Y58.234 E92.44145
G1 X15.057 Y57.407 E92.48349
G1 X15.492 Y56.615 E92.52557
G1 X15.994 Y55.864 E92.56763
G1 X16.561 Y55.161 E92.60968
G1 X17.188 Y54.511 E92.65174
G1 X17.87 Y53.919 E92.69379
G1 X18.881 Y53.211 E92.75126
G1 X19.134 Y53.056 E92.76508
G1 X21.395 Y51.662 E92.88876
G1 X23.527 Y50.262 E93.00753
G1 X24.116 Y49.852 E93.04094
G1 X24.979 Y49.267 E93.08949
G1 X25.263 Y49.092 E93.10502
G0 F1350 X25.748 Y48.794
G1 F1500 E87.10502
;MESH:tapa_enrejillada_v3.stl
G0 F7500 X120.994 Y86.455
;TYPE:WALL-INNER
G1 F1500 E93.10502
G1 X123.841 Y91.385 E93.37011
G1 X129.533 Y91.385 E93.63516
G1 X132.38 Y86.455 E93.90025
G1 X129.533 Y81.525 E94.16534
G1 X123.841 Y81.525 E94.43038
G1 X121.279 Y85.962 E94.66895
G0 F1350 X120.994 Y86.455
G0 F7500 X121.456 Y86.455
;TYPE:WALL-OUTER
G1 F1500 X124.072 Y90.985 E94.90036
G1 X129.302 Y90.985 E95.13171
G1 X131.918 Y86.455 E95.36311
G1 X129.302 Y81.925 E95.59452
G1 X124.072 Y81.925 E95.82587
G1 X121.741 Y85.962 E96.03208
G0 F1350 X121.456 Y86.455
G0 F7500 X121.656 Y86.801
G0 X121.274 Y87.02
G1 F1500 E90.03208
G0 F7500 X120.994 Y96.615
;TYPE:WALL-INNER
G1 F1500 E96.03208
G1 X123.841 Y101.546 E96.29721
G1 X129.533 Y101.546 E96.56226
G1 X132.38 Y96.615 E96.82739
G1 X129.533 Y91.685 E97.09248
G1 X123.841 Y91.685 E97.35752
G1 X121.279 Y96.122 E97.5961
G0 F1350 X120.994 Y96.615
G0 F7500 X121.456 Y96.615
;TYPE:WALL-OUTER
G1 F1500 X124.072 Y101.146 E97.82754
G1 X129.302 Y101.146 E98.05889
G1 X131.918 Y96.615 E98.29033
G1 X129.302 Y92.085 E98.52173
G1 X124.072 Y92.085 E98.75309
G1 X121.741 Y96.122 E98.9593
G0 F1350 X121.456 Y96.615
G0 F7500 X121.656 Y96.961
G0 X121.274 Y97.18
G1 F1500 E92.9593
G0 F7500 X129.793 Y101.696
;TYPE:WALL-INNER
G1 F1500 E98.9593
G1 X132.64 Y106.626 E99.22439
G1 X138.332 Y106.626 E99.48943
G1 X141.179 Y101.696 E99.75452
G1 X138.332 Y96.765 E100.01965
G1 X132.64 Y96.765 E100.2847
G1 X130.078 Y101.203 E100.52331
G0 F1350 X129.793 Y101.696
G0 F7500 X130.255 Y101.696
;TYPE:WALL-OUTER
G1 F1500 X132.871 Y106.226 E100.75472
G1 X138.101 Y106.226 E100.98607
G1 X140.717 Y101.696 E101.21747
G1 X138.101 Y97.165 E101.44891
G1 X132.871 Y97.165 E101.68027
G1 X130.54 Y101.203 E101.88652
G0 F1350 X130.255 Y101.696
G0 F7500 X130.455 Y102.042
G0 X130.073 Y102.261
G1 F1500 E95.88652
G0 F7500 X138.592 Y106.776
;TYPE:WALL-INNER
G1 F1500 E101.88652
G1 X141.439 Y111.706 E102.15161
G1 X147.131 Y111.706 E102.41665
G1 X149.978 Y106.776 E102.68174
G1 X147.131 Y101.846 E102.94683
G1 X141.439 Y101.846 E103.21188
G1 X138.877 Y106.283 E103.45045
G0 F1350 X138.592 Y106.776
G0 F7500 X139.054 Y106.776
;TYPE:WALL-OUTER
G1 F1500 X141.67 Y111.306 E103.68185
G1 X146.9 Y111.306 E103.91321
G1 X149.516 Y106.776 E104.14461
G1 X146.9 Y102.246 E104.37601
G1 X141.67 Y102.246 E104.60737
G1 X139.339 Y106.283 E104.81358
G0 F1350 X139.054 Y106.776
G0 F7500 X139.254 Y107.122
G0 X138.872 Y107.341
G1 F1500 E98.81358
G0 F7500 X147.391 Y101.696
;TYPE:WALL-INNER
G1 F1500 E104.81358
G1 X150.238 Y106.626 E105.07867
G1 X155.93 Y106.626 E105.34371
G1 X158.777 Y101.696 E105.6088
G1 X155.93 Y96.765 E105.87393
G1 X150.238 Y96.765 E106.13898
G1 X147.676 Y101.203 E106.37759
G0 F1350 X147.391 Y101.696
G0 F7500 X147.853 Y101.696
;TYPE:WALL-OUTER
G1 F1500 X150.469 Y106.226 E106.60899
G1 X155.699 Y106.226 E106.84035
G1 X158.315 Y101.696 E107.07175
G1 X155.699 Y97.165 E107.30319
G1 X150.469 Y97.165 E107.53454
G1 X148.138 Y101.203 E107.7408
G0 F1350 X147.853 Y101.696
G0 F7500 X148.053 Y102.042
G0 X147.671 Y102.261
G1 F1500 E101.7408
G0 F7500 X147.391 Y111.856
;TYPE:WALL-INNER
G1 F1500 E107.7408
G1 X150.238 Y116.786 E108.00589
G1 X155.93 Y116.786 E108.27093
G1 X158.777 Y111.856 E108.53602
G1 X155.93 Y106.926 E108.80111
G1 X150.238 Y106.926 E109.06615
G1 X147.676 Y111.363 E109.30473
G0 F1350 X147.391 Y111.856
G0 F7500 X147.853 Y111.856
;TYPE:WALL-OUTER
G1 F1500 X150.469 Y116.386 E109.53613
G1 X155.699 Y116.386 E109.76748
G1 X158.315 Y111.856 E109.99889
G1 X155.699 Y107.326 E110.23029
G1 X150.469 Y107.326 E110.46164
G1 X148.138 Y111.363 E110.66786
G0 F1350 X147.853 Y111.856
G0 F7500 X148.053 Y112.202
G0 X147.671 Y112.421
G1 F1500 E104.66786
G0 F7500 X156.19 Y116.936
;TYPE:WALL-INNER
G1 F1500 E110.66786
G1 X159.037 Y121.866 E110.93295
G1 X164.729 Y121.866 E111.19799
G1 X167.576 Y116.936 E111.46308
G1 X164.729 Y112.006 E111.72817
G1 X159.037 Y112.006 E111.99321
G1 X156.475 Y116.443 E112.23179
G0 F1350 X156.19 Y116.936
G0 F7500 X156.652 Y116.936
;TYPE:WALL-OUTER
G1 F1500 X159.268 Y121.466 E112.46319
G1 X164.498 Y121.466 E112.69454
G1 X167.114 Y116.936 E112.92595
G1 X164.498 Y112.406 E113.15735
G1 X159.268 Y112.406 E113.3887
G1 X156.937 Y116.443 E113.59492
G0 F1350 X156.652 Y116.936
G0 F7500 X156.852 Y117.282
G0 X156.47 Y117.501
G1 F1500 E107.59492
G0 F7500 X156.19 Y106.776
;TYPE:WALL-INNER
G1 F1500 E113.59492
G1 X159.037 Y111.706 E113.86001
G1 X164.729 Y111.706 E114.12505
G1 X167.576 Y106.776 E114.39014
G1 X164.729 Y101.846 E114.65523
G1 X159.037 Y101.846 E114.92027
G1 X156.475 Y106.283 E115.15885
G0 F1350 X156.19 Y106.776
G0 F7500 X156.652 Y106.776
;TYPE:WALL-OUTER
G1 F1500 X159.268 Y111.306 E115.39025
G1 X164.498 Y111.306 E115.6216
G1 X167.114 Y106.776 E115.85301
G1 X164.498 Y102.246 E116.08441
G1 X159.268 Y102.246 E116.31576
G1 X156.937 Y106.283 E116.52198
G0 F1350 X156.652 Y106.776
G0 F7500 X156.852 Y107.122
G0 X156.47 Y107.341
G1 F1500 E110.52198
G0 F7500 X164.989 Y101.696
;TYPE:WALL-INNER
G1 F1500 E116.52198
G1 X167.836 Y106.626 E116.78707
G1 X173.528 Y106.626 E117.05211
G1 X176.375 Y101.696 E117.3172
G1 X173.528 Y96.765 E117.58233
G1 X167.836 Y96.765 E117.84737
G1 X165.274 Y101.203 E118.08599
G0 F1350 X164.989 Y101.696
G0 F7500 X165.451 Y101.696
;TYPE:WALL-OUTER
