;FLAVOR:Marlin
;TIME:4068
;Filament used: 3.00875m
;Layer height: 0.28
;MINX:46.202
;MINY:37.056
;MINZ:0.28
;MAXX:188.792
;MAXY:197.945
;MAXZ:7.84
;Generated with Cura_SteamEngine 4.5.0
M140 S60
M105
M190 S60
M104 S205
M105
M109 S205
M82 ;absolute extrusion mode
; Ender 3 Custom Start G-code
G92 E0 ; Reset Extruder
G28 ; Home all axes
G1 Z2.0 F3000 ; Move Z Axis up little to prevent scratching of Heat Bed
G1 X0.1 Y20 Z0.3 F5000.0 ; Move to start position
G1 X0.1 Y200.0 Z0.3 F1500.0 E15 ; Draw the first line
G1 X0.4 Y200.0 Z0.3 F5000.0 ; Move to side a little
G1 X0.4 Y20 Z0.3 F1500.0 E30 ; Draw the second line
G92 E0 ; Reset Extruder
G1 Z2.0 F3000 ; Move Z Axis up little to prevent scratching of Heat Bed
G1 X5 Y20 Z0.3 F5000.0 ; Move over to prevent blob squish
G92 E0
G92 E0
G1 F1500 E-6
;LAYER_COUNT:28
;LAYER:0
M107
G0 F7500 X50.713 Y74.16 Z0.28
;TYPE:SKIRT
G1 F1500 E0
G1 X51.395 Y73.699 E0.03833
G1 X51.646 Y73.543 E0.05209
G1 X51.953 Y73.36 E0.06873
G1 X98.832 Y46.295 E2.5893
G1 X111.881 Y38.762 E3.29089
G1 X112.428 Y38.456 E3.32008
G1 X113.265 Y38.033 E3.36375
G1 X114.135 Y37.684 E3.40739
G1 X115.032 Y37.409 E3.45108
G1 X115.949 Y37.213 E3.49474
G1 X116.879 Y37.094 E3.5384
G1 X117.816 Y37.056 E3.58207
G1 X118.753 Y37.098 E3.62574
G1 X119.683 Y37.219 E3.66941
G1 X120.6 Y37.419 E3.71312
G1 X121.496 Y37.696 E3.75679
G1 X122.365 Y38.049 E3.80046
G1 X123.201 Y38.474 E3.84413
G1 X123.997 Y38.969 E3.88778
G1 X124.749 Y39.53 E3.93146
G1 X125.45 Y40.153 E3.97513
G1 X126.095 Y40.834 E4.01881
G1 X126.68 Y41.567 E4.06248
G1 X126.961 Y41.97 E4.08536
G1 X127.141 Y42.241 E4.1005
G1 X127.504 Y42.827 E4.1326
G1 X185.237 Y142.824 E9.5092
G1 X187.096 Y146.046 E9.68241
G1 X187.391 Y146.575 E9.71062
G1 X187.813 Y147.412 E9.75427
G1 X188.161 Y148.283 E9.79794
G1 X188.413 Y149.098 E9.83766
G1 X188.623 Y150.043 E9.88274
G1 X188.747 Y150.973 E9.92643
G1 X188.792 Y151.91 E9.97011
G1 X188.756 Y152.847 E10.01377
G1 X188.641 Y153.778 E10.05745
G1 X188.447 Y154.695 E10.1011
G1 X188.175 Y155.593 E10.14479
G1 X187.828 Y156.464 E10.18844
G1 X187.408 Y157.303 E10.23213
G1 X186.918 Y158.103 E10.27582
G1 X186.362 Y158.858 E10.31948
G1 X185.744 Y159.563 E10.36313
G1 X185.067 Y160.212 E10.4068
G1 X184.338 Y160.802 E10.45047
G1 X183.553 Y161.333 E10.4946
G1 X183.022 Y161.654 E10.52349
G1 X129.618 Y192.487 E13.39491
G1 X123.16 Y196.215 E13.74213
G1 X122.57 Y196.545 E13.77361
G1 X121.732 Y196.968 E13.81732
G1 X120.862 Y197.318 E13.86098
G1 X119.965 Y197.592 E13.90466
G1 X119.048 Y197.789 E13.94833
G1 X118.118 Y197.907 E13.99198
G1 X117.181 Y197.945 E14.03565
G1 X116.244 Y197.903 E14.07932
G1 X115.314 Y197.782 E14.12299
G1 X114.398 Y197.582 E14.16665
G1 X113.502 Y197.305 E14.21032
G1 X112.633 Y196.952 E14.25399
G1 X111.797 Y196.527 E14.29766
G1 X111 Y196.031 E14.34138
G1 X110.249 Y195.47 E14.38502
G1 X109.548 Y194.847 E14.42869
G1 X108.902 Y194.167 E14.47237
G1 X108.317 Y193.434 E14.51604
G1 X107.991 Y192.961 E14.54279
G1 X107.812 Y192.687 E14.55803
G1 X107.494 Y192.17 E14.58629
G1 X105.562 Y188.823 E14.76624
G1 X57.575 Y105.707 E19.2352
G1 X47.913 Y88.968 E20.13516
G1 X47.602 Y88.412 E20.16482
G1 X47.179 Y87.575 E20.20849
G1 X46.83 Y86.704 E20.25219
G1 X46.555 Y85.807 E20.29587
G1 X46.358 Y84.891 E20.3395
G1 X46.24 Y83.96 E20.3832
G1 X46.202 Y83.023 E20.42686
G1 X46.244 Y82.086 E20.47054
G1 X46.365 Y81.156 E20.51421
G1 X46.565 Y80.24 E20.55787
G1 X46.842 Y79.344 E20.60154
G1 X47.195 Y78.475 E20.64521
G1 X47.62 Y77.639 E20.68888
G1 X48.115 Y76.842 E20.73257
G1 X48.677 Y76.091 E20.77625
G1 X49.3 Y75.39 E20.81991
G1 X49.98 Y74.745 E20.86356
G1 X50.268 Y74.515 E20.88072
G0 F1350 X50.713 Y74.16
G0 F7500 X51.184 Y74.316
G1 F1500 X51.607 Y74.039 E20.90426
G1 X51.858 Y73.883 E20.91802
G1 X52.153 Y73.706 E20.93404
G1 X99.032 Y46.641 E23.4546
G1 X112.076 Y39.111 E24.15593
G1 X112.623 Y38.805 E24.18511
G1 X113.445 Y38.391 E24.22797
G1 X114.3 Y38.05 E24.27083
G1 X115.182 Y37.784 E24.31373
G1 X116.083 Y37.596 E24.35659
G1 X116.997 Y37.486 E24.39945
G1 X117.917 Y37.457 E24.44231
G1 X118.836 Y37.507 E24.48517
G1 X119.748 Y37.637 E24.52806
G1 X120.645 Y37.845 E24.57094
G1 X121.52 Y38.131 E24.61381
G1 X122.367 Y38.491 E24.65666
G1 X123.18 Y38.924 E24.69955
G1 X123.952 Y39.425 E24.74241
G1 X124.678 Y39.992 E24.7853
G1 X125.351 Y40.619 E24.82813
G1 X125.968 Y41.303 E24.87102
G1 X126.628 Y42.191 E24.92254
G1 X126.808 Y42.462 E24.93769
G1 X127.158 Y43.027 E24.96864
G1 X184.891 Y143.024 E30.34524
G1 X186.747 Y146.24 E30.51814
G1 X187.042 Y146.769 E30.54634
G1 X187.455 Y147.592 E30.58922
G1 X187.795 Y148.448 E30.63211
G1 X188.026 Y149.201 E30.66878
G1 X188.232 Y150.13 E30.71309
G1 X188.352 Y151.043 E30.75597
G1 X188.392 Y151.962 E30.7988
G1 X188.352 Y152.882 E30.84168
G1 X188.232 Y153.795 E30.88456
G1 X188.034 Y154.694 E30.92743
G1 X187.758 Y155.572 E30.97028
G1 X187.407 Y156.424 E31.01319
G1 X186.984 Y157.241 E31.05603
G1 X186.491 Y158.019 E31.09892
G1 X185.933 Y158.751 E31.14178
G1 X185.313 Y159.432 E31.18466
G1 X184.636 Y160.056 E31.22753
G1 X183.908 Y160.619 E31.27039
G1 X183.344 Y160.992 E31.30187
G1 X182.822 Y161.308 E31.33028
G1 X129.417 Y192.141 E34.20174
G1 X122.964 Y195.866 E34.54869
G1 X122.374 Y196.196 E34.58017
G1 X121.552 Y196.61 E34.62302
G1 X120.697 Y196.952 E34.6659
G1 X119.816 Y197.217 E34.70874
G1 X118.914 Y197.405 E34.75164
G1 X118 Y197.515 E34.79451
G1 X117.08 Y197.544 E34.83737
G1 X116.161 Y197.494 E34.88023
G1 X115.249 Y197.364 E34.92312
G1 X114.353 Y197.155 E34.96596
G1 X113.477 Y196.87 E35.00886
G1 X112.63 Y196.509 E35.05173
G1 X111.818 Y196.077 E35.09456
G1 X111.045 Y195.575 E35.13748
G1 X110.32 Y195.009 E35.18031
G1 X109.646 Y194.381 E35.2232
G1 X109.029 Y193.698 E35.26606
G1 X108.326 Y192.742 E35.32132
G1 X108.147 Y192.468 E35.33656
G1 X107.841 Y191.97 E35.36377
G1 X105.909 Y188.623 E35.54372
G1 X57.922 Y105.507 E40.01268
G1 X48.262 Y88.773 E40.9124
G1 X47.951 Y88.217 E40.94206
G1 X47.537 Y87.394 E40.98496
G1 X47.196 Y86.539 E41.02782
G1 X46.93 Y85.658 E41.07067
G1 X46.742 Y84.757 E41.11353
G1 X46.632 Y83.842 E41.15644
G1 X46.603 Y82.922 E41.1993
G1 X46.653 Y82.003 E41.24216
G1 X46.783 Y81.092 E41.28501
G1 X46.992 Y80.195 E41.3279
G1 X47.277 Y79.32 E41.37075
G1 X47.638 Y78.472 E41.41366
G1 X48.07 Y77.66 E41.45649
G1 X48.572 Y76.888 E41.49937
G1 X49.138 Y76.162 E41.54223
G1 X49.766 Y75.488 E41.58513
G1 X50.449 Y74.871 E41.62799
G1 X50.73 Y74.659 E41.64438
G0 F1350 X51.184 Y74.316
G0 F7500 X50.919 Y75.007
G1 F1500 X51.818 Y74.379 E41.69544
G1 X52.353 Y74.052 E41.72464
G1 X99.232 Y46.987 E44.2452
G1 X112.271 Y39.46 E44.94625
G1 X112.818 Y39.154 E44.97544
G1 X113.625 Y38.749 E45.01748
G1 X114.465 Y38.416 E45.05956
G1 X115.33 Y38.159 E45.10158
G1 X116.216 Y37.979 E45.14367
G1 X117.113 Y37.879 E45.1857
G1 X118.016 Y37.858 E45.22776
G1 X118.917 Y37.918 E45.26981
G1 X119.809 Y38.056 E45.31184
G1 X120.686 Y38.273 E45.35391
G1 X121.54 Y38.567 E45.39596
G1 X122.365 Y38.935 E45.43803
G1 X123.154 Y39.375 E45.48009
G1 X123.9 Y39.883 E45.52212
G1 X124.599 Y40.455 E45.56417
G1 X125.245 Y41.086 E45.60622
G1 X125.832 Y41.772 E45.64826
G1 X126.295 Y42.413 E45.68508
G1 X126.475 Y42.684 E45.70023
G1 X126.811 Y43.227 E45.72997
G1 X184.544 Y143.224 E51.10657
G1 X186.397 Y146.435 E51.2792
G1 X186.692 Y146.964 E51.3074
G1 X187.097 Y147.772 E51.34949
G1 X187.428 Y148.612 E51.39153
G1 X187.64 Y149.304 E51.42523
G1 X187.841 Y150.216 E51.46871
G1 X187.956 Y151.112 E51.51078
G1 X187.992 Y152.014 E51.55281
G1 X187.947 Y152.916 E51.59486
G1 X187.823 Y153.811 E51.63694
G1 X187.62 Y154.691 E51.67899
G1 X187.34 Y155.549 E51.72101
G1 X186.986 Y156.38 E51.76307
G1 X186.559 Y157.176 E51.80514
G1 X186.063 Y157.931 E51.8472
G1 X185.503 Y158.639 E51.88923
G1 X184.882 Y159.295 E51.9313
G1 X184.206 Y159.893 E51.97332
G1 X183.134 Y160.651 E52.03446
G1 X182.622 Y160.961 E52.06233
G1 X129.218 Y191.794 E54.93374
G1 X122.769 Y195.517 E55.28048
G1 X122.179 Y195.847 E55.31196
G1 X121.372 Y196.253 E55.35402
G1 X120.533 Y196.585 E55.39604
G1 X119.667 Y196.842 E55.4381
G1 X118.782 Y197.022 E55.48015
G1 X117.884 Y197.122 E55.52223
G1 X116.981 Y197.143 E55.56429
G1 X116.08 Y197.083 E55.60633
G1 X115.188 Y196.945 E55.64836
G1 X114.311 Y196.727 E55.69044
G1 X113.457 Y196.434 E55.73248
G1 X112.633 Y196.065 E55.77452
G1 X111.844 Y195.626 E55.81657
G1 X111.097 Y195.118 E55.85863
G1 X110.398 Y194.546 E55.90069
G1 X109.752 Y193.914 E55.94277
G1 X109.165 Y193.228 E55.98481
G1 X108.661 Y192.524 E56.02513
G1 X108.482 Y192.25 E56.04037
G1 X108.187 Y191.77 E56.0666
G1 X106.255 Y188.423 E56.24655
G1 X58.268 Y105.307 E60.71551
G1 X48.611 Y88.577 E61.61499
G1 X48.3 Y88.021 E61.64466
G1 X47.894 Y87.214 E61.68672
G1 X47.562 Y86.375 E61.72874
G1 X47.305 Y85.509 E61.7708
G1 X47.125 Y84.624 E61.81285
G1 X47.025 Y83.726 E61.85493
G1 X47.004 Y82.824 E61.89694
G1 X47.064 Y81.922 E61.93903
G1 X47.202 Y81.03 E61.98106
G1 X47.42 Y80.153 E62.02314
G1 X47.713 Y79.299 E62.06518
G1 X48.082 Y78.475 E62.10722
G1 X48.521 Y77.686 E62.14927
G1 X49.029 Y76.939 E62.19133
G1 X49.601 Y76.24 E62.23339
G1 X50.232 Y75.595 E62.2754
G1 X50.486 Y75.377 E62.29099
G0 F1350 X50.919 Y75.007
G1 F1500 E56.29099
;MESH:lateral_izquierdo_v3.stl
G0 F7500 X99.639 Y89.867
;TYPE:WALL-INNER
G1 F1500 E62.29099
G1 X102.486 Y94.797 E62.55608
G1 X108.178 Y94.797 E62.82112
G1 X111.025 Y89.867 E63.08621
G1 X108.178 Y84.937 E63.3513
G1 X102.486 Y84.937 E63.61635
G1 X99.924 Y89.374 E63.85492
G0 F1350 X99.639 Y89.867
G0 F7500 X100.101 Y89.867
;TYPE:WALL-OUTER
G1 F1500 X102.717 Y94.397 E64.08632
G1 X107.947 Y94.397 E64.31768
G1 X110.563 Y89.867 E64.54908
G1 X107.947 Y85.337 E64.78048
G1 X102.717 Y85.337 E65.01184
G1 X100.386 Y89.374 E65.21805
G0 F1350 X100.101 Y89.867
G0 F7500 X100.301 Y90.213
G0 X99.919 Y90.432
G1 F1500 E59.21805
G0 F7500 X108.438 Y84.787
;TYPE:WALL-INNER
G1 F1500 E65.21805
G1 X111.285 Y89.717 E65.48314
G1 X116.977 Y89.717 E65.74818
G1 X119.824 Y84.787 E66.01327
G1 X116.977 Y79.857 E66.27836
G1 X111.285 Y79.857 E66.54341
G1 X108.723 Y84.294 E66.78198
G0 F1350 X108.438 Y84.787
G0 F7500 X108.9 Y84.787
;TYPE:WALL-OUTER
G1 F1500 X111.516 Y89.317 E67.01338
G1 X116.746 Y89.317 E67.24474
G1 X119.362 Y84.787 E67.47614
G1 X116.746 Y80.257 E67.70754
G1 X111.516 Y80.257 E67.9389
G1 X109.185 Y84.294 E68.14511
G0 F1350 X108.9 Y84.787
G0 F7500 X109.1 Y85.133
G0 X108.718 Y85.352
G1 F1500 E62.14511
G0 F7500 X108.438 Y94.947
;TYPE:WALL-INNER
G1 F1500 E68.14511
G1 X111.285 Y99.878 E68.41024
G1 X116.977 Y99.878 E68.67528
G1 X119.824 Y94.947 E68.94041
G1 X116.977 Y90.017 E69.20551
G1 X111.285 Y90.017 E69.47055
G1 X108.723 Y94.454 E69.70912
G0 F1350 X108.438 Y94.947
G0 F7500 X108.9 Y94.947
;TYPE:WALL-OUTER
G1 F1500 X111.516 Y99.478 E69.94056
G1 X116.746 Y99.478 E70.17192
G1 X119.362 Y94.947 E70.40336
G1 X116.746 Y90.417 E70.63476
G1 X111.516 Y90.417 E70.86612
G1 X109.185 Y94.454 E71.07233
G0 F1350 X108.9 Y94.947
G0 F7500 X109.1 Y95.293
G0 X108.718 Y95.512
G1 F1500 E65.07233
G0 F7500 X99.639 Y100.028
;TYPE:WALL-INNER
G1 F1500 E71.07233
G1 X102.486 Y104.958 E71.33742
G1 X108.178 Y104.958 E71.60246
G1 X111.025 Y100.028 E71.86755
G1 X108.178 Y95.097 E72.13268
G1 X102.486 Y95.097 E72.39773
G1 X99.924 Y99.535 E72.63634
G0 F1350 X99.639 Y100.028
G0 F7500 X100.101 Y100.028
;TYPE:WALL-OUTER
G1 F1500 X102.717 Y104.558 E72.86774
G1 X107.947 Y104.558 E73.0991
G1 X110.563 Y100.028 E73.3305
G1 X107.947 Y95.497 E73.56194
G1 X102.717 Y95.497 E73.79329
G1 X100.386 Y99.535 E73.99955
G0 F1350 X100.101 Y100.028
G0 F7500 X100.301 Y100.374
G0 X99.919 Y100.593
G1 F1500 E67.99955
G0 F7500 X108.438 Y105.108
;TYPE:WALL-INNER
G1 F1500 E73.99955
G1 X111.285 Y110.038 E74.26464
G1 X116.977 Y110.038 E74.52968
G1 X119.824 Y105.108 E74.79477
G1 X116.977 Y100.178 E75.05986
G1 X111.285 Y100.178 E75.3249
G1 X108.723 Y104.615 E75.56348
G0 F1350 X108.438 Y105.108
G0 F7500 X108.9 Y105.108
;TYPE:WALL-OUTER
G1 F1500 X111.516 Y109.638 E75.79488
G1 X116.746 Y109.638 E76.02623
G1 X119.362 Y105.108 E76.25764
G1 X116.746 Y100.578 E76.48904
G1 X111.516 Y100.578 E76.72039
G1 X109.185 Y104.615 E76.92661
G0 F1350 X108.9 Y105.108
G0 F7500 X109.1 Y105.454
G0 X108.718 Y105.673
G1 F1500 E70.92661
G0 F7500 X117.237 Y100.028
;TYPE:WALL-INNER
G1 F1500 E76.92661
G1 X120.084 Y104.958 E77.1917
G1 X125.776 Y104.958 E77.45674
G1 X128.623 Y100.028 E77.72183
G1 X125.776 Y95.097 E77.98696
G1 X120.084 Y95.097 E78.252
G1 X117.522 Y99.535 E78.49062
G0 F1350 X117.237 Y100.028
G0 F7500 X117.699 Y100.028
;TYPE:WALL-OUTER
G1 F1500 X120.315 Y104.558 E78.72202
G1 X125.545 Y104.558 E78.95337
G1 X128.161 Y100.028 E79.18478
G1 X125.545 Y95.497 E79.41622
G1 X120.315 Y95.497 E79.64757
G1 X117.984 Y99.535 E79.85382
G0 F1350 X117.699 Y100.028
G0 F7500 X117.899 Y100.374
G0 X117.517 Y100.593
G1 F1500 E73.85382
G0 F7500 X117.237 Y110.188
;TYPE:WALL-INNER
G1 F1500 E79.85382
G1 X120.084 Y115.118 E80.11891
G1 X125.776 Y115.118 E80.38396
G1 X128.623 Y110.188 E80.64905
G1 X125.776 Y105.258 E80.91414
G1 X120.084 Y105.258 E81.17918
G1 X117.522 Y109.695 E81.41775
G0 F1350 X117.237 Y110.188
G0 F7500 X117.699 Y110.188
;TYPE:WALL-OUTER
G1 F1500 X120.315 Y114.718 E81.64916
G1 X125.545 Y114.718 E81.88051
G1 X128.161 Y110.188 E82.11191
G1 X125.545 Y105.658 E82.34332
G1 X120.315 Y105.658 E82.57467
G1 X117.984 Y109.695 E82.78088
G0 F1350 X117.699 Y110.188
G0 F7500 X117.899 Y110.534
G0 X117.517 Y110.753
G1 F1500 E76.78088
G0 F7500 X126.036 Y105.108
;TYPE:WALL-INNER
G1 F1500 E82.78088
G1 X128.883 Y110.038 E83.04597
G1 X134.575 Y110.038 E83.31102
G1 X137.422 Y105.108 E83.57611
G1 X134.575 Y100.178 E83.8412
G1 X128.883 Y100.178 E84.10624
G1 X126.321 Y104.615 E84.34481
G0 F1350 X126.036 Y105.108
G0 F7500 X126.498 Y105.108
;TYPE:WALL-OUTER
G1 F1500 X129.114 Y109.638 E84.57622
G1 X134.344 Y109.638 E84.80757
G1 X136.96 Y105.108 E85.03897
G1 X134.344 Y100.578 E85.27038
G1 X129.114 Y100.578 E85.50173
G1 X126.783 Y104.615 E85.70794
G0 F1350 X126.498 Y105.108
G0 F7500 X126.698 Y105.454
G0 X126.316 Y105.673
G1 F1500 E79.70794
G0 F7500 X126.036 Y115.268
;TYPE:WALL-INNER
G1 F1500 E85.70794
G1 X128.883 Y120.198 E85.97303
G1 X134.575 Y120.198 E86.23808
G1 X137.422 Y115.268 E86.50317
G1 X134.575 Y110.338 E86.76826
G1 X128.883 Y110.338 E87.0333
G1 X126.321 Y114.775 E87.27187
G0 F1350 X126.036 Y115.268
G0 F7500 X126.498 Y115.268
;TYPE:WALL-OUTER
G1 F1500 X129.114 Y119.798 E87.50328
G1 X134.344 Y119.798 E87.73463
G1 X136.96 Y115.268 E87.96603
G1 X134.344 Y110.738 E88.19744
G1 X129.114 Y110.738 E88.42879
G1 X126.783 Y114.775 E88.635
G0 F1350 X126.498 Y115.268
G0 F7500 X126.698 Y115.614
G0 X126.316 Y115.833
G1 F1500 E82.635
G0 F7500 X128.883 Y140.819
;TYPE:WALL-INNER
G1 F1500 E88.635
G1 X126.036 Y145.749 E88.90009
G1 X128.883 Y150.679 E89.16518
G1 X134.575 Y150.679 E89.43023
G1 X137.422 Y145.749 E89.69532
G1 X134.575 Y140.819 E89.96041
G1 X129.453 Y140.819 E90.19891
G0 F1350 X128.883 Y140.819
G0 F7500 X129.114 Y141.219
;TYPE:WALL-OUTER
G1 F1500 X126.498 Y145.749 E90.43031
G1 X129.114 Y150.279 E90.66171
G1 X134.344 Y150.279 E90.89307
G1 X136.96 Y145.749 E91.12447
G1 X134.344 Y141.219 E91.35587
G1 X129.684 Y141.219 E91.56201
G0 F1350 X129.114 Y141.219
G0 F7500 X128.914 Y141.565
G0 X128.534 Y141.344
G1 F1500 E85.56201
G0 F7500 X157.533 Y134.838
;TYPE:WALL-INNER
G1 F1500 E91.56201
G1 X149.022 Y120.098 E92.35457
G1 X148.446 Y120.098 E92.38139
G1 X148.734 Y119.598 E92.40826
G1 X140.223 Y104.858 E93.20081
G1 X139.645 Y104.858 E93.22773
G1 X139.935 Y104.358 E93.25464
G1 X136.481 Y98.377 E93.57625
G1 X135.904 Y98.377 E93.60311
G1 X136.193 Y97.877 E93.63001
G1 X131.424 Y89.617 E94.07413
G1 X130.846 Y89.617 E94.10104
G1 X131.136 Y89.117 E94.12796
G1 X122.625 Y74.377 E94.92051
G1 X122.047 Y74.377 E94.94743
G1 X122.337 Y73.877 E94.97434
G1 X114.516 Y60.334 E95.70256
G1 X108.254 Y63.95 E96.03927
G1 X69.484 Y86.334 E98.12385
G1 X73.33 Y92.996 E98.48204
G1 X73.907 Y92.996 E98.50891
G1 X73.619 Y93.496 E98.53578
G1 X77.535 Y100.278 E98.90044
G1 X78.113 Y100.278 E98.92735
G1 X77.823 Y100.778 E98.95427
G1 X78.635 Y102.182 E99.02979
G1 X82.13 Y108.236 E99.35529
G1 X82.707 Y108.236 E99.38216
G1 X82.418 Y108.736 E99.40905
G1 X83.175 Y110.045 E99.47946
G1 X86.334 Y115.518 E99.77371
