;FLAVOR:Marlin
;TIME:2800
;Filament used: 1.51382m
;Layer height: 0.24
;MINX:46.5
;MINY:72
;MINZ:0.24
;MAXX:188.5
;MAXY:163
;MAXZ:7.92
;Generated with Cura_SteamEngine 4.5.0
M140 S50
M105
M190 S50
M104 S205
M105
M109 S205
M82 ;absolute extrusion mode
; Ender 3 Custom Start G-code
G92 E0 ; Reset Extruder
G28 ; Home all axes
G1 Z2.0 F3000 ; Move Z Axis up little to prevent scratching of Heat Bed
G1 X0.1 Y20 Z0.3 F5000.0 ; Move to start position
G1 X0.1 Y200.0 Z0.3 F1500.0 E15 ; Draw the first line
G1 X0.4 Y200.0 Z0.3 F5000.0 ; Move to side a little
G1 X0.4 Y20 Z0.3 F1500.0 E30 ; Draw the second line
G92 E0 ; Reset Extruder
G1 Z2.0 F3000 ; Move Z Axis up little to prevent scratching of Heat Bed
G1 X5 Y20 Z0.3 F5000.0 ; Move over to prevent blob squish
G92 E0
G92 E0
G1 F1500 E-6
;LAYER_COUNT:33
;LAYER:0
M107
M204 S500
M205 X20 Y20
G0 F7500 X51.126 Y74.051 Z0.24
;TYPE:SKIRT
G1 F1500 E0
G1 X51.912 Y73.539 E0.03744
G1 X52.739 Y73.097 E0.07487
G1 X53.601 Y72.727 E0.11231
G1 X54.491 Y72.431 E0.14974
G1 X55.403 Y72.213 E0.18717
G1 X56.33 Y72.072 E0.22459
G1 X57.201 Y72.013 E0.25943
G1 X57.83 Y72 E0.28454
G1 X176.793 Y72 E5.03261
G1 X176.951 Y72.001 E5.03892
G1 X177.649 Y72.011 E5.06678
G1 X178.585 Y72.065 E5.1042
G1 X179.513 Y72.197 E5.14161
G1 X180.427 Y72.409 E5.17906
G1 X181.319 Y72.698 E5.21648
G1 X182.184 Y73.061 E5.25392
G1 X183.014 Y73.497 E5.29134
G1 X183.805 Y74.002 E5.3288
G1 X184.549 Y74.573 E5.36623
G1 X185.242 Y75.205 E5.40367
G1 X185.879 Y75.893 E5.44109
G1 X186.454 Y76.634 E5.47852
G1 X186.965 Y77.42 E5.51594
G1 X187.407 Y78.248 E5.5534
G1 X187.776 Y79.11 E5.59083
G1 X188.071 Y80 E5.62825
G1 X188.289 Y80.912 E5.66567
G1 X188.429 Y81.84 E5.70313
G1 X188.487 Y82.701 E5.73757
G1 X188.5 Y83.33 E5.76268
G1 X188.5 Y151.264 E8.47408
G1 X188.49 Y152.127 E8.50852
G1 X188.439 Y153.064 E8.54598
G1 X188.307 Y153.992 E8.58339
G1 X188.098 Y154.906 E8.62081
G1 X187.811 Y155.799 E8.65825
G1 X187.449 Y156.665 E8.69571
G1 X187.015 Y157.496 E8.73313
G1 X186.511 Y158.287 E8.77056
G1 X185.942 Y159.032 E8.80798
G1 X185.311 Y159.727 E8.84544
G1 X184.624 Y160.365 E8.88286
G1 X183.885 Y160.942 E8.92028
G1 X183.099 Y161.454 E8.95772
G1 X182.273 Y161.897 E8.99513
G1 X181.411 Y162.269 E9.0326
G1 X180.522 Y162.565 E9.07
G1 X179.61 Y162.785 E9.10744
G1 X178.683 Y162.926 E9.14487
G1 X177.799 Y162.987 E9.18023
G1 X177.17 Y163 E9.20534
G1 X58.207 Y163 E13.95341
G1 X57.367 Y162.99 E13.98694
G1 X56.431 Y162.938 E14.02436
G1 X55.502 Y162.806 E14.06181
G1 X54.588 Y162.596 E14.09924
G1 X53.695 Y162.309 E14.13668
G1 X52.83 Y161.946 E14.17412
G1 X51.999 Y161.512 E14.21154
G1 X51.208 Y161.008 E14.24897
G1 X50.463 Y160.438 E14.28641
G1 X49.769 Y159.807 E14.32385
G1 X49.132 Y159.12 E14.36124
G1 X48.555 Y158.38 E14.39869
G1 X48.043 Y157.594 E14.43613
G1 X47.6 Y156.767 E14.47358
G1 X47.229 Y155.906 E14.51099
G1 X46.933 Y155.016 E14.54843
G1 X46.714 Y154.104 E14.58586
G1 X46.573 Y153.177 E14.62329
G1 X46.513 Y152.288 E14.65885
G1 X46.5 Y151.658 E14.684
G1 X46.5 Y83.674 E17.39739
G1 X46.51 Y82.86 E17.42988
G1 X46.563 Y81.924 E17.4673
G1 X46.695 Y80.995 E17.50475
G1 X46.906 Y80.081 E17.54219
G1 X47.194 Y79.189 E17.5796
G1 X47.557 Y78.324 E17.61704
G1 X47.992 Y77.493 E17.65448
G1 X48.496 Y76.703 E17.69188
G1 X49.066 Y75.958 E17.72932
G1 X49.698 Y75.264 E17.76678
G1 X50.386 Y74.627 E17.8042
G1 X50.601 Y74.459 E17.81509
G0 F1350 X51.126 Y74.051
G0 F7500 X51.51 Y74.27
G1 F1500 X52.291 Y73.782 E17.85185
G1 X53.111 Y73.364 E17.88858
G1 X53.965 Y73.019 E17.92534
G1 X54.845 Y72.749 E17.96208
G1 X55.745 Y72.557 E17.99881
G1 X56.659 Y72.443 E18.03557
G1 X57.212 Y72.413 E18.05768
G1 X57.83 Y72.4 E18.08235
G1 X176.793 Y72.4 E22.83042
G1 X176.945 Y72.401 E22.83649
G1 X177.643 Y72.411 E22.86435
G1 X178.562 Y72.464 E22.90109
G1 X179.473 Y72.597 E22.93783
G1 X180.369 Y72.808 E22.97457
G1 X181.243 Y73.096 E23.0113
G1 X182.09 Y73.459 E23.04808
G1 X182.901 Y73.894 E23.08481
G1 X183.671 Y74.398 E23.12154
G1 X184.395 Y74.967 E23.15829
G1 X185.067 Y75.597 E23.19506
G1 X185.682 Y76.282 E23.2318
G1 X186.235 Y77.018 E23.26854
G1 X186.722 Y77.799 E23.30528
G1 X187.139 Y78.62 E23.34203
G1 X187.484 Y79.474 E23.37879
G1 X187.753 Y80.354 E23.41552
G1 X187.945 Y81.255 E23.45229
G1 X188.058 Y82.168 E23.48901
G1 X188.087 Y82.712 E23.51075
G1 X188.1 Y83.33 E23.53542
G1 X188.1 Y151.264 E26.24681
G1 X188.09 Y152.122 E26.28106
G1 X188.039 Y153.041 E26.3178
G1 X187.908 Y153.953 E26.35457
G1 X187.698 Y154.849 E26.3913
G1 X187.412 Y155.724 E26.42804
G1 X187.051 Y156.571 E26.46479
G1 X186.617 Y157.383 E26.50154
G1 X186.115 Y158.155 E26.53829
G1 X185.547 Y158.88 E26.57505
G1 X184.919 Y159.553 E26.61179
G1 X184.235 Y160.169 E26.64853
G1 X183.5 Y160.723 E26.68526
G1 X182.72 Y161.212 E26.72201
G1 X181.9 Y161.631 E26.75876
G1 X181.047 Y161.977 E26.7955
G1 X180.167 Y162.248 E26.83225
G1 X179.267 Y162.441 E26.86899
G1 X178.353 Y162.556 E26.90575
G1 X177.788 Y162.587 E26.92834
G1 X177.17 Y162.6 E26.95301
G1 X58.207 Y162.6 E31.70108
G1 X57.372 Y162.59 E31.73441
G1 X56.453 Y162.538 E31.77115
G1 X55.542 Y162.407 E31.80788
G1 X54.646 Y162.197 E31.84461
G1 X53.771 Y161.91 E31.88136
G1 X52.924 Y161.548 E31.91813
G1 X52.112 Y161.114 E31.95488
G1 X51.341 Y160.612 E31.9916
G1 X50.616 Y160.044 E32.02836
G1 X49.943 Y159.415 E32.06512
G1 X49.328 Y158.731 E32.10183
G1 X48.774 Y157.996 E32.13857
G1 X48.286 Y157.215 E32.17533
G1 X47.867 Y156.395 E32.21208
G1 X47.521 Y155.542 E32.24882
G1 X47.251 Y154.662 E32.28556
G1 X47.058 Y153.761 E32.32233
G1 X46.944 Y152.848 E32.35906
G1 X46.913 Y152.277 E32.38188
G1 X46.9 Y151.658 E32.40659
G1 X46.9 Y83.674 E35.11998
G1 X46.91 Y82.866 E35.15223
G1 X46.962 Y81.946 E35.18901
G1 X47.094 Y81.035 E35.22575
G1 X47.305 Y80.139 E35.26249
G1 X47.592 Y79.264 E35.29924
G1 X47.955 Y78.418 E35.33598
G1 X48.389 Y77.606 E35.37273
G1 X48.892 Y76.835 E35.40947
G1 X49.461 Y76.111 E35.44623
G1 X50.089 Y75.439 E35.48294
G1 X50.774 Y74.823 E35.5197
G1 X50.978 Y74.669 E35.52991
G0 F1350 X51.51 Y74.27
G0 F7500 X51.894 Y74.494
G1 F1500 X52.669 Y74.031 E35.56594
G1 X53.482 Y73.638 E35.60198
G1 X54.327 Y73.318 E35.63804
G1 X55.196 Y73.075 E35.67406
G1 X56.084 Y72.909 E35.71011
G1 X57.223 Y72.813 E35.75573
G1 X57.83 Y72.8 E35.77996
G1 X176.793 Y72.8 E40.52803
G1 X176.939 Y72.801 E40.53386
G1 X177.637 Y72.811 E40.56172
G1 X178.539 Y72.864 E40.59779
G1 X179.432 Y72.996 E40.63382
G1 X180.31 Y73.207 E40.66986
G1 X181.166 Y73.495 E40.7059
G1 X181.993 Y73.857 E40.74193
G1 X182.785 Y74.292 E40.778
G1 X183.536 Y74.794 E40.81405
G1 X184.239 Y75.361 E40.8501
G1 X184.889 Y75.988 E40.88614
G1 X185.481 Y76.67 E40.92219
G1 X186.011 Y77.401 E40.95823
G1 X186.473 Y78.177 E40.99427
G1 X186.866 Y78.99 E41.03031
G1 X187.184 Y79.835 E41.06635
G1 X187.427 Y80.705 E41.1024
G1 X187.592 Y81.593 E41.13845
G1 X187.687 Y82.723 E41.18371
G1 X187.7 Y83.33 E41.20794
G1 X187.7 Y151.264 E43.91933
G1 X187.69 Y152.117 E43.95338
G1 X187.639 Y153.019 E43.98944
G1 X187.508 Y153.913 E44.0255
G1 X187.299 Y154.791 E44.06152
G1 X187.013 Y155.648 E44.09758
G1 X186.652 Y156.476 E44.13364
G1 X186.22 Y157.268 E44.16964
G1 X185.719 Y158.02 E44.20571
G1 X185.153 Y158.724 E44.24176
G1 X184.528 Y159.375 E44.27778
G1 X183.847 Y159.969 E44.31385
G1 X183.116 Y160.5 E44.34991
G1 X182.342 Y160.964 E44.38592
G1 X181.529 Y161.358 E44.42198
G1 X180.685 Y161.678 E44.45801
G1 X179.815 Y161.923 E44.49408
G1 X178.928 Y162.089 E44.5301
G1 X177.777 Y162.187 E44.5762
G1 X177.17 Y162.2 E44.60044
G1 X58.207 Y162.2 E49.34851
G1 X57.377 Y162.19 E49.38164
G1 X56.476 Y162.139 E49.41766
G1 X55.582 Y162.007 E49.45372
G1 X54.704 Y161.798 E49.48975
G1 X53.847 Y161.511 E49.52582
G1 X53.02 Y161.15 E49.56183
G1 X52.227 Y160.717 E49.59789
G1 X51.476 Y160.216 E49.63393
G1 X50.772 Y159.65 E49.66998
G1 X50.121 Y159.024 E49.70603
G1 X49.528 Y158.343 E49.74207
G1 X48.998 Y157.612 E49.7781
G1 X48.534 Y156.837 E49.81416
G1 X48.14 Y156.024 E49.85021
G1 X47.82 Y155.18 E49.88624
G1 X47.576 Y154.31 E49.9223
G1 X47.41 Y153.422 E49.95836
G1 X47.313 Y152.267 E50.00462
G1 X47.3 Y151.658 E50.02893
G1 X47.3 Y83.674 E52.74232
G1 X47.31 Y82.871 E52.77437
G1 X47.362 Y81.969 E52.81043
G1 X47.494 Y81.076 E52.84646
G1 X47.704 Y80.198 E52.88249
G1 X47.991 Y79.341 E52.91856
G1 X48.353 Y78.514 E52.9546
G1 X48.786 Y77.722 E52.99062
G1 X49.288 Y76.971 E53.02668
G1 X49.855 Y76.267 E53.06275
G1 X50.481 Y75.617 E53.09877
G1 X51.162 Y75.024 E53.13481
G1 X51.355 Y74.884 E53.14433
G0 F1350 X51.894 Y74.494
G1 F1500 E47.14433
;MESH:lateral_izquierdaa_panal.stl
G0 F7500 X62.981 Y145.24
;TYPE:WALL-INNER
G1 F1500 E53.14433
G1 X62.5 Y145.368 E53.16419
G1 X62.5 Y148 E53.26924
G1 X106.213 Y148 E55.01392
G1 X106.227 Y148.439 E55.03145
G1 X106.421 Y149.109 E55.05929
G1 X106.772 Y149.711 E55.08711
G1 X107.263 Y150.206 E55.11493
G1 X107.858 Y150.564 E55.14265
G1 X108.525 Y150.767 E55.17048
G1 X109.221 Y150.799 E55.19828
G1 X109.903 Y150.659 E55.22607
G1 X110.528 Y150.355 E55.25381
G1 X111.062 Y149.907 E55.28163
G1 X111.467 Y149.339 E55.30947
G1 X111.722 Y148.691 E55.33727
G1 X111.805 Y148.013 E55.36453
G1 X111.757 Y147.509 E55.38474
G1 X111.623 Y147.026 E55.40474
G1 X111.548 Y146.846 E55.41253
G1 X111.327 Y146.431 E55.43129
G1 X110.886 Y145.919 E55.45826
G1 X110.324 Y145.523 E55.4857
G1 X109.682 Y145.277 E55.51314
G1 X109 Y145.192 E55.54057
G1 X108.318 Y145.277 E55.568
G1 X107.675 Y145.526 E55.59552
G1 X107.116 Y145.919 E55.6228
G1 X107 Y146.053 E55.62987
G1 X107 Y145 E55.6719
G1 X112 Y145 E55.87146
G1 X112 Y148 E55.9912
G1 X172.5 Y148 E58.40588
G1 X172.5 Y88 E60.80061
G1 X155.006 Y88 E61.49883
G1 X112 Y88 E63.2153
G1 X112 Y89 E63.25521
G1 X110.944 Y89 E63.29736
G1 X111.1 Y88.862 E63.30567
G1 X111.486 Y88.305 E63.33272
G1 X111.726 Y87.671 E63.35977
G1 X111.807 Y87 E63.38675
G1 X111.726 Y86.329 E63.41372
G1 X111.486 Y85.695 E63.44078
G1 X111.1 Y85.138 E63.46783
G1 X110.594 Y84.689 E63.49483
G1 X109.995 Y84.375 E63.52182
G1 X109.339 Y84.213 E63.54879
G1 X108.661 Y84.213 E63.57585
G1 X108.005 Y84.375 E63.60282
G1 X107.401 Y84.694 E63.63008
G1 X106.901 Y85.137 E63.65674
G1 X106.514 Y85.693 E63.68378
G1 X106.274 Y86.329 E63.71091
G1 X106.193 Y87 E63.73789
G1 X106.274 Y87.671 E63.76486
G1 X106.399 Y88 E63.77891
G1 X62.822 Y88 E65.51816
G1 X62.984 Y88.281 E65.53111
G1 X62.5 Y88.412 E65.55112
G1 X62.5 Y99.157 E65.97998
G1 X62.983 Y99.287 E65.99994
G1 X62.871 Y99.481 E66.00888
G1 X62.982 Y99.674 E66.01777
G1 X62.5 Y99.804 E66.03769
G1 X62.5 Y110.55 E66.46659
G1 X62.982 Y110.68 E66.48651
G1 X62.871 Y110.873 E66.4954
G1 X62.983 Y111.067 E66.50434
G1 X62.5 Y111.197 E66.5243
G1 X62.5 Y121.942 E66.95316
G1 X62.982 Y122.072 E66.97309
G1 X62.871 Y122.265 E66.98197
G1 X62.983 Y122.459 E66.99091
G1 X62.5 Y122.589 E67.01088
G1 X62.5 Y133.334 E67.43973
G1 X62.983 Y133.464 E67.4597
G1 X62.871 Y133.658 E67.46864
G1 X62.982 Y133.851 E67.47752
G1 X62.5 Y133.981 E67.49745
G1 X62.5 Y144.727 E67.92634
G1 X62.766 Y144.799 E67.93734
G0 F1350 X62.982 Y144.857
G0 X62.871 Y145.05
G0 X62.981 Y145.24
G0 F7500 X63.333 Y145.05
G1 F1500 X63.589 Y145.493 E67.95776
G1 X62.9 Y145.676 E67.98622
G1 X62.9 Y147.6 E68.06301
G1 X103.807 Y147.6 E69.69569
G1 X104.039 Y147.2 E69.71415
G1 X104.27 Y147.6 E69.73259
G1 X106.6 Y147.6 E69.82558
G1 X106.6 Y144.6 E69.94532
G1 X112.4 Y144.6 E70.17681
G1 X112.4 Y147.6 E70.29655
G1 X123.539 Y147.6 E70.74113
G1 X123.771 Y147.2 E70.75958
G1 X124.002 Y147.6 E70.77802
G1 X143.271 Y147.6 E71.54709
G1 X143.503 Y147.2 E71.56554
G1 X143.734 Y147.6 E71.58398
G1 X154.176 Y147.6 E72.00074
G1 X154.406 Y147.201 E72.01912
G1 X154.638 Y147.6 E72.03754
G1 X172.1 Y147.6 E72.73449
G1 X172.1 Y88.4 E75.09729
G1 X162.636 Y88.4 E75.47502
G1 X162.52 Y88.601 E75.48428
G1 X162.404 Y88.4 E75.49354
G1 X155.237 Y88.4 E75.77959
G1 X155.006 Y88.801 E75.79806
G1 X154.773 Y88.4 E75.81657
G1 X135.505 Y88.4 E76.5856
G1 X135.273 Y88.801 E76.60409
G1 X135.041 Y88.4 E76.62258
G1 X115.773 Y88.4 E77.39161
G1 X115.541 Y88.801 E77.4101
G1 X115.309 Y88.4 E77.42859
G1 X112.4 Y88.4 E77.5447
G1 X112.4 Y89.4 E77.58461
G1 X106.6 Y89.4 E77.8161
G1 X106.6 Y88.4 E77.85601
G1 X96.041 Y88.4 E78.27744
G1 X95.809 Y88.801 E78.29593
G1 X95.577 Y88.4 E78.31442
G1 X76.309 Y88.4 E79.08345
G1 X76.077 Y88.801 E79.10194
G1 X75.845 Y88.4 E79.12043
G1 X63.514 Y88.4 E79.61259
G1 X63.59 Y88.532 E79.61867
G1 X62.9 Y88.718 E79.64719
G1 X62.9 Y98.851 E80.05162
G1 X63.589 Y99.037 E80.0801
G1 X63.333 Y99.481 E80.10056
G1 X63.589 Y99.924 E80.12098
G1 X62.9 Y100.11 E80.14946
G1 X62.9 Y110.244 E80.55393
G1 X63.589 Y110.43 E80.58242
G1 X63.333 Y110.873 E80.60284
G1 X63.589 Y111.317 E80.62329
G1 X62.9 Y111.503 E80.65178
G1 X62.9 Y121.636 E81.05621
G1 X63.589 Y121.822 E81.08469
G1 X63.333 Y122.265 E81.10511
G1 X63.589 Y122.709 E81.12557
G1 X62.9 Y122.895 E81.15405
G1 X62.9 Y133.028 E81.55848
G1 X63.589 Y133.214 E81.58697
G1 X63.333 Y133.658 E81.60742
G1 X63.589 Y134.101 E81.62784
G1 X62.9 Y134.287 E81.65633
G1 X62.9 Y144.421 E82.0608
G1 X63.441 Y144.567 E82.08316
G0 F1350 X63.589 Y144.607
G0 X63.333 Y145.05
G0 F7500 X63.597 Y145.905
;TYPE:WALL-OUTER
G1 F1500 X63.3 Y145.984 E82.09481
G1 X63.3 Y147.2 E82.14092
G1 X64.343 Y147.2 E82.18047
G1 X63.735 Y146.145 E82.22664
G0 F1350 X63.597 Y145.905
G0 F7500 X63.3 Y145.984
G0 X63.3 Y146.077
G0 X62.86 Y146.077
G1 F1500 E76.22664
G0 F7500 X63.596 Y110.018
G1 F1500 E82.22664
G1 X66.391 Y105.177 E82.43859
G1 X63.596 Y100.336 E82.65054
G1 X63.3 Y100.416 E82.66217
G1 X63.3 Y109.579 E83.00959
G0 F1350 X63.3 Y109.938
G0 X63.596 Y110.018
G0 F7500 X63.796 Y109.672
G0 X63.795 Y110.873
G1 F1500 X66.911 Y116.269 E83.24586
G1 X73.141 Y116.269 E83.48208
G1 X76.257 Y110.873 E83.71834
G1 X73.141 Y105.477 E83.9546
G1 X66.911 Y105.477 E84.19082
G1 X64.127 Y110.298 E84.4019
G0 F1350 X63.795 Y110.873
G0 F7500 X63.995 Y111.219
G0 X63.596 Y111.729
G1 F1500 X63.3 Y111.809 E84.41353
G1 X63.3 Y121.33 E84.77453
G1 X63.596 Y121.41 E84.78616
G1 X66.391 Y116.569 E84.99811
G1 X63.928 Y112.304 E85.18485
G0 F1350 X63.596 Y111.729
G0 F7500 X63.3 Y111.809
G0 X63.3 Y111.903
G0 X62.86 Y111.903
G1 F1500 E79.18485
G0 F7500 X66.911 Y116.869
G1 F1500 E85.18485
G1 X63.795 Y122.265 E85.42111
G1 X66.911 Y127.662 E85.65741
G1 X73.141 Y127.662 E85.89363
G1 X76.257 Y122.265 E86.12992
G1 X73.141 Y116.869 E86.36618
G1 X67.576 Y116.869 E86.57719
G0 F1350 X66.911 Y116.869
G0 F7500 X66.711 Y117.215
G1 F1500 E80.57719
G0 F7500 X63.596 Y123.121
G1 F1500 E86.57719
G1 X63.3 Y123.201 E86.58881
G1 X63.3 Y132.722 E86.94982
G1 X63.596 Y132.802 E86.96144
G1 X66.391 Y127.962 E87.17336
G1 X63.928 Y123.697 E87.3601
G0 F1350 X63.596 Y123.121
G0 F7500 X63.3 Y123.201
G0 X63.3 Y123.295
G0 X62.86 Y123.295
G1 F1500 E81.3601
G0 F7500 X66.911 Y128.262
G1 F1500 E87.3601
G1 X63.795 Y133.658 E87.59636
G1 X66.911 Y139.054 E87.83262
G1 X73.141 Y139.054 E88.06884
G1 X76.257 Y133.658 E88.30511
G1 X73.141 Y128.262 E88.54137
G1 X67.576 Y128.262 E88.75237
G0 F1350 X66.911 Y128.262
G0 F7500 X66.711 Y128.608
G1 F1500 E82.75237
G0 F7500 X63.596 Y134.513
G1 F1500 E88.75237
G1 X63.3 Y134.593 E88.764
G1 X63.3 Y144.115 E89.12504
G1 X63.596 Y144.195 E89.13667
G1 X66.391 Y139.354 E89.34862
G1 X63.928 Y135.089 E89.53536
G0 F1350 X63.596 Y134.513
G0 F7500 X63.3 Y134.593
G0 X63.3 Y134.687
G0 X62.86 Y134.687
G1 F1500 E83.53536
G0 F7500 X66.911 Y139.654
G1 F1500 E89.53536
G1 X63.795 Y145.05 E89.77162
G1 X65.037 Y147.2 E89.86577
G1 X75.015 Y147.2 E90.2441
G1 X76.257 Y145.05 E90.33824
G1 X73.141 Y139.654 E90.5745
G1 X67.576 Y139.654 E90.78551
G0 F1350 X66.911 Y139.654
G0 F7500 X66.711 Y140
G1 F1500 E84.78551
G0 F7500 X76.777 Y145.35
G1 F1500 E90.78551
G1 X75.709 Y147.2 E90.8665
G1 X84.075 Y147.2 E91.18371
G1 X83.007 Y145.35 E91.26471
G1 X77.442 Y145.35 E91.47571
G0 F1350 X76.777 Y145.35
G0 F7500 X76.577 Y145.696
G0 X76.777 Y144.75
G1 F1500 X83.007 Y144.75 E91.71193
G1 X86.123 Y139.354 E91.9482
G1 X83.007 Y133.958 E92.18446
G1 X76.777 Y133.958 E92.42068
G1 X73.661 Y139.354 E92.65694
G1 X76.445 Y144.175 E92.86802
G0 F1350 X76.777 Y144.75
G0 F7500 X77.177 Y144.75
G1 F1500 E86.86802
G0 F7500 X93.393 Y139.354
G1 F1500 E92.86802
G1 X96.509 Y144.75 E93.10428
G1 X102.739 Y144.75 E93.3405
G1 X105.855 Y139.354 E93.57676
G1 X102.739 Y133.958 E93.81303
