;FLAVOR:Marlin
;TIME:927
;Filament used: 0.557891m
;Layer height: 0.2
;MINX:82
;MINY:91
;MINZ:0.2
;MAXX:138
;MAXY:129
;MAXZ:6.4
;Generated with Cura_SteamEngine 4.4.1
M140 S60
M105
M190 S60
M104 S205
M105
M109 S205
M82 ;absolute extrusion mode
M201 X500.00 Y500.00 Z100.00 E5000.00 ;Setup machine max acceleration
M203 X500.00 Y500.00 Z10.00 E50.00 ;Setup machine max feedrate
M204 P500.00 R1000.00 T500.00 ;Setup Print/Retract/Travel acceleration
M205 X8.00 Y8.00 Z0.40 E5.00 ;Setup Jerk
M220 S100 ;Reset Feedrate
M221 S100 ;Reset Flowrate

G28 ;Home

G92 E0 ;Reset Extruder
G1 Z2.0 F3000 ;Move Z Axis up
G1 X10.1 Y20 Z0.28 F5000.0 ;Move to start position
G1 X10.1 Y200.0 Z0.28 F1500.0 E15 ;Draw the first line
G1 X10.4 Y200.0 Z0.28 F5000.0 ;Move to side a little
G1 X10.4 Y20 Z0.28 F1500.0 E30 ;Draw the second line
G92 E0 ;Reset Extruder
G1 Z2.0 F3000 ;Move Z Axis up

G92 E0
G92 E0
G1 F1500 E-6
;LAYER_COUNT:32
;LAYER:0
M107
M204 S500
M205 X20 Y20
G0 F7500 X85.886 Y93.627 Z0.2
;TYPE:SKIRT
G1 F1500 E0
G1 X86.626 Y93.051 E0.03119
G1 X87.412 Y92.539 E0.06239
G1 X88.239 Y92.097 E0.09358
G1 X89.101 Y91.727 E0.12478
G1 X89.991 Y91.431 E0.15597
G1 X90.903 Y91.213 E0.18716
G1 X91.83 Y91.072 E0.21835
G1 X92.701 Y91.013 E0.24738
G1 X93.022 Y91.004 E0.25806
G1 X93.33 Y91 E0.26831
G1 X126.293 Y91 E1.36466
G1 X126.451 Y91.001 E1.36992
G1 X127.149 Y91.011 E1.39314
G1 X128.085 Y91.065 E1.42432
G1 X129.013 Y91.197 E1.4555
G1 X129.927 Y91.409 E1.4867
G1 X130.819 Y91.698 E1.51789
G1 X131.684 Y92.061 E1.54909
G1 X132.514 Y92.497 E1.58027
G1 X133.305 Y93.002 E1.61149
G1 X134.049 Y93.573 E1.64268
G1 X134.742 Y94.205 E1.67387
G1 X135.379 Y94.893 E1.70506
G1 X135.954 Y95.634 E1.73625
G1 X136.465 Y96.42 E1.76744
G1 X136.907 Y97.248 E1.79865
G1 X137.276 Y98.11 E1.82984
G1 X137.571 Y99 E1.86103
G1 X137.789 Y99.912 E1.89221
G1 X137.929 Y100.84 E1.92343
G1 X137.987 Y101.701 E1.95213
G1 X137.996 Y102.021 E1.96278
G1 X138 Y102.33 E1.97306
G1 X138 Y117.264 E2.46976
G1 X137.999 Y117.4 E2.47429
G1 X137.99 Y118.127 E2.49847
G1 X137.939 Y119.064 E2.52968
G1 X137.807 Y119.992 E2.56085
G1 X137.598 Y120.906 E2.59204
G1 X137.311 Y121.799 E2.62324
G1 X136.949 Y122.665 E2.65446
G1 X136.515 Y123.496 E2.68564
G1 X136.011 Y124.287 E2.71683
G1 X135.442 Y125.032 E2.74801
G1 X134.811 Y125.727 E2.77923
G1 X134.124 Y126.365 E2.81042
G1 X133.385 Y126.942 E2.8416
G1 X132.599 Y127.454 E2.8728
G1 X131.773 Y127.897 E2.90397
G1 X130.911 Y128.269 E2.9352
G1 X130.022 Y128.565 E2.96637
G1 X129.11 Y128.785 E2.99757
G1 X128.183 Y128.926 E3.02876
G1 X127.299 Y128.987 E3.05823
G1 X126.978 Y128.996 E3.06891
G1 X126.67 Y129 E3.07915
G1 X93.707 Y129 E4.17551
G1 X93.565 Y128.999 E4.18023
G1 X92.867 Y128.99 E4.20345
G1 X91.931 Y128.938 E4.23463
G1 X91.002 Y128.806 E4.26584
G1 X90.088 Y128.596 E4.29703
G1 X89.195 Y128.309 E4.32823
G1 X88.33 Y127.946 E4.35943
G1 X87.499 Y127.512 E4.39061
G1 X86.708 Y127.008 E4.4218
G1 X85.963 Y126.438 E4.453
G1 X85.269 Y125.807 E4.4842
G1 X84.632 Y125.12 E4.51536
G1 X84.055 Y124.38 E4.54657
G1 X83.543 Y123.594 E4.57777
G1 X83.1 Y122.767 E4.60897
G1 X82.729 Y121.906 E4.64016
G1 X82.433 Y121.016 E4.67135
G1 X82.214 Y120.104 E4.70255
G1 X82.073 Y119.177 E4.73373
G1 X82.013 Y118.288 E4.76337
G1 X82.004 Y117.955 E4.77445
G1 X82 Y117.658 E4.78433
G1 X82 Y102.674 E5.2827
G1 X82.001 Y102.525 E5.28765
G1 X82.01 Y101.86 E5.30977
G1 X82.063 Y100.924 E5.34096
G1 X82.195 Y99.995 E5.37216
G1 X82.406 Y99.081 E5.40336
G1 X82.694 Y98.189 E5.43454
G1 X83.057 Y97.324 E5.46574
G1 X83.492 Y96.493 E5.49694
G1 X83.996 Y95.703 E5.52811
G1 X84.566 Y94.958 E5.5593
G1 X85.198 Y94.264 E5.59052
G1 X85.299 Y94.17 E5.59511
G0 F1350 X85.886 Y93.627
G0 F7500 X86.274 Y93.823
G1 F1500 X87.01 Y93.27 E5.62573
G1 X87.791 Y92.782 E5.65636
G1 X88.611 Y92.364 E5.68697
G1 X89.465 Y92.019 E5.71761
G1 X90.345 Y91.749 E5.74822
G1 X91.245 Y91.557 E5.77883
G1 X92.159 Y91.443 E5.80947
G1 X92.712 Y91.413 E5.82789
G1 X93.033 Y91.404 E5.83857
G1 X93.33 Y91.4 E5.84845
G1 X126.293 Y91.4 E6.9448
G1 X126.445 Y91.401 E6.94986
G1 X127.143 Y91.411 E6.97308
G1 X128.062 Y91.464 E7.00369
G1 X128.973 Y91.597 E7.03431
G1 X129.869 Y91.808 E7.06493
G1 X130.743 Y92.096 E7.09554
G1 X131.59 Y92.459 E7.12619
G1 X132.401 Y92.894 E7.1568
G1 X133.171 Y93.398 E7.1874
G1 X133.895 Y93.967 E7.21803
G1 X134.567 Y94.597 E7.24867
G1 X135.182 Y95.282 E7.27929
G1 X135.735 Y96.018 E7.30991
G1 X136.222 Y96.799 E7.34052
G1 X136.639 Y97.62 E7.37114
G1 X136.984 Y98.474 E7.40178
G1 X137.253 Y99.354 E7.43239
G1 X137.445 Y100.255 E7.46303
G1 X137.558 Y101.168 E7.49362
G1 X137.587 Y101.712 E7.51174
G1 X137.596 Y102.032 E7.52239
G1 X137.6 Y102.33 E7.5323
G1 X137.6 Y117.264 E8.02901
G1 X137.599 Y117.395 E8.03337
G1 X137.59 Y118.122 E8.05755
G1 X137.539 Y119.041 E8.08816
G1 X137.408 Y119.953 E8.11881
G1 X137.198 Y120.849 E8.14941
G1 X136.912 Y121.724 E8.18003
G1 X136.551 Y122.571 E8.21066
G1 X136.117 Y123.383 E8.24128
G1 X135.615 Y124.155 E8.27191
G1 X135.047 Y124.88 E8.30254
G1 X134.419 Y125.553 E8.33316
G1 X133.735 Y126.169 E8.36377
G1 X133 Y126.723 E8.39438
G1 X132.22 Y127.212 E8.425
G1 X131.4 Y127.631 E8.45563
G1 X130.547 Y127.977 E8.48625
G1 X129.667 Y128.248 E8.51687
G1 X128.767 Y128.441 E8.54749
G1 X127.853 Y128.556 E8.57813
G1 X127.288 Y128.587 E8.59695
G1 X126.967 Y128.596 E8.60763
G1 X126.67 Y128.6 E8.61751
G1 X93.707 Y128.6 E9.71386
G1 X93.57 Y128.599 E9.71842
G1 X92.872 Y128.59 E9.74163
G1 X91.953 Y128.538 E9.77225
G1 X91.042 Y128.407 E9.80286
G1 X90.146 Y128.197 E9.83347
G1 X89.271 Y127.91 E9.8641
G1 X88.424 Y127.548 E9.89473
G1 X87.612 Y127.114 E9.92536
G1 X86.841 Y126.612 E9.95596
G1 X86.116 Y126.044 E9.98659
G1 X85.443 Y125.415 E10.01723
G1 X84.828 Y124.731 E10.04782
G1 X84.274 Y123.996 E10.07844
G1 X83.786 Y123.215 E10.10907
G1 X83.367 Y122.395 E10.13969
G1 X83.021 Y121.542 E10.17031
G1 X82.751 Y120.662 E10.20092
G1 X82.558 Y119.761 E10.23157
G1 X82.444 Y118.848 E10.26217
G1 X82.413 Y118.277 E10.28119
G1 X82.404 Y117.944 E10.29227
G1 X82.4 Y117.658 E10.30179
G1 X82.4 Y102.674 E10.80016
G1 X82.401 Y102.531 E10.80491
G1 X82.41 Y101.866 E10.82703
G1 X82.462 Y100.946 E10.85768
G1 X82.594 Y100.035 E10.8883
G1 X82.805 Y99.139 E10.91891
G1 X83.092 Y98.264 E10.94954
G1 X83.455 Y97.418 E10.98016
G1 X83.889 Y96.606 E11.01078
G1 X84.392 Y95.835 E11.0414
G1 X84.961 Y95.111 E11.07203
G1 X85.589 Y94.439 E11.10262
G1 X85.679 Y94.358 E11.10665
G0 F1350 X86.274 Y93.823
G0 F7500 X86.662 Y94.024
G1 F1500 X87.394 Y93.494 E11.13671
G1 X88.169 Y93.031 E11.16673
G1 X88.982 Y92.638 E11.19677
G1 X89.827 Y92.318 E11.22682
G1 X90.696 Y92.075 E11.25683
G1 X91.584 Y91.909 E11.28688
G1 X92.723 Y91.813 E11.32489
G1 X93.044 Y91.804 E11.33558
G1 X93.33 Y91.8 E11.34509
G1 X126.293 Y91.8 E12.44144
G1 X126.439 Y91.801 E12.4463
G1 X127.137 Y91.811 E12.46952
G1 X128.039 Y91.864 E12.49957
G1 X128.932 Y91.996 E12.52959
G1 X129.81 Y92.207 E12.55963
G1 X130.666 Y92.495 E12.58967
G1 X131.493 Y92.857 E12.61969
G1 X132.285 Y93.292 E12.64975
G1 X133.036 Y93.794 E12.67979
G1 X133.739 Y94.361 E12.70983
G1 X134.389 Y94.988 E12.73987
G1 X134.981 Y95.67 E12.7699
G1 X135.511 Y96.401 E12.79994
G1 X135.973 Y97.177 E12.82997
G1 X136.366 Y97.99 E12.86001
G1 X136.684 Y98.835 E12.89004
G1 X136.927 Y99.705 E12.92008
G1 X137.092 Y100.593 E12.95012
G1 X137.187 Y101.723 E12.98784
G1 X137.196 Y102.043 E12.99848
G1 X137.2 Y102.33 E13.00803
G1 X137.2 Y117.264 E13.50474
G1 X137.199 Y117.39 E13.50893
G1 X137.19 Y118.117 E13.53311
G1 X137.139 Y119.019 E13.56316
G1 X137.008 Y119.913 E13.59321
G1 X136.799 Y120.791 E13.62323
G1 X136.513 Y121.648 E13.65328
G1 X136.152 Y122.476 E13.68332
G1 X135.72 Y123.268 E13.71333
G1 X135.219 Y124.02 E13.74338
G1 X134.653 Y124.724 E13.77343
G1 X134.028 Y125.375 E13.80344
G1 X133.347 Y125.969 E13.8335
G1 X132.616 Y126.5 E13.86355
G1 X131.842 Y126.964 E13.89356
G1 X131.029 Y127.358 E13.92361
G1 X130.185 Y127.678 E13.95363
G1 X129.315 Y127.923 E13.9837
G1 X128.428 Y128.089 E14.01371
G1 X127.277 Y128.187 E14.05213
G1 X126.956 Y128.196 E14.06281
G1 X126.67 Y128.2 E14.07232
G1 X93.707 Y128.2 E15.16868
G1 X93.575 Y128.199 E15.17307
G1 X92.877 Y128.19 E15.19629
G1 X91.976 Y128.139 E15.2263
G1 X91.082 Y128.007 E15.25636
G1 X90.204 Y127.798 E15.28638
G1 X89.347 Y127.511 E15.31644
G1 X88.52 Y127.15 E15.34645
G1 X87.727 Y126.717 E15.3765
G1 X86.976 Y126.216 E15.40653
G1 X86.272 Y125.65 E15.43657
G1 X85.621 Y125.024 E15.46661
G1 X85.028 Y124.343 E15.49664
G1 X84.498 Y123.612 E15.52668
G1 X84.034 Y122.837 E15.55672
G1 X83.64 Y122.024 E15.58677
G1 X83.32 Y121.18 E15.61679
G1 X83.076 Y120.31 E15.64684
G1 X82.91 Y119.422 E15.67689
G1 X82.813 Y118.267 E15.71544
G1 X82.804 Y117.934 E15.72652
G1 X82.8 Y117.658 E15.7357
G1 X82.8 Y102.674 E16.23407
G1 X82.801 Y102.536 E16.23866
G1 X82.81 Y101.871 E16.26078
G1 X82.862 Y100.969 E16.29083
G1 X82.994 Y100.076 E16.32085
G1 X83.204 Y99.198 E16.35088
G1 X83.491 Y98.341 E16.38094
G1 X83.853 Y97.514 E16.41097
G1 X84.286 Y96.722 E16.44099
G1 X84.788 Y95.971 E16.47103
G1 X85.355 Y95.267 E16.5011
G1 X85.981 Y94.617 E16.53111
G1 X86.059 Y94.549 E16.53455
G0 F1350 X86.662 Y94.024
G1 F1500 E10.53455
;MESH:soporte_boton_agujero_medio.stl
G0 F7500 X96.148 Y112.622
;TYPE:WALL-INNER
G1 F1500 E16.53455
G1 X96.827 Y112.752 E16.55755
G1 X97.518 Y112.709 E16.58057
G1 X98.175 Y112.495 E16.60356
G1 X98.756 Y112.125 E16.62647
G1 X99.231 Y111.622 E16.64948
G1 X99.564 Y111.014 E16.67253
G1 X99.736 Y110.346 E16.69548
G1 X99.736 Y109.675 E16.71779
G1 X99.567 Y108.99 E16.74126
G1 X99.231 Y108.378 E16.76448
G1 X98.756 Y107.875 E16.78749
G1 X98.175 Y107.505 E16.8104
G1 X97.518 Y107.291 E16.83338
G1 X96.827 Y107.248 E16.85641
G1 X96.148 Y107.378 E16.8794
G1 X95.522 Y107.67 E16.90238
G1 X94.989 Y108.112 E16.92541
G1 X94.581 Y108.672 E16.94845
G1 X94.33 Y109.315 E16.97141
G1 X94.242 Y110 E16.99438
G1 X94.33 Y110.685 E17.01735
G1 X94.581 Y111.328 E17.04031
G1 X94.989 Y111.888 E17.06336
G1 X95.438 Y112.26 E17.08275
G0 F1350 X95.522 Y112.33
G0 X96.148 Y112.622
G0 F7500 X96.272 Y112.239
G1 F1500 X96.852 Y112.35 E17.10239
G1 X97.442 Y112.313 E17.12205
G1 X98.003 Y112.13 E17.14168
G1 X98.499 Y111.814 E17.16124
G1 X98.905 Y111.385 E17.18088
G1 X99.189 Y110.866 E17.20056
G1 X99.336 Y110.295 E17.22017
G1 X99.336 Y109.724 E17.23916
G1 X99.191 Y109.137 E17.25927
G1 X98.905 Y108.615 E17.27907
G1 X98.499 Y108.186 E17.29872
G1 X98.003 Y107.87 E17.31828
G1 X97.442 Y107.687 E17.3379
G1 X96.852 Y107.65 E17.35757
G1 X96.272 Y107.761 E17.37721
G1 X95.738 Y108.011 E17.39682
G1 X95.283 Y108.388 E17.41647
G1 X94.935 Y108.866 E17.43614
G1 X94.72 Y109.415 E17.45575
G1 X94.645 Y110 E17.47536
G1 X94.72 Y110.585 E17.49498
G1 X94.935 Y111.134 E17.51459
G1 X95.283 Y111.612 E17.53426
G1 X95.576 Y111.855 E17.54692
G0 F1350 X95.738 Y111.989
G0 X96.272 Y112.239
G0 F7500 X96.397 Y111.856
;TYPE:WALL-OUTER
G1 F1500 X96.877 Y111.948 E17.56236
G1 X97.366 Y111.917 E17.57784
G1 X97.831 Y111.765 E17.5933
G1 X98.243 Y111.503 E17.60873
G1 X98.579 Y111.148 E17.62417
G1 X98.814 Y110.718 E17.63965
G1 X98.936 Y110.244 E17.65512
G1 X98.936 Y109.773 E17.67
G1 X98.815 Y109.283 E17.68595
G1 X98.579 Y108.852 E17.70147
G1 X98.243 Y108.497 E17.71692
G1 X97.831 Y108.235 E17.73235
G1 X97.366 Y108.083 E17.7478
G1 X96.877 Y108.052 E17.76329
G1 X96.397 Y108.144 E17.77873
G1 X95.954 Y108.352 E17.79419
G1 X95.577 Y108.664 E17.80966
G1 X95.289 Y109.06 E17.82513
G1 X95.11 Y109.515 E17.84058
G1 X95.048 Y110 E17.85603
G1 X95.11 Y110.485 E17.87147
G1 X95.289 Y110.94 E17.88692
G1 X95.577 Y111.336 E17.9024
G1 X95.715 Y111.45 E17.90805
G0 F1350 X95.954 Y111.648
G0 X96.397 Y111.856
G0 F7500 X96.79 Y111.931
G0 X96.708 Y112.363
G1 F1500 E11.90805
G0 F7500 X107.566 Y110.601
;TYPE:WALL-INNER
G1 F1500 E17.90805
G1 X107.78 Y111.164 E17.92808
G1 X108.122 Y111.663 E17.9482
G1 X108.576 Y112.064 E17.96835
G1 X109.11 Y112.345 E17.98842
G1 X109.697 Y112.489 E18.00852
G1 X110.301 Y112.489 E18.02861
G1 X110.89 Y112.345 E18.04878
G1 X111.424 Y112.064 E18.06885
G1 X111.878 Y111.663 E18.089
G1 X112.22 Y111.164 E18.10912
G1 X112.434 Y110.601 E18.12915
G1 X112.507 Y110 E18.14929
G1 X112.434 Y109.399 E18.16942
G1 X112.22 Y108.836 E18.18946
G1 X111.878 Y108.337 E18.20958
G1 X111.424 Y107.936 E18.22972
G1 X110.89 Y107.655 E18.24979
G1 X110.301 Y107.511 E18.26996
G1 X109.699 Y107.511 E18.28998
G1 X109.11 Y107.655 E18.31015
G1 X108.576 Y107.936 E18.33022
G1 X108.122 Y108.337 E18.35037
G1 X107.78 Y108.836 E18.37049
G1 X107.566 Y109.399 E18.39052
G1 X107.516 Y109.807 E18.40419
G0 F1350 X107.493 Y110
G0 X107.566 Y110.601
G0 F7500 X107.957 Y110.504
G1 F1500 X108.137 Y110.977 E18.42102
G1 X108.424 Y111.396 E18.43792
G1 X108.805 Y111.732 E18.45481
G1 X109.253 Y111.968 E18.47165
G1 X109.745 Y112.089 E18.48851
G1 X110.253 Y112.089 E18.5054
G1 X110.747 Y111.968 E18.52232
G1 X111.195 Y111.732 E18.53916
G1 X111.576 Y111.396 E18.55605
G1 X111.863 Y110.977 E18.57295
G1 X112.043 Y110.504 E18.58978
G1 X112.104 Y110 E18.60666
G1 X112.043 Y109.496 E18.62355
G1 X111.863 Y109.023 E18.64038
G1 X111.576 Y108.604 E18.65727
G1 X111.195 Y108.268 E18.67417
G1 X110.747 Y108.032 E18.69101
G1 X110.253 Y107.911 E18.70793
G1 X109.747 Y107.911 E18.72476
G1 X109.253 Y108.032 E18.74167
G1 X108.805 Y108.268 E18.75852
G1 X108.424 Y108.604 E18.77541
G1 X108.137 Y109.023 E18.7923
G1 X107.957 Y109.496 E18.80914
G1 X107.931 Y109.709 E18.81627
G0 F1350 X107.896 Y110
G0 X107.957 Y110.504
G0 F7500 X108.348 Y110.407
;TYPE:WALL-OUTER
G1 F1500 X108.494 Y110.79 E18.82922
G1 X108.726 Y111.129 E18.8422
G1 X109.034 Y111.4 E18.85517
G1 X109.396 Y111.591 E18.8681
G1 X109.794 Y111.689 E18.88105
G1 X110.205 Y111.689 E18.89404
G1 X110.604 Y111.591 E18.90702
G1 X110.966 Y111.4 E18.91995
G1 X111.274 Y111.129 E18.93291
G1 X111.506 Y110.79 E18.94589
G1 X111.652 Y110.407 E18.95885
G1 X111.701 Y110 E18.9718
G1 X111.652 Y109.593 E18.98475
G1 X111.506 Y109.21 E18.9977
G1 X111.274 Y108.871 E19.01068
G1 X110.966 Y108.6 E19.02364
G1 X110.604 Y108.409 E19.03658
G1 X110.205 Y108.311 E19.04956
G1 X109.795 Y108.311 E19.06251
G1 X109.396 Y108.409 E19.0755
G1 X109.034 Y108.6 E19.08843
G1 X108.726 Y108.871 E19.10139
G1 X108.494 Y109.21 E19.11437
G1 X108.348 Y109.593 E19.12732
G1 X108.34 Y109.653 E19.12923
G0 F1350 X108.299 Y110
G0 X108.348 Y110.407
G0 F7500 X108.49 Y110.781
G0 X108.078 Y110.938
G1 F1500 E13.12923
G0 F7500 X125.736 Y109.675
;TYPE:WALL-INNER
G1 F1500 E19.12923
G1 X125.567 Y108.99 E19.1527
G1 X125.231 Y108.378 E19.17592
G1 X124.756 Y107.875 E19.19893
G1 X124.175 Y107.505 E19.22184
G1 X123.518 Y107.291 E19.24482
G1 X122.827 Y107.248 E19.26785
G1 X122.148 Y107.378 E19.29085
G1 X121.522 Y107.67 E19.31382
G1 X120.989 Y108.112 E19.33685
G1 X120.581 Y108.672 E19.3599
G1 X120.33 Y109.315 E19.38285
G1 X120.242 Y110 E19.40582
G1 X120.33 Y110.685 E19.42879
G1 X120.581 Y111.328 E19.45175
G1 X120.989 Y111.888 E19.4748
G1 X121.522 Y112.33 E19.49783
G1 X122.148 Y112.622 E19.5208
G1 X122.827 Y112.752 E19.5438
G1 X123.518 Y112.709 E19.56682
G1 X124.175 Y112.495 E19.5898
G1 X124.756 Y112.125 E19.61271
G1 X125.231 Y111.622 E19.63572
G1 X125.564 Y111.014 E19.65878
G1 X125.704 Y110.471 E19.67743
G0 F1350 X125.736 Y110.346
G0 X125.736 Y109.675
G0 F7500 X125.336 Y109.724
G1 F1500 X125.191 Y109.137 E19.69754
G1 X124.905 Y108.615 E19.71734
G1 X124.499 Y108.186 E19.73698
G1 X124.003 Y107.87 E19.75655
G1 X123.442 Y107.687 E19.77617
G1 X122.852 Y107.65 E19.79583
G1 X122.272 Y107.761 E19.81548
G1 X121.738 Y108.011 E19.83509
G1 X121.283 Y108.388 E19.85474
G1 X120.935 Y108.866 E19.8744
G1 X120.72 Y109.415 E19.89401
G1 X120.645 Y110 E19.91363
G1 X120.72 Y110.585 E19.93325
G1 X120.935 Y111.134 E19.95286
G1 X121.283 Y111.612 E19.97252
G1 X121.738 Y111.989 E19.99218
G1 X122.272 Y112.239 E20.01179
G1 X122.852 Y112.35 E20.03143
G1 X123.442 Y112.313 E20.05109
G1 X124.003 Y112.13 E20.07072
G1 X124.499 Y111.814 E20.09028
G1 X124.905 Y111.385 E20.10992
G1 X125.189 Y110.866 E20.1296
G1 X125.279 Y110.517 E20.14159
G0 F1350 X125.336 Y110.295
G0 X125.336 Y109.724
G0 F7500 X124.936 Y109.773
;TYPE:WALL-OUTER
G1 F1500 X124.815 Y109.283 E20.15754
G1 X124.579 Y108.852 E20.17306
G1 X124.243 Y108.497 E20.18851
G1 X123.831 Y108.235 E20.20393
