;FLAVOR:Marlin
;TIME:3044
;Filament used: 1.57782m
;Layer height: 0.2
;MINX:81
;MINY:92
;MINZ:0.2
;MAXX:139
;MAXY:128
;MAXZ:27
;Generated with Cura_SteamEngine 4.4.1
M140 S60
M105
M190 S60
M104 S205
M105
M109 S205
M82 ;absolute extrusion mode
M201 X500.00 Y500.00 Z100.00 E5000.00 ;Setup machine max acceleration
M203 X500.00 Y500.00 Z10.00 E50.00 ;Setup machine max feedrate
M204 P500.00 R1000.00 T500.00 ;Setup Print/Retract/Travel acceleration
M205 X8.00 Y8.00 Z0.40 E5.00 ;Setup Jerk
M220 S100 ;Reset Feedrate
M221 S100 ;Reset Flowrate

G28 ;Home

G92 E0 ;Reset Extruder
G1 Z2.0 F3000 ;Move Z Axis up
G1 X10.1 Y20 Z0.28 F5000.0 ;Move to start position
G1 X10.1 Y200.0 Z0.28 F1500.0 E15 ;Draw the first line
G1 X10.4 Y200.0 Z0.28 F5000.0 ;Move to side a little
G1 X10.4 Y20 Z0.28 F1500.0 E30 ;Draw the second line
G92 E0 ;Reset Extruder
G1 Z2.0 F3000 ;Move Z Axis up

G92 E0
G92 E0
G1 F1500 E-6
;LAYER_COUNT:135
;LAYER:0
M107
M204 S500
M205 X20 Y20
G0 F7500 X84.886 Y94.627 Z0.2
;TYPE:SKIRT
G1 F1500 E0
G1 X85.626 Y94.051 E0.03119
G1 X86.412 Y93.539 E0.06239
G1 X87.239 Y93.097 E0.09358
G1 X88.101 Y92.727 E0.12478
G1 X88.991 Y92.431 E0.15597
G1 X89.903 Y92.213 E0.18716
G1 X90.83 Y92.072 E0.21835
G1 X91.701 Y92.013 E0.24738
G1 X92.022 Y92.004 E0.25806
G1 X92.33 Y92 E0.26831
G1 X127.293 Y92 E1.43118
G1 X127.451 Y92.001 E1.43644
G1 X128.149 Y92.011 E1.45966
G1 X129.085 Y92.065 E1.49084
G1 X130.013 Y92.197 E1.52202
G1 X130.927 Y92.409 E1.55322
G1 X131.819 Y92.698 E1.58441
G1 X132.684 Y93.061 E1.61561
G1 X133.514 Y93.497 E1.64679
G1 X134.305 Y94.002 E1.67801
G1 X135.049 Y94.573 E1.7092
G1 X135.742 Y95.205 E1.74039
G1 X136.379 Y95.893 E1.77158
G1 X136.954 Y96.634 E1.80277
G1 X137.465 Y97.42 E1.83396
G1 X137.907 Y98.248 E1.86517
G1 X138.276 Y99.11 E1.89636
G1 X138.571 Y100 E1.92755
G1 X138.789 Y100.912 E1.95873
G1 X138.929 Y101.84 E1.98995
G1 X138.987 Y102.701 E2.01865
G1 X138.996 Y103.021 E2.0293
G1 X139 Y103.33 E2.03958
G1 X139 Y116.264 E2.46976
G1 X138.999 Y116.4 E2.47429
G1 X138.99 Y117.127 E2.49847
G1 X138.939 Y118.064 E2.52968
G1 X138.807 Y118.992 E2.56085
G1 X138.598 Y119.906 E2.59204
G1 X138.311 Y120.799 E2.62324
G1 X137.949 Y121.665 E2.65446
G1 X137.515 Y122.496 E2.68564
G1 X137.011 Y123.287 E2.71683
G1 X136.442 Y124.032 E2.74801
G1 X135.811 Y124.727 E2.77923
G1 X135.124 Y125.365 E2.81042
G1 X134.385 Y125.942 E2.8416
G1 X133.599 Y126.454 E2.8728
G1 X132.773 Y126.897 E2.90397
G1 X131.911 Y127.269 E2.9352
G1 X131.022 Y127.565 E2.96637
G1 X130.11 Y127.785 E2.99757
G1 X129.183 Y127.926 E3.02876
G1 X128.299 Y127.987 E3.05823
G1 X127.978 Y127.996 E3.06891
G1 X127.67 Y128 E3.07915
G1 X92.707 Y128 E4.24203
G1 X92.565 Y127.999 E4.24675
G1 X91.867 Y127.99 E4.26997
G1 X90.931 Y127.938 E4.30115
G1 X90.002 Y127.806 E4.33236
G1 X89.088 Y127.596 E4.36355
G1 X88.195 Y127.309 E4.39475
G1 X87.33 Y126.946 E4.42595
G1 X86.499 Y126.512 E4.45713
G1 X85.708 Y126.008 E4.48832
G1 X84.963 Y125.438 E4.51952
G1 X84.269 Y124.807 E4.55072
G1 X83.632 Y124.12 E4.58188
G1 X83.055 Y123.38 E4.61309
G1 X82.543 Y122.594 E4.64429
G1 X82.1 Y121.767 E4.67549
G1 X81.729 Y120.906 E4.70668
G1 X81.433 Y120.016 E4.73787
G1 X81.214 Y119.104 E4.76907
G1 X81.073 Y118.177 E4.80025
G1 X81.013 Y117.288 E4.82989
G1 X81.004 Y116.955 E4.84097
G1 X81 Y116.658 E4.85085
G1 X81 Y103.674 E5.2827
G1 X81.001 Y103.525 E5.28765
G1 X81.01 Y102.86 E5.30977
G1 X81.063 Y101.924 E5.34096
G1 X81.195 Y100.995 E5.37216
G1 X81.406 Y100.081 E5.40336
G1 X81.694 Y99.189 E5.43454
G1 X82.057 Y98.324 E5.46574
G1 X82.492 Y97.493 E5.49694
G1 X82.996 Y96.703 E5.52811
G1 X83.566 Y95.958 E5.5593
G1 X84.198 Y95.264 E5.59052
G1 X84.299 Y95.17 E5.59511
G0 F1350 X84.886 Y94.627
G0 F7500 X85.274 Y94.823
G1 F1500 X86.01 Y94.27 E5.62573
G1 X86.791 Y93.782 E5.65636
G1 X87.611 Y93.364 E5.68697
G1 X88.465 Y93.019 E5.71761
G1 X89.345 Y92.749 E5.74822
G1 X90.245 Y92.557 E5.77883
G1 X91.159 Y92.443 E5.80947
G1 X91.712 Y92.413 E5.82789
G1 X92.033 Y92.404 E5.83857
G1 X92.33 Y92.4 E5.84845
G1 X127.293 Y92.4 E7.01132
G1 X127.445 Y92.401 E7.01638
G1 X128.143 Y92.411 E7.0396
G1 X129.062 Y92.464 E7.07021
G1 X129.973 Y92.597 E7.10083
G1 X130.869 Y92.808 E7.13145
G1 X131.743 Y93.096 E7.16206
G1 X132.59 Y93.459 E7.19271
G1 X133.401 Y93.894 E7.22332
G1 X134.171 Y94.398 E7.25392
G1 X134.895 Y94.967 E7.28455
G1 X135.567 Y95.597 E7.31519
G1 X136.182 Y96.282 E7.34581
G1 X136.735 Y97.018 E7.37643
G1 X137.222 Y97.799 E7.40704
G1 X137.639 Y98.62 E7.43767
G1 X137.984 Y99.474 E7.4683
G1 X138.253 Y100.354 E7.49891
G1 X138.445 Y101.255 E7.52955
G1 X138.558 Y102.168 E7.56014
G1 X138.587 Y102.712 E7.57826
G1 X138.596 Y103.032 E7.58891
G1 X138.6 Y103.33 E7.59882
G1 X138.6 Y116.264 E8.02901
G1 X138.599 Y116.395 E8.03337
G1 X138.59 Y117.122 E8.05755
G1 X138.539 Y118.041 E8.08816
G1 X138.408 Y118.953 E8.11881
G1 X138.198 Y119.849 E8.14941
G1 X137.912 Y120.724 E8.18003
G1 X137.551 Y121.571 E8.21066
G1 X137.117 Y122.383 E8.24128
G1 X136.615 Y123.155 E8.27191
G1 X136.047 Y123.88 E8.30254
G1 X135.419 Y124.553 E8.33316
G1 X134.735 Y125.169 E8.36377
G1 X134 Y125.723 E8.39438
G1 X133.22 Y126.212 E8.425
G1 X132.4 Y126.631 E8.45563
G1 X131.547 Y126.977 E8.48625
G1 X130.667 Y127.248 E8.51687
G1 X129.767 Y127.441 E8.54749
G1 X128.853 Y127.556 E8.57813
G1 X128.288 Y127.587 E8.59695
G1 X127.967 Y127.596 E8.60763
G1 X127.67 Y127.6 E8.61751
G1 X92.707 Y127.6 E9.78038
G1 X92.57 Y127.599 E9.78494
G1 X91.872 Y127.59 E9.80816
G1 X90.953 Y127.538 E9.83877
G1 X90.042 Y127.407 E9.86938
G1 X89.146 Y127.197 E9.89999
G1 X88.271 Y126.91 E9.93062
G1 X87.424 Y126.548 E9.96125
G1 X86.612 Y126.114 E9.99188
G1 X85.841 Y125.612 E10.02248
G1 X85.116 Y125.044 E10.05311
G1 X84.443 Y124.415 E10.08375
G1 X83.828 Y123.731 E10.11434
G1 X83.274 Y122.996 E10.14496
G1 X82.786 Y122.215 E10.17559
G1 X82.367 Y121.395 E10.20621
G1 X82.021 Y120.542 E10.23683
G1 X81.751 Y119.662 E10.26744
G1 X81.558 Y118.761 E10.29809
G1 X81.444 Y117.848 E10.32869
G1 X81.413 Y117.277 E10.34771
G1 X81.404 Y116.944 E10.35879
G1 X81.4 Y116.658 E10.36831
G1 X81.4 Y103.674 E10.80016
G1 X81.401 Y103.531 E10.80491
G1 X81.41 Y102.866 E10.82703
G1 X81.462 Y101.946 E10.85768
G1 X81.594 Y101.035 E10.8883
G1 X81.805 Y100.139 E10.91891
G1 X82.092 Y99.264 E10.94954
G1 X82.455 Y98.418 E10.98016
G1 X82.889 Y97.606 E11.01078
G1 X83.392 Y96.835 E11.0414
G1 X83.961 Y96.111 E11.07203
G1 X84.589 Y95.439 E11.10262
G1 X84.679 Y95.358 E11.10665
G0 F1350 X85.274 Y94.823
G0 F7500 X85.662 Y95.024
G1 F1500 X86.394 Y94.494 E11.13671
G1 X87.169 Y94.031 E11.16673
G1 X87.982 Y93.638 E11.19677
G1 X88.827 Y93.318 E11.22682
G1 X89.696 Y93.075 E11.25683
G1 X90.584 Y92.909 E11.28688
G1 X91.723 Y92.813 E11.32489
G1 X92.044 Y92.804 E11.33558
G1 X92.33 Y92.8 E11.34509
G1 X127.293 Y92.8 E12.50796
G1 X127.439 Y92.801 E12.51282
G1 X128.137 Y92.811 E12.53604
G1 X129.039 Y92.864 E12.56609
G1 X129.932 Y92.996 E12.59611
G1 X130.81 Y93.207 E12.62615
G1 X131.666 Y93.495 E12.65619
G1 X132.493 Y93.857 E12.68621
G1 X133.285 Y94.292 E12.71627
G1 X134.036 Y94.794 E12.74631
G1 X134.739 Y95.361 E12.77635
G1 X135.389 Y95.988 E12.80639
G1 X135.981 Y96.67 E12.83642
G1 X136.511 Y97.401 E12.86646
G1 X136.973 Y98.177 E12.89649
G1 X137.366 Y98.99 E12.92653
G1 X137.684 Y99.835 E12.95656
G1 X137.927 Y100.705 E12.9866
G1 X138.092 Y101.593 E13.01664
G1 X138.187 Y102.723 E13.05436
G1 X138.196 Y103.043 E13.06501
G1 X138.2 Y103.33 E13.07455
G1 X138.2 Y116.264 E13.50474
G1 X138.199 Y116.39 E13.50893
G1 X138.19 Y117.117 E13.53311
G1 X138.139 Y118.019 E13.56316
G1 X138.008 Y118.913 E13.59321
G1 X137.799 Y119.791 E13.62323
G1 X137.513 Y120.648 E13.65328
G1 X137.152 Y121.476 E13.68332
G1 X136.72 Y122.268 E13.71333
G1 X136.219 Y123.02 E13.74338
G1 X135.653 Y123.724 E13.77343
G1 X135.028 Y124.375 E13.80344
G1 X134.347 Y124.969 E13.8335
G1 X133.616 Y125.5 E13.86355
G1 X132.842 Y125.964 E13.89356
G1 X132.029 Y126.358 E13.92361
G1 X131.185 Y126.678 E13.95363
G1 X130.315 Y126.923 E13.9837
G1 X129.428 Y127.089 E14.01371
G1 X128.277 Y127.187 E14.05213
G1 X127.956 Y127.196 E14.06281
G1 X127.67 Y127.2 E14.07232
G1 X92.707 Y127.2 E15.2352
G1 X92.575 Y127.199 E15.23959
G1 X91.877 Y127.19 E15.26281
G1 X90.976 Y127.139 E15.29282
G1 X90.082 Y127.007 E15.32288
G1 X89.204 Y126.798 E15.3529
G1 X88.347 Y126.511 E15.38296
G1 X87.52 Y126.15 E15.41297
G1 X86.727 Y125.717 E15.44302
G1 X85.976 Y125.216 E15.47305
G1 X85.272 Y124.65 E15.50309
G1 X84.621 Y124.024 E15.53313
G1 X84.028 Y123.343 E15.56316
G1 X83.498 Y122.612 E15.5932
G1 X83.034 Y121.837 E15.62324
G1 X82.64 Y121.024 E15.65329
G1 X82.32 Y120.18 E15.68331
G1 X82.076 Y119.31 E15.71336
G1 X81.91 Y118.422 E15.74341
G1 X81.813 Y117.267 E15.78196
G1 X81.804 Y116.934 E15.79304
G1 X81.8 Y116.658 E15.80222
G1 X81.8 Y103.674 E16.23407
G1 X81.801 Y103.536 E16.23866
G1 X81.81 Y102.871 E16.26078
G1 X81.862 Y101.969 E16.29083
G1 X81.994 Y101.076 E16.32085
G1 X82.204 Y100.198 E16.35088
G1 X82.491 Y99.341 E16.38094
G1 X82.853 Y98.514 E16.41097
G1 X83.286 Y97.722 E16.44099
G1 X83.788 Y96.971 E16.47103
G1 X84.355 Y96.267 E16.5011
G1 X84.981 Y95.617 E16.53111
G1 X85.059 Y95.549 E16.53455
G0 F1350 X85.662 Y95.024
G1 F1500 E10.53455
;MESH:soporte_para_base_mini_breadboard.stl
G0 F7500 X95.732 Y106.625
;TYPE:WALL-INNER
G1 F1500 E16.53455
G1 X94.963 Y107.027 E16.56341
G1 X94.311 Y107.6 E16.59228
G1 X93.817 Y108.313 E16.62113
G1 X93.506 Y109.122 E16.64996
G1 X93.398 Y109.981 E16.67876
G1 X93.495 Y110.843 E16.70761
G1 X93.799 Y111.656 E16.73648
G1 X94.288 Y112.373 E16.76534
G1 X94.935 Y112.952 E16.79422
G1 X95.7 Y113.36 E16.82306
G1 X96.539 Y113.573 E16.85185
G1 X97.408 Y113.58 E16.88075
G1 X98.251 Y113.379 E16.90958
G1 X99.021 Y112.981 E16.93841
G1 X99.676 Y112.412 E16.96726
G1 X100.174 Y111.701 E16.99614
G1 X100.488 Y110.894 E17.02494
G1 X100.596 Y110.072 E17.05251
G1 X100.597 Y109.941 E17.05687
G1 X100.501 Y109.14 E17.0837
G1 X100.193 Y108.329 E17.11255
G1 X99.702 Y107.614 E17.1414
G1 X99.052 Y107.038 E17.17029
G1 X98.286 Y106.634 E17.19909
G1 X97.444 Y106.424 E17.22795
G1 X96.577 Y106.42 E17.25679
G1 X96.509 Y106.437 E17.25912
G0 F1350 X95.732 Y106.625
G0 F7500 X95.874 Y107.002
;TYPE:WALL-OUTER
G1 F1500 X95.191 Y107.359 E17.28347
G1 X94.612 Y107.868 E17.30783
G1 X94.173 Y108.501 E17.33217
G1 X93.897 Y109.22 E17.35651
G1 X93.801 Y109.984 E17.38084
G1 X93.887 Y110.749 E17.40516
G1 X94.157 Y111.471 E17.42952
G1 X94.591 Y112.107 E17.45385
G1 X95.166 Y112.622 E17.47824
G1 X95.845 Y112.984 E17.50255
G1 X96.591 Y113.173 E17.52687
G1 X97.363 Y113.18 E17.55126
G1 X98.111 Y113.001 E17.57556
G1 X98.795 Y112.648 E17.59988
G1 X99.377 Y112.142 E17.62425
G1 X99.819 Y111.511 E17.64859
G1 X100.098 Y110.794 E17.6729
G1 X100.196 Y110.044 E17.6968
G1 X100.197 Y109.962 E17.69939
G1 X100.11 Y109.236 E17.7225
G1 X99.836 Y108.516 E17.74684
G1 X99.4 Y107.881 E17.77118
G1 X98.823 Y107.369 E17.79555
G1 X98.142 Y107.01 E17.81988
G1 X97.394 Y106.824 E17.84423
G1 X96.653 Y106.82 E17.86764
G0 F1350 X96.624 Y106.82
G0 X95.874 Y107.002
G0 F7500 X95.52 Y107.187
G0 X95.317 Y106.796
G1 F1500 E11.86764
G0 F7500 X107.773 Y111.148
;TYPE:WALL-INNER
G1 F1500 E17.86764
G1 X108.113 Y111.652 E17.88787
G1 X108.563 Y112.052 E17.90789
G1 X109.094 Y112.338 E17.92795
G1 X109.681 Y112.486 E17.94809
G1 X110.284 Y112.489 E17.96814
G1 X110.873 Y112.351 E17.98826
G1 X111.41 Y112.071 E18.00841
G1 X111.865 Y111.677 E18.02842
G1 X112.212 Y111.178 E18.04864
G1 X112.429 Y110.615 E18.06871
G1 X112.505 Y110.019 E18.08869
G1 X112.438 Y109.418 E18.1088
G1 X112.227 Y108.852 E18.12889
G1 X111.887 Y108.348 E18.14912
G1 X111.437 Y107.948 E18.16914
G1 X110.906 Y107.662 E18.1892
G1 X110.319 Y107.514 E18.20934
G1 X109.716 Y107.511 E18.22939
G1 X109.127 Y107.649 E18.24951
G1 X108.59 Y107.929 E18.26966
G1 X108.135 Y108.323 E18.28967
G1 X107.788 Y108.822 E18.30989
G1 X107.571 Y109.385 E18.32996
G1 X107.495 Y109.981 E18.34994
G1 X107.541 Y110.387 E18.36353
G0 F1350 X107.562 Y110.582
G0 X107.773 Y111.148
G0 F7500 X108.131 Y110.964
G1 F1500 X108.416 Y111.386 E18.38047
G1 X108.794 Y111.722 E18.39729
G1 X109.24 Y111.962 E18.41413
G1 X109.732 Y112.086 E18.43101
G1 X110.239 Y112.089 E18.44787
G1 X110.733 Y111.973 E18.46475
G1 X111.183 Y111.738 E18.48164
G1 X111.565 Y111.407 E18.49845
G1 X111.856 Y110.989 E18.51539
G1 X112.038 Y110.516 E18.53224
G1 X112.102 Y110.016 E18.54901
G1 X112.046 Y109.511 E18.56591
G1 X111.869 Y109.036 E18.58277
G1 X111.584 Y108.614 E18.59971
G1 X111.206 Y108.278 E18.61653
G1 X110.76 Y108.038 E18.63337
G1 X110.268 Y107.914 E18.65025
G1 X109.761 Y107.911 E18.66711
G1 X109.267 Y108.027 E18.68399
G1 X108.817 Y108.262 E18.70087
G1 X108.435 Y108.593 E18.71768
G1 X108.144 Y109.011 E18.73462
G1 X107.962 Y109.484 E18.75148
G1 X107.898 Y109.984 E18.76825
G1 X107.922 Y110.197 E18.77538
G0 F1350 X107.954 Y110.489
G0 X108.131 Y110.964
G0 F7500 X108.489 Y110.78
;TYPE:WALL-OUTER
G1 F1500 X108.719 Y111.12 E18.78835
G1 X109.025 Y111.392 E18.80128
G1 X109.386 Y111.586 E18.81423
G1 X109.783 Y111.686 E18.82717
G1 X110.194 Y111.689 E18.84015
G1 X110.592 Y111.595 E18.85308
G1 X110.956 Y111.405 E18.86605
G1 X111.265 Y111.137 E18.87897
G1 X111.5 Y110.8 E18.89196
G1 X111.647 Y110.417 E18.90492
G1 X111.699 Y110.012 E18.91782
G1 X111.654 Y109.604 E18.93079
G1 X111.511 Y109.22 E18.94374
G1 X111.281 Y108.88 E18.95671
G1 X110.975 Y108.608 E18.96964
G1 X110.614 Y108.414 E18.98259
G1 X110.217 Y108.314 E18.99553
G1 X109.806 Y108.311 E19.00852
G1 X109.408 Y108.405 E19.02144
G1 X109.044 Y108.595 E19.03441
G1 X108.735 Y108.863 E19.04734
G1 X108.5 Y109.2 E19.06032
G1 X108.353 Y109.583 E19.07328
G1 X108.301 Y109.988 E19.08618
G1 X108.308 Y110.049 E19.08812
G0 F1350 X108.346 Y110.396
G0 X108.489 Y110.78
G0 F7500 X108.713 Y111.111
G0 X108.349 Y111.357
G1 F1500 E13.08812
G0 F7500 X127 Y116
;TYPE:WALL-INNER
G1 F1500 E19.08812
G1 X93 Y116 E20.21897
G1 X93 Y110.019 E20.4179
G1 X93.103 Y110.937 E20.44862
G1 X93.441 Y111.841 E20.48072
G1 X93.985 Y112.639 E20.51284
G1 X94.704 Y113.282 E20.54492
G1 X95.555 Y113.736 E20.577
G1 X96.487 Y113.973 E20.60899
G1 X97.453 Y113.98 E20.64112
G1 X98.391 Y113.757 E20.67319
G1 X99.247 Y113.314 E20.70524
G1 X99.975 Y112.682 E20.73731
G1 X100.529 Y111.891 E20.76943
G1 X100.878 Y110.994 E20.80144
G1 X100.996 Y110.1 E20.83143
G1 X100.997 Y109.919 E20.83745
G1 X100.892 Y109.044 E20.86677
G1 X100.55 Y108.142 E20.89885
G1 X100.004 Y107.347 E20.93093
G1 X99.281 Y106.707 E20.96304
G1 X98.43 Y106.258 E20.99505
G1 X97.494 Y106.024 E21.02713
G1 X96.53 Y106.02 E21.0592
G1 X95.59 Y106.248 E21.09137
G1 X94.735 Y106.695 E21.12346
G1 X94.01 Y107.332 E21.15556
G1 X93.461 Y108.125 E21.18764
G1 X93.115 Y109.024 E21.21968
G1 X93 Y109.938 E21.25031
G1 X93 Y104 E21.44781
G1 X127 Y104 E22.57866
G1 X127 Y115.2 E22.95117
G0 F1350 X127 Y116
G1 F1500 E16.95117
G0 F7500 X125.021 Y112.981
G1 F1500 E22.95117
G1 X125.676 Y112.412 E22.98003
G1 X126.174 Y111.701 E23.0089
G1 X126.488 Y110.894 E23.0377
G1 X126.596 Y110.072 E23.06528
G1 X126.597 Y109.941 E23.06963
G1 X126.501 Y109.14 E23.09647
G1 X126.193 Y108.329 E23.12532
G1 X125.702 Y107.614 E23.15417
G1 X125.052 Y107.038 E23.18305
G1 X124.286 Y106.634 E23.21186
G1 X123.444 Y106.424 E23.24072
G1 X122.577 Y106.42 E23.26956
G1 X121.732 Y106.625 E23.29848
G1 X120.963 Y107.027 E23.32734
G1 X120.311 Y107.6 E23.35621
G1 X119.817 Y108.313 E23.38506
G1 X119.506 Y109.122 E23.41389
G1 X119.398 Y109.981 E23.44268
G1 X119.495 Y110.843 E23.47153
G1 X119.799 Y111.656 E23.5004
G1 X120.288 Y112.373 E23.52927
G1 X120.935 Y112.952 E23.55815
G1 X121.7 Y113.36 E23.58698
G1 X122.539 Y113.573 E23.61577
G1 X123.408 Y113.58 E23.64468
G1 X124.251 Y113.379 E23.6735
G1 X124.31 Y113.348 E23.67572
G0 F1350 X125.021 Y112.981
G1 F1500 E17.67572
G0 F7500 X126.098 Y110.794
;TYPE:WALL-OUTER
G1 F1500 E23.67572
G1 X126.196 Y110.044 E23.69962
G1 X126.197 Y109.962 E23.70221
G1 X126.11 Y109.236 E23.72531
G1 X125.836 Y108.516 E23.74965
G1 X125.4 Y107.881 E23.77399
G1 X124.823 Y107.369 E23.79837
G1 X124.142 Y107.01 E23.82269
G1 X123.394 Y106.824 E23.84704
G1 X122.624 Y106.82 E23.87137
G1 X121.874 Y107.002 E23.89576
G1 X121.191 Y107.359 E23.92011
G1 X120.612 Y107.868 E23.94447
G1 X120.173 Y108.501 E23.96881
