;FLAVOR:Marlin
M117 Time Left 1h18m49s
;TIME:4729
;Filament used: 2.49192m
;Layer height: 0.2
;MINX:68.57
;MINY:101.05
;MINZ:0.2
;MAXX:166.428
;MAXY:133.95
;MAXZ:18.4
;POSTPROCESSED
;Generated with Cura_SteamEngine 4.8.0
M140 S60
M105
M190 S60
M104 S205
M105
M109 S205
M82 ;absolute extrusion mode
; Ender 3 Custom Start G-code
G92 E0 ; Reset Extruder
G28 ; Home all axes
; ***SET NEW E STEP *** (93 is factory value - 95 mine - start)
G90                          ; Force coordinates to be absolute relative to the origin
M92 E95 ;					 ; ***SET NEW E STEP *** (93 is factory value - 95 mine - end)
G90                          ; Force coordinates to be absolute relative to the origin
G28                          ; Home X/Y/Z axis
G92 E0 ; Reset Extruder
G28 ; Home all axes
G1 Z2.0 F3000 ; Move Z Axis up little to prevent scratching of Heat Bed
G1 X0.1 Y20 Z0.3 F5000.0 ; Move to start position
G1 X0.1 Y200.0 Z0.3 F1500.0 E15 ; Draw the first line
G1 X0.4 Y200.0 Z0.3 F5000.0 ; Move to side a little
G1 X0.4 Y20 Z0.3 F1500.0 E30 ; Draw the second line
G92 E0 ; Reset Extruder
G1 Z2.0 F3000 ; Move Z Axis up little to prevent scratching of Heat Bed
G1 X5 Y20 Z0.3 F5000.0 ; Move over to prevent blob squish
G92 E0
G92 E0
G1 F2700 E-5
;LAYER_COUNT:92
;LAYER:0
M107
G0 F6000 X75.187 Y104.32 Z0.2
;TYPE:SKIRT
G1 F2700 E0
G1 F1200 X75.607 Y104.022 E0.01713
G1 X76.134 Y103.667 E0.03826
G1 X77.212 Y103.027 E0.07996
G1 X77.422 Y102.918 E0.08783
G1 X77.876 Y102.695 E0.10465
G1 X78.22 Y102.539 E0.11722
G1 X78.56 Y102.39 E0.12956
G1 X78.878 Y102.257 E0.14103
G1 X79.172 Y102.139 E0.15156
G1 X80.401 Y101.727 E0.19468
G1 X80.638 Y101.663 E0.20284
G1 X81.018 Y101.568 E0.21587
G1 X81.72 Y101.405 E0.23984
G1 X83.013 Y101.185 E0.28346
G1 X83.196 Y101.165 E0.28958
G1 X83.672 Y101.124 E0.30547
G1 X84.252 Y101.086 E0.32481
G1 X84.817 Y101.063 E0.34361
G1 X85.83 Y101.05 E0.37731
G1 X149.291 Y101.05 E2.48803
G1 X150.153 Y101.061 E2.5167
G1 X150.575 Y101.075 E2.53075
G1 X150.891 Y101.092 E2.54127
G1 X151.373 Y101.129 E2.55735
G1 X151.783 Y101.167 E2.57105
G1 X152.747 Y101.3 E2.60341
G1 X152.829 Y101.315 E2.60619
G1 X153.288 Y101.409 E2.62177
G1 X154.014 Y101.574 E2.64653
G1 X155.022 Y101.854 E2.68133
G1 X155.31 Y101.949 E2.69141
G1 X155.949 Y102.182 E2.71404
G1 X156.114 Y102.248 E2.71995
G1 X156.528 Y102.423 E2.7349
G1 X157.03 Y102.648 E2.75319
G1 X158.023 Y103.155 E2.79028
G1 X158.48 Y103.43 E2.80802
G1 X158.939 Y103.721 E2.82609
G1 X159.216 Y103.902 E2.8371
G1 X159.442 Y104.055 E2.84617
G1 X160.22 Y104.634 E2.87843
G1 X160.473 Y104.84 E2.88928
G1 X160.945 Y105.247 E2.91001
G1 X161.083 Y105.373 E2.91623
G1 X161.325 Y105.601 E2.92728
G1 X161.659 Y105.925 E2.94276
G1 X162.283 Y106.582 E2.9729
G1 X162.373 Y106.685 E2.97745
G1 X162.82 Y107.231 E3.00092
G1 X163.109 Y107.608 E3.01672
G1 X163.297 Y107.861 E3.0272
G1 X163.536 Y108.192 E3.04078
G1 X164.052 Y108.975 E3.07197
G1 X164.345 Y109.494 E3.09179
G1 X164.627 Y110.028 E3.11188
G1 X164.802 Y110.373 E3.12474
G1 X165.099 Y111.029 E3.14869
G1 X165.239 Y111.367 E3.16086
G1 X165.498 Y112.056 E3.18534
G1 X165.626 Y112.435 E3.19865
G1 X165.735 Y112.779 E3.21065
G1 X165.811 Y113.031 E3.21941
G1 X165.915 Y113.398 E3.23209
G1 X166.142 Y114.446 E3.26776
G1 X166.229 Y114.97 E3.28543
G1 X166.277 Y115.286 E3.29606
G1 X166.307 Y115.506 E3.30344
G1 X166.376 Y116.157 E3.32521
G1 X166.391 Y116.354 E3.33179
G1 X166.422 Y117.04 E3.35463
G1 X166.428 Y117.482 E3.36933
G1 X166.427 Y117.819 E3.38054
G1 X166.423 Y118.053 E3.38832
G1 X166.376 Y118.897 E3.41644
G1 X166.353 Y119.141 E3.42459
G1 X166.272 Y119.793 E3.44644
G1 X166.195 Y120.29 E3.46317
G1 X165.955 Y121.433 E3.50201
G1 X165.855 Y121.809 E3.51495
G1 X165.749 Y122.183 E3.52788
G1 X165.649 Y122.502 E3.539
G1 X165.514 Y122.909 E3.55326
G1 X165.127 Y123.908 E3.5889
G1 X164.875 Y124.47 E3.60938
G1 X164.791 Y124.648 E3.61593
G1 X164.636 Y124.963 E3.6276
G1 X164.504 Y125.221 E3.63724
G1 X164.012 Y126.083 E3.67026
G1 X163.887 Y126.281 E3.67804
G1 X163.62 Y126.684 E3.69412
G1 X163.297 Y127.149 E3.71295
G1 X162.723 Y127.904 E3.7445
G1 X162.664 Y127.975 E3.74757
G1 X162.347 Y128.34 E3.76365
G1 X162.159 Y128.547 E3.77295
G1 X161.833 Y128.891 E3.78871
G1 X161.432 Y129.296 E3.80767
G1 X160.774 Y129.909 E3.83758
G1 X160.62 Y130.041 E3.84432
G1 X159.892 Y130.614 E3.87514
G1 X159.595 Y130.828 E3.88731
G1 X159.337 Y131.008 E3.89778
G1 X158.865 Y131.328 E3.91674
G1 X158.266 Y131.706 E3.9403
G1 X157.29 Y132.219 E3.97697
G1 X156.713 Y132.486 E3.99812
G1 X156.051 Y132.766 E4.02203
G1 X155.548 Y132.96 E4.03996
G1 X154.522 Y133.299 E4.0759
G1 X154.381 Y133.338 E4.08076
G1 X153.971 Y133.443 E4.09484
G1 X153.504 Y133.553 E4.1108
G1 X152.743 Y133.704 E4.1366
G1 X152.632 Y133.722 E4.14034
G1 X151.944 Y133.812 E4.16342
G1 X151.383 Y133.867 E4.18217
G1 X151.021 Y133.896 E4.19425
G1 X150.666 Y133.919 E4.20608
G1 X150.099 Y133.941 E4.22495
G1 X149.346 Y133.95 E4.25
G1 X85.553 Y133.949 E6.37176
G1 X84.911 Y133.94 E6.39312
G1 X84.266 Y133.912 E6.41459
G1 X83.634 Y133.866 E6.43567
G1 X83.283 Y133.835 E6.44739
G1 X82.969 Y133.802 E6.45789
G1 X82.067 Y133.669 E6.48821
G1 X81.909 Y133.639 E6.49356
G1 X81.164 Y133.47 E6.51897
G1 X80.624 Y133.328 E6.53754
G1 X80.263 Y133.227 E6.55001
G1 X79.956 Y133.135 E6.56067
G1 X79.083 Y132.833 E6.59139
G1 X78.415 Y132.546 E6.61557
G1 X77.723 Y132.221 E6.641
G1 X77.314 Y132.018 E6.65619
G1 X77.22 Y131.969 E6.65971
G1 X76.736 Y131.701 E6.67812
G1 X76.535 Y131.583 E6.68587
G1 X75.63 Y130.99 E6.72185
G1 X75.163 Y130.65 E6.74107
G1 X74.893 Y130.447 E6.7523
G1 X74.768 Y130.35 E6.75757
G1 X74.215 Y129.891 E6.78147
G1 X73.977 Y129.68 E6.79205
G1 X73.238 Y128.96 E6.82636
G1 X72.809 Y128.501 E6.84726
G1 X72.54 Y128.203 E6.86061
G1 X72.375 Y128.013 E6.86898
G1 X71.79 Y127.279 E6.9002
G1 X71.429 Y126.751 E6.92147
G1 X71.016 Y126.109 E6.94686
G1 X70.79 Y125.743 E6.96117
G1 X70.668 Y125.536 E6.96916
G1 X70.227 Y124.709 E7.00033
G1 X69.999 Y124.2 E7.01888
G1 X69.762 Y123.634 E7.03929
G1 X69.617 Y123.272 E7.05226
G1 X69.529 Y123.039 E7.06055
G1 X69.274 Y122.28 E7.08718
G1 X69.239 Y122.162 E7.09127
G1 X69.073 Y121.534 E7.11288
G1 X68.985 Y121.157 E7.12575
G1 X68.918 Y120.85 E7.1362
G1 X68.836 Y120.447 E7.14988
G1 X68.688 Y119.521 E7.18107
G1 X68.632 Y118.857 E7.20324
G1 X68.59 Y118.092 E7.22872
G1 X68.575 Y117.7 E7.24177
G1 X68.57 Y117.439 E7.25045
G1 X68.596 Y116.444 E7.28355
G1 X68.648 Y115.89 E7.30206
G1 X68.702 Y115.435 E7.3173
G1 X68.742 Y115.132 E7.32747
G1 X68.773 Y114.921 E7.33456
G1 X68.829 Y114.575 E7.34622
G1 X68.852 Y114.447 E7.35054
G1 X69.085 Y113.432 E7.38518
G1 X69.261 Y112.802 E7.40694
G1 X69.362 Y112.461 E7.41876
G1 X69.429 Y112.248 E7.42619
G1 X69.811 Y111.216 E7.46279
G1 X69.983 Y110.832 E7.47679
G1 X70.191 Y110.389 E7.49306
G1 X70.335 Y110.094 E7.50398
G1 X70.492 Y109.784 E7.51554
G1 X70.954 Y108.962 E7.5469
G1 X71.037 Y108.828 E7.55214
G1 X71.368 Y108.324 E7.5722
G1 X71.539 Y108.079 E7.58214
G1 X71.695 Y107.862 E7.59102
G1 X71.961 Y107.5 E7.60597
G1 X72.548 Y106.768 E7.63717
G1 X72.935 Y106.348 E7.65617
G1 X73.344 Y105.927 E7.67569
G1 X73.882 Y105.41 E7.70051
G1 X74.276 Y105.056 E7.71813
G1 X75.062 Y104.413 E7.7519
G1 X75.187 Y104.32 E7.75708
G0 F6000 X75.426 Y104.641
G1 F1200 X75.831 Y104.354 E7.77359
G1 X76.358 Y103.999 E7.79473
G1 X77.397 Y103.382 E7.83492
G1 X77.607 Y103.273 E7.84279
G1 X78.044 Y103.059 E7.85897
G1 X78.38 Y102.905 E7.87126
G1 X78.72 Y102.756 E7.88361
G1 X79.027 Y102.628 E7.89467
G1 X79.321 Y102.51 E7.90521
G1 X80.506 Y102.114 E7.94677
G1 X80.743 Y102.05 E7.95493
G1 X81.109 Y101.958 E7.96748
G1 X81.811 Y101.795 E7.99145
G1 X83.056 Y101.583 E8.03346
G1 X83.239 Y101.563 E8.03958
G1 X83.698 Y101.523 E8.05491
G1 X84.278 Y101.485 E8.07424
G1 X84.823 Y101.463 E8.09238
G1 X85.83 Y101.45 E8.12587
G1 X149.291 Y101.45 E10.2366
G1 X150.147 Y101.461 E10.26507
G1 X150.558 Y101.474 E10.27875
G1 X150.863 Y101.491 E10.28891
G1 X151.336 Y101.527 E10.30468
G1 X151.746 Y101.565 E10.31838
G1 X152.675 Y101.693 E10.34957
G1 X152.757 Y101.708 E10.35234
G1 X153.199 Y101.799 E10.36735
G1 X153.925 Y101.964 E10.39211
G1 X154.897 Y102.234 E10.42567
G1 X155.185 Y102.329 E10.43575
G1 X155.801 Y102.553 E10.45755
G1 X155.966 Y102.619 E10.46346
G1 X156.364 Y102.788 E10.47785
G1 X156.866 Y103.013 E10.49614
G1 X157.824 Y103.502 E10.53192
G1 X158.266 Y103.768 E10.54908
G1 X158.725 Y104.059 E10.56715
G1 X158.991 Y104.233 E10.57772
G1 X159.217 Y104.386 E10.5868
G1 X159.968 Y104.944 E10.61792
G1 X160.221 Y105.15 E10.62877
G1 X160.675 Y105.542 E10.64872
G1 X160.813 Y105.668 E10.65494
G1 X161.047 Y105.888 E10.66562
G1 X161.381 Y106.212 E10.6811
G1 X161.982 Y106.845 E10.71013
G1 X162.072 Y106.948 E10.71468
G1 X162.503 Y107.474 E10.73729
G1 X162.792 Y107.851 E10.75309
G1 X162.973 Y108.095 E10.7632
G1 X163.212 Y108.426 E10.77678
G1 X163.718 Y109.195 E10.80739
G1 X163.991 Y109.681 E10.82593
G1 X164.273 Y110.215 E10.84602
G1 X164.443 Y110.55 E10.85851
G1 X164.729 Y111.182 E10.88159
G1 X164.869 Y111.52 E10.89376
G1 X165.119 Y112.184 E10.91735
G1 X165.247 Y112.563 E10.93066
G1 X165.353 Y112.894 E10.94222
G1 X165.429 Y113.146 E10.95097
G1 X165.529 Y113.501 E10.96324
G1 X165.748 Y114.512 E10.99765
G1 X165.835 Y115.036 E11.01531
G1 X165.881 Y115.34 E11.02554
G1 X165.911 Y115.56 E11.03292
G1 X165.977 Y116.187 E11.05389
G1 X165.992 Y116.384 E11.06046
G1 X166.022 Y117.045 E11.08247
G1 X166.028 Y117.487 E11.09717
G1 X166.027 Y117.812 E11.10798
G1 X166.023 Y118.046 E11.11577
G1 X165.978 Y118.86 E11.14288
G1 X165.955 Y119.104 E11.15103
G1 X165.877 Y119.732 E11.17208
G1 X165.8 Y120.229 E11.18881
G1 X165.569 Y121.33 E11.22623
G1 X165.469 Y121.706 E11.23917
G1 X165.366 Y122.069 E11.25172
G1 X165.269 Y122.376 E11.26243
G1 X165.134 Y122.783 E11.27669
G1 X164.762 Y123.746 E11.31102
G1 X164.616 Y124.075 E11.323
G1 X164.429 Y124.477 E11.33774
G1 X164.28 Y124.781 E11.349
G1 X164.148 Y125.039 E11.35864
G1 X163.674 Y125.87 E11.39046
G1 X163.549 Y126.068 E11.39825
G1 X163.292 Y126.456 E11.41373
G1 X162.969 Y126.921 E11.43256
G1 X162.416 Y127.649 E11.46297
G1 X162.357 Y127.72 E11.46604
G1 X162.051 Y128.072 E11.48155
G1 X161.863 Y128.279 E11.49085
G1 X161.548 Y128.61 E11.50605
G1 X161.147 Y129.015 E11.525
G1 X160.513 Y129.605 E11.55381
G1 X160.359 Y129.737 E11.56055
G1 X159.658 Y130.289 E11.59023
G1 X159.361 Y130.503 E11.60241
G1 X159.112 Y130.677 E11.61251
G1 X158.64 Y130.997 E11.63148
G1 X158.063 Y131.362 E11.65418
G1 X157.122 Y131.856 E11.68953
G1 X156.545 Y132.123 E11.71068
G1 X155.907 Y132.393 E11.73372
G1 X155.404 Y132.587 E11.75165
G1 X154.416 Y132.913 E11.78626
G1 X154.275 Y132.952 E11.79112
G1 X153.879 Y133.054 E11.80472
G1 X153.412 Y133.164 E11.82068
G1 X152.679 Y133.309 E11.84553
G1 X152.568 Y133.327 E11.84927
G1 X151.905 Y133.413 E11.87151
G1 X151.344 Y133.468 E11.89026
G1 X150.995 Y133.497 E11.9019
G1 X150.64 Y133.52 E11.91374
G1 X150.094 Y133.541 E11.93191
G1 X149.346 Y133.55 E11.95679
G1 X85.558 Y133.549 E14.07839
G1 X84.916 Y133.54 E14.09974
G1 X84.296 Y133.513 E14.12038
G1 X83.664 Y133.467 E14.14146
G1 X83.325 Y133.437 E14.15278
G1 X83.011 Y133.404 E14.16328
G1 X82.142 Y133.276 E14.1925
G1 X81.984 Y133.246 E14.19784
G1 X81.265 Y133.083 E14.22237
G1 X80.725 Y132.941 E14.24094
G1 X80.378 Y132.844 E14.25292
G1 X80.071 Y132.752 E14.26358
G1 X79.228 Y132.46 E14.29325
G1 X78.585 Y132.184 E14.31653
G1 X77.893 Y131.859 E14.34195
G1 X77.499 Y131.664 E14.35657
G1 X77.405 Y131.615 E14.3601
G1 X76.939 Y131.356 E14.37783
G1 X76.738 Y131.238 E14.38559
G1 X75.865 Y130.666 E14.4203
G1 X75.398 Y130.326 E14.43951
G1 X75.139 Y130.131 E14.45029
G1 X75.014 Y130.034 E14.45556
G1 X74.48 Y129.592 E14.47861
G1 X74.242 Y129.381 E14.48919
G1 X73.53 Y128.687 E14.52226
G1 X73.101 Y128.228 E14.54316
G1 X72.842 Y127.94 E14.55604
G1 X72.677 Y127.75 E14.56441
G1 X72.104 Y127.03 E14.59502
G1 X71.765 Y126.535 E14.61497
G1 X71.352 Y125.893 E14.64036
G1 X71.135 Y125.54 E14.65414
G1 X71.013 Y125.333 E14.66213
G1 X70.58 Y124.52 E14.69277
G1 X70.368 Y124.045 E14.71007
G1 X70.131 Y123.479 E14.73048
G1 X69.992 Y123.13 E14.74297
G1 X69.904 Y122.897 E14.75126
G1 X69.658 Y122.166 E14.77691
G1 X69.623 Y122.048 E14.781
G1 X69.462 Y121.443 E14.80183
G1 X69.374 Y121.066 E14.8147
G1 X69.31 Y120.771 E14.82474
G1 X69.228 Y120.368 E14.83842
G1 X69.084 Y119.458 E14.86907
G1 X69.031 Y118.835 E14.88986
G1 X68.989 Y118.07 E14.91534
G1 X68.975 Y117.692 E14.92792
G1 X68.97 Y117.431 E14.93661
G1 X68.995 Y116.473 E14.96848
G1 X69.045 Y115.937 E14.98639
G1 X69.099 Y115.482 E15.00163
G1 X69.138 Y115.19 E15.01142
G1 X69.169 Y114.979 E15.01852
G1 X69.223 Y114.645 E15.02977
G1 X69.246 Y114.517 E15.0341
G1 X69.47 Y113.54 E15.06743
G1 X69.646 Y112.91 E15.08919
G1 X69.743 Y112.581 E15.1006
G1 X69.81 Y112.368 E15.10802
G1 X70.179 Y111.373 E15.14332
G1 X70.345 Y111.002 E15.15684
G1 X70.553 Y110.559 E15.17312
G1 X70.692 Y110.275 E15.18363
G1 X70.849 Y109.965 E15.19519
G1 X71.294 Y109.172 E15.22544
G1 X71.377 Y109.038 E15.23068
G1 X71.696 Y108.553 E15.24999
G1 X71.867 Y108.308 E15.25992
G1 X72.017 Y108.098 E15.26851
G1 X72.283 Y107.736 E15.28345
G1 X72.86 Y107.019 E15.31406
G1 X73.222 Y106.627 E15.3318
G1 X73.631 Y106.206 E15.35133
G1 X74.15 Y105.707 E15.37527
G1 X74.544 Y105.353 E15.39289
G1 X75.301 Y104.734 E15.42541
G1 X75.426 Y104.641 E15.4306
G0 F6000 X75.664 Y104.961
G1 F1200 X76.054 Y104.685 E15.44649
G1 X76.581 Y104.33 E15.46762
G1 X77.581 Y103.737 E15.50629
G1 X77.791 Y103.628 E15.51416
G1 X78.212 Y103.422 E15.52975
G1 X78.541 Y103.272 E15.54177
G1 X78.881 Y103.123 E15.55412
G1 X79.176 Y102.999 E15.56476
G1 X79.47 Y102.881 E15.5753
G1 X80.61 Y102.5 E15.61528
G1 X80.847 Y102.436 E15.62344
G1 X81.199 Y102.347 E15.63552
G1 X81.901 Y102.184 E15.65949
G1 X83.1 Y101.98 E15.69994
G1 X83.283 Y101.96 E15.70606
G1 X83.724 Y101.922 E15.72079
G1 X84.304 Y101.884 E15.74012
G1 X84.829 Y101.863 E15.75759
G1 X85.83 Y101.85 E15.79089
G1 X149.291 Y101.85 E17.90161
G1 X150.141 Y101.861 E17.92989
G1 X150.542 Y101.874 E17.94323
G1 X150.835 Y101.89 E17.95299
G1 X151.299 Y101.926 E17.96847
G1 X151.709 Y101.964 E17.98216
G1 X152.603 Y102.086 E18.01217
G1 X152.685 Y102.101 E18.01495
G1 X153.111 Y102.189 E18.02941
G1 X153.837 Y102.354 E18.05418
G1 X154.771 Y102.613 E18.08641
G1 X155.059 Y102.708 E18.0965
G1 X155.652 Y102.925 E18.1175
G1 X155.817 Y102.991 E18.12341
G1 X156.201 Y103.153 E18.13728
G1 X156.703 Y103.378 E18.15557
G1 X157.624 Y103.848 E18.18996
G1 X158.052 Y104.105 E18.20657
G1 X158.511 Y104.396 E18.22464
G1 X158.767 Y104.565 E18.23485
G1 X158.993 Y104.718 E18.24392
G1 X159.715 Y105.254 E18.27383
G1 X159.968 Y105.46 E18.28468
G1 X160.406 Y105.837 E18.3039
G1 X160.544 Y105.963 E18.31012
G1 X160.768 Y106.175 E18.32038
G1 X161.102 Y106.499 E18.33586
G1 X161.681 Y107.109 E18.36383
G1 X161.771 Y107.212 E18.36838
G1 X162.185 Y107.717 E18.3901
G1 X162.474 Y108.094 E18.4059
G1 X162.649 Y108.329 E18.41564
G1 X162.888 Y108.66 E18.42922
G1 X163.383 Y109.415 E18.45925
G1 X163.638 Y109.868 E18.47654
G1 X163.92 Y110.402 E18.49662
G1 X164.084 Y110.727 E18.50873
G1 X164.36 Y111.335 E18.53094
G1 X164.5 Y111.673 E18.54311
G1 X164.74 Y112.312 E18.56581
G1 X164.868 Y112.691 E18.57911
G1 X164.97 Y113.01 E18.59025
G1 X165.046 Y113.262 E18.59901
G1 X165.143 Y113.605 E18.61086
G1 X165.353 Y114.577 E18.64394
G1 X165.44 Y115.101 E18.66161
G1 X165.484 Y115.394 E18.67146
G1 X165.514 Y115.614 E18.67885
G1 X165.579 Y116.218 E18.69905
G1 X165.594 Y116.415 E18.70562
G1 X165.622 Y117.051 E18.7268
G1 X165.628 Y117.493 E18.7415
G1 X165.628 Y117.805 E18.75188
G1 X165.624 Y118.039 E18.75966
G1 X165.58 Y118.822 E18.78574
G1 X165.557 Y119.066 E18.79389
G1 X165.482 Y119.671 E18.81417
G1 X165.405 Y120.168 E18.8309
G1 X165.182 Y121.228 E18.86693
G1 X165.082 Y121.604 E18.87987
G1 X164.983 Y121.954 E18.89196
G1 X164.889 Y122.25 E18.90229
G1 X164.754 Y122.657 E18.91656
G1 X164.396 Y123.583 E18.94958
G1 X164.25 Y123.912 E18.96155
G1 X164.067 Y124.306 E18.976
G1 X163.924 Y124.599 E18.98684
G1 X163.792 Y124.857 E18.99648
G1 X163.336 Y125.656 E19.02708
G1 X163.211 Y125.854 E19.03487
G1 X162.963 Y126.228 E19.04979
G1 X162.64 Y126.693 E19.06862
G1 X162.108 Y127.393 E19.09787
G1 X162.049 Y127.464 E19.10094
