;FLAVOR:Marlin
;TIME:5238
;Filament used: 2.53792m
;Layer height: 0.2
;MINX:68.571
;MINY:101.05
;MINZ:0.2
;MAXX:166.433
;MAXY:133.95
;MAXZ:18.4
;Generated with Cura_SteamEngine 4.8.0
M140 S50
M105
M190 S50
M104 S200
M105
M109 S200
M82 ;absolute extrusion mode
; Ender 3 Custom Start G-code
G92 E0 ; Reset Extruder
G28 ; Home all axes
G1 Z2.0 F3000 ; Move Z Axis up little to prevent scratching of Heat Bed
G1 X0.1 Y20 Z0.3 F5000.0 ; Move to start position
G1 X0.1 Y200.0 Z0.3 F1500.0 E15 ; Draw the first line
G1 X0.4 Y200.0 Z0.3 F5000.0 ; Move to side a little
G1 X0.4 Y20 Z0.3 F1500.0 E30 ; Draw the second line
G92 E0 ; Reset Extruder
G1 Z2.0 F3000 ; Move Z Axis up little to prevent scratching of Heat Bed
G1 X5 Y20 Z0.3 F5000.0 ; Move over to prevent blob squish
G92 E0
G92 E0
G1 F2700 E-5
;LAYER_COUNT:92
;LAYER:0
M107
G0 F6000 X75.283 Y104.247 Z0.2
;TYPE:SKIRT
G1 F2700 E0
G1 F1200 X75.41 Y104.156 E0.0052
G1 X75.725 Y103.939 E0.01792
G1 X76.167 Y103.645 E0.03557
G1 X77.079 Y103.1 E0.07091
G1 X77.454 Y102.904 E0.08499
G1 X77.872 Y102.694 E0.10054
G1 X79.01 Y102.2 E0.14181
G1 X79.594 Y101.985 E0.1625
G1 X80.201 Y101.782 E0.18379
G1 X80.29 Y101.755 E0.18689
G1 X80.729 Y101.631 E0.20206
G1 X81.077 Y101.541 E0.21401
G1 X81.674 Y101.405 E0.23438
G1 X81.919 Y101.356 E0.24269
G1 X82.417 Y101.268 E0.25951
G1 X82.712 Y101.223 E0.26943
G1 X83.786 Y101.113 E0.30534
G1 X84.424 Y101.079 E0.32659
G1 X84.834 Y101.064 E0.34024
G1 X85.653 Y101.051 E0.36748
G1 X149.158 Y101.05 E2.47967
G1 X150.483 Y101.071 E2.52374
G1 X151.038 Y101.094 E2.54222
G1 X151.261 Y101.109 E2.54965
G1 X151.872 Y101.167 E2.57006
G1 X152.131 Y101.199 E2.57874
G1 X152.755 Y101.294 E2.59974
G1 X153.095 Y101.356 E2.61123
G1 X154.059 Y101.577 E2.64413
G1 X154.723 Y101.761 E2.66704
G1 X155.643 Y102.06 E2.69922
G1 X155.846 Y102.136 E2.70643
G1 X156.293 Y102.315 E2.72244
G1 X156.587 Y102.44 E2.73307
G1 X157.433 Y102.843 E2.76424
G1 X157.818 Y103.047 E2.77873
G1 X158.12 Y103.213 E2.79019
G1 X158.297 Y103.314 E2.79697
G1 X158.833 Y103.64 E2.81783
G1 X159.058 Y103.786 E2.82675
G1 X159.548 Y104.124 E2.84655
G1 X159.677 Y104.218 E2.85186
G1 X159.957 Y104.429 E2.86352
G1 X160.314 Y104.707 E2.87857
G1 X161.299 Y105.573 E2.9222
G1 X161.741 Y106.011 E2.94289
G1 X162.018 Y106.295 E2.95609
G1 X162.514 Y106.852 E2.98089
G1 X162.708 Y107.085 E2.99098
G1 X163.094 Y107.575 E3.01172
G1 X163.214 Y107.737 E3.01843
G1 X163.51 Y108.157 E3.03552
G1 X163.836 Y108.643 E3.05498
G1 X164.325 Y109.444 E3.0862
G1 X164.608 Y109.99 E3.10665
G1 X164.926 Y110.649 E3.13099
G1 X165.2 Y111.265 E3.15341
G1 X165.29 Y111.485 E3.16132
G1 X165.634 Y112.453 E3.19549
G1 X165.781 Y112.937 E3.21231
G1 X165.893 Y113.331 E3.22593
G1 X165.961 Y113.589 E3.23481
G1 X166.117 Y114.269 E3.25801
G1 X166.207 Y114.772 E3.27501
G1 X166.252 Y115.063 E3.2848
G1 X166.298 Y115.392 E3.29585
G1 X166.34 Y115.731 E3.30721
G1 X166.417 Y116.719 E3.34017
G1 X166.428 Y117.051 E3.35122
G1 X166.433 Y117.525 E3.36699
G1 X166.431 Y117.725 E3.37364
G1 X166.406 Y118.376 E3.39531
G1 X166.378 Y118.78 E3.40878
G1 X166.338 Y119.223 E3.42357
G1 X166.302 Y119.55 E3.43451
G1 X166.145 Y120.548 E3.46812
G1 X166.088 Y120.827 E3.47759
G1 X166.001 Y121.22 E3.49097
G1 X165.901 Y121.632 E3.50508
G1 X165.701 Y122.346 E3.52974
G1 X165.607 Y122.644 E3.54013
G1 X165.292 Y123.515 E3.57094
G1 X165.186 Y123.773 E3.58021
G1 X165.063 Y124.061 E3.59063
G1 X164.951 Y124.313 E3.5998
G1 X164.682 Y124.873 E3.62046
G1 X164.59 Y125.052 E3.62716
G1 X164.196 Y125.755 E3.65396
G1 X163.834 Y126.348 E3.67707
G1 X163.574 Y126.754 E3.69311
G1 X163.453 Y126.934 E3.70032
G1 X162.994 Y127.567 E3.72633
G1 X162.937 Y127.64 E3.72941
G1 X162.543 Y128.116 E3.74996
G1 X162.339 Y128.349 E3.76026
G1 X162.144 Y128.566 E3.76996
G1 X161.975 Y128.749 E3.77825
G1 X161.706 Y129.03 E3.79118
G1 X161.478 Y129.26 E3.80196
G1 X160.496 Y130.138 E3.84577
G1 X159.933 Y130.584 E3.86966
G1 X159.115 Y131.174 E3.9032
G1 X158.948 Y131.283 E3.90984
G1 X158.602 Y131.499 E3.9234
G1 X158.186 Y131.749 E3.93954
G1 X157.13 Y132.309 E3.9793
G1 X156.766 Y132.477 E3.99263
G1 X156.185 Y132.724 E4.01363
G1 X155.837 Y132.861 E4.02607
G1 X155.476 Y132.996 E4.03889
G1 X155.329 Y133.048 E4.04408
G1 X154.41 Y133.329 E4.07604
G1 X153.856 Y133.472 E4.09507
G1 X152.864 Y133.68 E4.12878
G1 X152.314 Y133.769 E4.14731
G1 X151.332 Y133.883 E4.18019
G1 X151.148 Y133.896 E4.18633
G1 X150.589 Y133.921 E4.20494
G1 X149.214 Y133.948 E4.25068
G1 X148.998 Y133.95 E4.25787
G1 X85.84 Y133.95 E6.35851
G1 X84.581 Y133.93 E6.40039
G1 X83.923 Y133.9 E6.4223
G1 X83.493 Y133.867 E6.43664
G1 X82.726 Y133.781 E6.46231
G1 X82.469 Y133.743 E6.47095
G1 X81.512 Y133.558 E6.50337
G1 X80.845 Y133.398 E6.52618
G1 X79.718 Y133.062 E6.5653
G1 X79.3 Y132.913 E6.58006
G1 X78.916 Y132.769 E6.5937
G1 X78.272 Y132.495 E6.61698
G1 X78.035 Y132.385 E6.62567
G1 X77.671 Y132.208 E6.63913
G1 X77.412 Y132.076 E6.6488
G1 X77.14 Y131.932 E6.65903
G1 X76.909 Y131.806 E6.66779
G1 X76.163 Y131.36 E6.69669
G1 X75.947 Y131.219 E6.70527
G1 X75.516 Y130.923 E6.72266
G1 X75.231 Y130.717 E6.73436
G1 X74.43 Y130.079 E6.76842
G1 X73.933 Y129.644 E6.79039
G1 X73.2 Y128.94 E6.82419
G1 X73.013 Y128.743 E6.83322
G1 X72.592 Y128.273 E6.85421
G1 X72.306 Y127.93 E6.86906
G1 X72.017 Y127.572 E6.88437
G1 X71.431 Y126.775 E6.91727
G1 X71.3 Y126.579 E6.92511
G1 X71.013 Y126.126 E6.94295
G1 X70.832 Y125.822 E6.95471
G1 X70.593 Y125.406 E6.97067
G1 X70.091 Y124.421 E7.00744
G1 X69.984 Y124.182 E7.01615
G1 X69.764 Y123.655 E7.03515
G1 X69.566 Y123.143 E7.0534
G1 X69.233 Y122.14 E7.08855
G1 X69.151 Y121.847 E7.09867
G1 X69.002 Y121.249 E7.11917
G1 X68.896 Y120.768 E7.13555
G1 X68.774 Y120.127 E7.15726
G1 X68.757 Y120.02 E7.16086
G1 X68.69 Y119.524 E7.17751
G1 X68.664 Y119.293 E7.18524
G1 X68.625 Y118.868 E7.19943
G1 X68.609 Y118.65 E7.2067
G1 X68.586 Y118.241 E7.22033
G1 X68.571 Y117.825 E7.23417
G1 X68.577 Y116.899 E7.26497
G1 X68.585 Y116.733 E7.2705
G1 X68.604 Y116.427 E7.2807
G1 X68.639 Y115.968 E7.29601
G1 X68.814 Y114.682 E7.33918
G1 X68.93 Y114.092 E7.35917
G1 X69.051 Y113.546 E7.37777
G1 X69.103 Y113.338 E7.38491
G1 X69.43 Y112.268 E7.42212
G1 X69.658 Y111.637 E7.44443
G1 X69.793 Y111.281 E7.4571
G1 X69.87 Y111.089 E7.46398
G1 X70.139 Y110.474 E7.4863
G1 X70.175 Y110.398 E7.4891
G1 X70.55 Y109.676 E7.51616
G1 X70.772 Y109.285 E7.53112
G1 X70.947 Y108.988 E7.54258
G1 X71.144 Y108.665 E7.55516
G1 X71.753 Y107.769 E7.5912
G1 X71.842 Y107.651 E7.59611
G1 X72.085 Y107.34 E7.60924
G1 X72.232 Y107.159 E7.617
G1 X72.512 Y106.826 E7.63147
G1 X72.77 Y106.534 E7.64443
G1 X73.103 Y106.17 E7.66083
G1 X74.037 Y105.263 E7.70414
G1 X74.508 Y104.857 E7.72482
G1 X75.283 Y104.247 E7.75762
G0 F6000 X75.516 Y104.573
G1 F1200 X75.643 Y104.482 E7.76282
G1 X75.946 Y104.272 E7.77508
G1 X76.388 Y103.978 E7.79274
G1 X77.267 Y103.453 E7.82679
G1 X77.633 Y103.261 E7.84054
G1 X78.051 Y103.051 E7.8561
G1 X79.148 Y102.576 E7.89586
G1 X79.732 Y102.361 E7.91655
G1 X80.317 Y102.165 E7.93707
G1 X80.406 Y102.138 E7.94017
G1 X80.829 Y102.019 E7.95478
G1 X81.177 Y101.929 E7.96674
G1 X81.752 Y101.797 E7.98636
G1 X81.997 Y101.748 E7.99467
G1 X82.478 Y101.663 E8.01092
G1 X82.773 Y101.618 E8.02084
G1 X83.807 Y101.512 E8.05541
G1 X84.445 Y101.478 E8.07666
G1 X84.841 Y101.464 E8.08984
G1 X85.828 Y101.45 E8.12267
G1 X149.334 Y101.451 E10.23489
G1 X150.476 Y101.47 E10.27288
G1 X151.011 Y101.493 E10.29069
G1 X151.234 Y101.508 E10.29812
G1 X151.823 Y101.564 E10.3178
G1 X152.082 Y101.596 E10.32648
G1 X152.684 Y101.688 E10.34674
G1 X153.024 Y101.75 E10.35823
G1 X153.953 Y101.963 E10.38993
G1 X154.617 Y102.147 E10.41285
G1 X155.503 Y102.435 E10.44384
G1 X155.706 Y102.511 E10.45105
G1 X156.136 Y102.683 E10.46645
G1 X156.43 Y102.808 E10.47707
G1 X157.246 Y103.197 E10.50714
G1 X157.631 Y103.401 E10.52163
G1 X157.921 Y103.56 E10.53263
G1 X158.098 Y103.661 E10.53941
G1 X158.615 Y103.976 E10.55955
G1 X158.84 Y104.122 E10.56847
G1 X159.313 Y104.447 E10.58756
G1 X159.442 Y104.541 E10.59286
G1 X159.712 Y104.745 E10.60412
G1 X160.069 Y105.023 E10.61917
G1 X161.017 Y105.857 E10.66116
G1 X161.459 Y106.295 E10.68186
G1 X161.729 Y106.571 E10.6947
G1 X162.207 Y107.107 E10.71859
G1 X162.401 Y107.34 E10.72867
G1 X162.773 Y107.814 E10.74871
G1 X162.893 Y107.976 E10.75542
G1 X163.178 Y108.38 E10.77186
G1 X163.504 Y108.866 E10.79133
G1 X163.983 Y109.652 E10.82194
G1 X164.248 Y110.164 E10.84112
G1 X164.566 Y110.823 E10.86545
G1 X164.83 Y111.416 E10.88704
G1 X164.92 Y111.636 E10.89495
G1 X165.252 Y112.57 E10.92792
G1 X165.399 Y113.054 E10.94474
G1 X165.506 Y113.432 E10.95781
G1 X165.574 Y113.69 E10.96668
G1 X165.725 Y114.346 E10.98907
G1 X165.811 Y114.833 E11.00552
G1 X165.856 Y115.124 E11.01531
G1 X165.901 Y115.441 E11.02596
G1 X165.943 Y115.78 E11.03732
G1 X166.017 Y116.732 E11.06908
G1 X166.028 Y117.064 E11.08013
G1 X166.033 Y117.521 E11.09533
G1 X166.031 Y117.721 E11.10199
G1 X166.007 Y118.348 E11.12286
G1 X165.979 Y118.752 E11.13632
G1 X165.94 Y119.179 E11.15059
G1 X165.904 Y119.506 E11.16153
G1 X165.753 Y120.468 E11.19392
G1 X165.696 Y120.747 E11.20339
G1 X165.612 Y121.125 E11.21627
G1 X165.512 Y121.537 E11.23037
G1 X165.32 Y122.226 E11.25416
G1 X165.226 Y122.524 E11.26455
G1 X164.922 Y123.363 E11.29423
G1 X164.816 Y123.621 E11.30351
G1 X164.697 Y123.898 E11.31353
G1 X164.585 Y124.15 E11.32271
G1 X164.327 Y124.691 E11.34264
G1 X164.235 Y124.87 E11.34934
G1 X163.854 Y125.547 E11.37517
G1 X163.492 Y126.14 E11.39828
G1 X163.242 Y126.531 E11.41372
G1 X163.121 Y126.711 E11.42093
G1 X162.679 Y127.321 E11.44599
G1 X162.622 Y127.394 E11.44907
G1 X162.242 Y127.853 E11.46889
G1 X162.038 Y128.086 E11.47919
G1 X161.85 Y128.295 E11.48854
G1 X161.681 Y128.478 E11.49682
G1 X161.422 Y128.749 E11.50929
G1 X161.194 Y128.979 E11.52006
G1 X160.248 Y129.825 E11.56227
G1 X159.685 Y130.271 E11.58616
G1 X158.897 Y130.839 E11.61847
G1 X158.73 Y130.948 E11.6251
G1 X158.396 Y131.157 E11.63821
G1 X157.98 Y131.407 E11.65435
G1 X156.962 Y131.945 E11.69264
G1 X156.598 Y132.113 E11.70598
G1 X156.039 Y132.352 E11.7262
G1 X155.691 Y132.489 E11.73864
G1 X155.343 Y132.619 E11.75099
G1 X155.196 Y132.671 E11.75618
G1 X154.31 Y132.942 E11.787
G1 X153.756 Y133.085 E11.80603
G1 X152.8 Y133.285 E11.83851
G1 X152.25 Y133.374 E11.85704
G1 X151.304 Y133.484 E11.88872
G1 X151.12 Y133.497 E11.89485
G1 X150.581 Y133.521 E11.9128
G1 X149.206 Y133.548 E11.95854
G1 X148.998 Y133.55 E11.96546
G1 X85.663 Y133.549 E14.07199
G1 X84.588 Y133.531 E14.10775
G1 X83.954 Y133.501 E14.12886
G1 X83.524 Y133.468 E14.1432
G1 X82.785 Y133.385 E14.16794
G1 X82.528 Y133.347 E14.17658
G1 X81.605 Y133.169 E14.20784
G1 X80.938 Y133.009 E14.23066
G1 X79.852 Y132.686 E14.26834
G1 X79.434 Y132.537 E14.2831
G1 X79.061 Y132.396 E14.29636
G1 X78.44 Y132.132 E14.31881
G1 X78.203 Y132.022 E14.3275
G1 X77.853 Y131.851 E14.34045
G1 X77.594 Y131.719 E14.35012
G1 X77.331 Y131.581 E14.36
G1 X77.1 Y131.455 E14.36875
G1 X76.382 Y131.025 E14.39659
G1 X76.166 Y130.884 E14.40517
G1 X75.75 Y130.599 E14.42194
G1 X75.465 Y130.393 E14.43363
G1 X74.694 Y129.778 E14.46644
G1 X74.197 Y129.343 E14.4884
G1 X73.49 Y128.665 E14.52098
G1 X73.303 Y128.468 E14.53002
G1 X72.897 Y128.015 E14.55025
G1 X72.617 Y127.679 E14.5648
G1 X72.328 Y127.321 E14.5801
G1 X71.763 Y126.553 E14.61181
G1 X71.632 Y126.357 E14.61965
G1 X71.356 Y125.921 E14.63682
G1 X71.179 Y125.622 E14.64837
G1 X70.94 Y125.206 E14.66433
G1 X70.456 Y124.257 E14.69976
G1 X70.349 Y124.018 E14.70847
G1 X70.138 Y123.51 E14.72677
G1 X69.94 Y122.998 E14.74503
G1 X69.618 Y122.032 E14.77889
G1 X69.536 Y121.739 E14.78901
G1 X69.392 Y121.163 E14.80876
G1 X69.286 Y120.682 E14.82514
G1 X69.169 Y120.064 E14.84606
G1 X69.152 Y119.957 E14.84967
G1 X69.088 Y119.48 E14.86567
G1 X69.062 Y119.249 E14.8734
G1 X69.023 Y118.839 E14.8871
G1 X69.007 Y118.621 E14.89437
G1 X68.986 Y118.227 E14.9075
G1 X68.971 Y117.811 E14.92134
G1 X68.976 Y116.919 E14.95101
G1 X68.984 Y116.753 E14.95654
G1 X69.003 Y116.457 E14.9664
G1 X69.038 Y115.998 E14.98171
G1 X69.206 Y114.759 E15.0233
G1 X69.322 Y114.169 E15.0433
G1 X69.439 Y113.643 E15.06122
G1 X69.491 Y113.435 E15.06835
G1 X69.806 Y112.404 E15.10421
G1 X70.034 Y111.773 E15.12652
G1 X70.165 Y111.429 E15.13877
G1 X70.242 Y111.237 E15.14565
G1 X70.5 Y110.645 E15.16713
G1 X70.536 Y110.569 E15.16992
G1 X70.898 Y109.873 E15.19602
G1 X71.12 Y109.482 E15.21097
G1 X71.288 Y109.197 E15.22197
G1 X71.485 Y108.874 E15.23456
G1 X72.072 Y108.01 E15.2693
G1 X72.161 Y107.892 E15.27421
G1 X72.396 Y107.592 E15.28689
G1 X72.702 Y107.22 E15.30291
G1 X72.817 Y107.085 E15.30881
G1 X73.065 Y106.804 E15.32127
G1 X73.398 Y106.44 E15.33768
G1 X74.298 Y105.566 E15.37941
G1 X74.769 Y105.16 E15.40009
G1 X75.516 Y104.573 E15.43169
G0 F6000 X75.749 Y104.898
G1 F1200 X75.876 Y104.807 E15.43689
G1 X76.168 Y104.605 E15.4487
G1 X76.61 Y104.311 E15.46635
G1 X77.455 Y103.806 E15.49909
G1 X77.813 Y103.619 E15.51253
G1 X78.231 Y103.409 E15.52809
G1 X79.286 Y102.951 E15.56634
G1 X79.87 Y102.736 E15.58704
G1 X80.433 Y102.547 E15.60679
G1 X80.522 Y102.52 E15.60988
G1 X80.929 Y102.406 E15.62394
G1 X81.277 Y102.316 E15.6359
G1 X81.831 Y102.189 E15.6548
G1 X82.076 Y102.14 E15.66311
G1 X82.538 Y102.059 E15.67871
G1 X82.833 Y102.014 E15.68864
G1 X83.828 Y101.911 E15.72191
G1 X84.466 Y101.877 E15.74316
G1 X84.847 Y101.864 E15.75584
G1 X85.828 Y101.85 E15.78847
G1 X149.328 Y101.851 E17.90049
G1 X150.47 Y101.87 E17.93847
G1 X150.985 Y101.892 E17.95562
G1 X151.208 Y101.907 E17.96305
G1 X151.774 Y101.961 E17.98196
G1 X152.033 Y101.993 E17.99064
G1 X152.612 Y102.081 E18.01012
G1 X152.952 Y102.143 E18.02162
G1 X153.846 Y102.348 E18.05212
G1 X154.51 Y102.532 E18.07504
G1 X155.362 Y102.81 E18.10485
G1 X155.565 Y102.886 E18.11206
G1 X155.98 Y103.051 E18.12691
G1 X156.274 Y103.176 E18.13754
G1 X157.059 Y103.55 E18.16646
G1 X157.444 Y103.754 E18.18095
G1 X157.723 Y103.908 E18.19155
G1 X157.9 Y104.009 E18.19833
G1 X158.397 Y104.312 E18.21769
G1 X158.622 Y104.458 E18.22661
G1 X159.077 Y104.77 E18.24496
G1 X159.206 Y104.864 E18.25027
G1 X159.466 Y105.06 E18.2611
G1 X159.823 Y105.338 E18.27615
G1 X160.736 Y106.141 E18.31659
G1 X161.178 Y106.579 E18.33728
G1 X161.439 Y106.847 E18.34973
G1 X161.9 Y107.363 E18.37274
G1 X162.094 Y107.596 E18.38282
G1 X162.451 Y108.052 E18.40208
G1 X162.571 Y108.214 E18.40879
G1 X162.846 Y108.603 E18.42464
G1 X163.172 Y109.089 E18.4441
G1 X163.641 Y109.86 E18.47411
G1 X163.887 Y110.338 E18.49199
G1 X164.205 Y110.997 E18.51633
G1 X164.46 Y111.568 E18.53713
G1 X164.55 Y111.788 E18.54504
G1 X164.869 Y112.686 E18.57673
G1 X165.016 Y113.17 E18.59356
G1 X165.119 Y113.534 E18.60614
G1 X165.187 Y113.792 E18.61501
G1 X165.332 Y114.423 E18.63655
G1 X165.416 Y114.894 E18.65246
G1 X165.461 Y115.185 E18.66225
G1 X165.504 Y115.49 E18.6725
G1 X165.546 Y115.829 E18.68386
G1 X165.617 Y116.745 E18.71442
G1 X165.628 Y117.077 E18.72547
G1 X165.633 Y117.517 E18.7401
G1 X165.631 Y117.717 E18.74675
G1 X165.608 Y118.32 E18.76682
G1 X165.58 Y118.724 E18.78029
G1 X165.543 Y119.135 E18.79402
G1 X165.507 Y119.462 E18.80496
G1 X165.362 Y120.388 E18.83613
G1 X165.305 Y120.667 E18.84561
G1 X165.223 Y121.031 E18.85802
G1 X165.123 Y121.443 E18.87212
G1 X164.939 Y122.105 E18.89497
G1 X164.845 Y122.403 E18.90536
G1 X164.552 Y123.211 E18.93395
G1 X164.446 Y123.469 E18.94323
G1 X164.332 Y123.736 E18.95288
G1 X164.22 Y123.988 E18.96205
G1 X163.971 Y124.508 E18.98123
G1 X163.879 Y124.687 E18.98792
G1 X163.513 Y125.339 E19.01279
G1 X163.151 Y125.932 E19.0359
G1 X162.91 Y126.307 E19.05073
G1 X162.789 Y126.487 E19.05794
G1 X162.364 Y127.074 E19.08204
G1 X162.307 Y127.147 E19.08513
G1 X161.941 Y127.589 E19.10421
G1 X161.737 Y127.822 E19.11451
G1 X161.556 Y128.023 E19.12351
G1 X161.387 Y128.206 E19.13179
G1 X161.138 Y128.467 E19.14379
G1 X160.91 Y128.697 E19.15456
G1 X160 Y129.511 E19.19517
G1 X159.437 Y129.957 E19.21906
G1 X158.678 Y130.504 E19.25018
G1 X158.511 Y130.613 E19.25681
G1 X158.19 Y130.814 E19.26941
G1 X157.774 Y131.064 E19.28555
G1 X156.794 Y131.582 E19.32242
G1 X156.43 Y131.75 E19.33575
G1 X155.892 Y131.98 E19.35521
G1 X155.544 Y132.117 E19.36765
G1 X155.21 Y132.242 E19.37951
G1 X155.063 Y132.294 E19.3847
