;FLAVOR:Marlin
M117 Time Left 0h39m22s
;TIME:2362
;Filament used: 1.45711m
;Layer height: 0.16
;MINX:79.5
;MINY:98
;MINZ:0.2
;MAXX:155.5
;MAXY:137
;MAXZ:4.96
;POSTPROCESSED
;Generated with Cura_SteamEngine 4.8.0
M140 S60
M105
M190 S60
M104 S205
M105
M109 S205
M82 ;absolute extrusion mode
; Ender 3 Custom Start G-code
G92 E0 ; Reset Extruder
G28 ; Home all axes
; ***SET NEW E STEP *** (93 is factory value - 95 mine - start)
G90                          ; Force coordinates to be absolute relative to the origin
M92 E95 ;					 ; ***SET NEW E STEP *** (93 is factory value - 95 mine - end)
G90                          ; Force coordinates to be absolute relative to the origin
G28                          ; Home X/Y/Z axis
G92 E0 ; Reset Extruder
G28 ; Home all axes
G1 Z2.0 F3000 ; Move Z Axis up little to prevent scratching of Heat Bed
G1 X0.1 Y20 Z0.3 F5000.0 ; Move to start position
G1 X0.1 Y200.0 Z0.3 F1500.0 E15 ; Draw the first line
G1 X0.4 Y200.0 Z0.3 F5000.0 ; Move to side a little
G1 X0.4 Y20 Z0.3 F1500.0 E30 ; Draw the second line
G92 E0 ; Reset Extruder
G1 Z2.0 F3000 ; Move Z Axis up little to prevent scratching of Heat Bed
G1 X5 Y20 Z0.3 F5000.0 ; Move over to prevent blob squish
G92 E0
G92 E0
G1 F2700 E-5
;LAYER_COUNT:26
;LAYER:0
M107
G0 F6000 X83.386 Y100.627 Z0.2
;TYPE:SKIRT
G1 F2700 E0
G1 F1200 X84.126 Y100.051 E0.03119
G1 X84.912 Y99.539 E0.06239
G1 X85.739 Y99.097 E0.09358
G1 X86.601 Y98.727 E0.12478
G1 X87.491 Y98.431 E0.15597
G1 X88.403 Y98.213 E0.18716
G1 X89.33 Y98.072 E0.21835
G1 X90.201 Y98.013 E0.24738
G1 X90.522 Y98.004 E0.25806
G1 X90.83 Y98 E0.26831
G1 X143.793 Y98 E2.02987
G1 X144.649 Y98.011 E2.05834
G1 X145.585 Y98.065 E2.08952
G1 X146.513 Y98.197 E2.1207
G1 X147.427 Y98.409 E2.15191
G1 X148.319 Y98.698 E2.18309
G1 X149.184 Y99.061 E2.21429
G1 X150.014 Y99.497 E2.24548
G1 X150.805 Y100.002 E2.27669
G1 X151.549 Y100.573 E2.30788
G1 X152.242 Y101.205 E2.33908
G1 X152.879 Y101.893 E2.37026
G1 X153.454 Y102.634 E2.40146
G1 X153.965 Y103.42 E2.43264
G1 X154.407 Y104.248 E2.46386
G1 X154.776 Y105.11 E2.49504
G1 X155.071 Y106 E2.52623
G1 X155.289 Y106.912 E2.55742
G1 X155.429 Y107.84 E2.58863
G1 X155.487 Y108.701 E2.61733
G1 X155.496 Y109.021 E2.62798
G1 X155.5 Y109.33 E2.63826
G1 X155.499 Y125.4 E3.17275
G1 X155.49 Y126.127 E3.19693
G1 X155.439 Y127.064 E3.22814
G1 X155.307 Y127.992 E3.25932
G1 X155.098 Y128.906 E3.2905
G1 X154.811 Y129.799 E3.3217
G1 X154.449 Y130.665 E3.35292
G1 X154.015 Y131.496 E3.3841
G1 X153.511 Y132.287 E3.41529
G1 X152.942 Y133.032 E3.44647
G1 X152.311 Y133.727 E3.4777
G1 X151.624 Y134.365 E3.50888
G1 X150.885 Y134.942 E3.54006
G1 X150.099 Y135.454 E3.57126
G1 X149.273 Y135.897 E3.60244
G1 X148.411 Y136.269 E3.63366
G1 X147.522 Y136.565 E3.66483
G1 X146.61 Y136.785 E3.69603
G1 X145.683 Y136.926 E3.72722
G1 X144.799 Y136.987 E3.75669
G1 X144.478 Y136.996 E3.76737
G1 X144.17 Y137 E3.77762
G1 X91.065 Y136.999 E5.54389
G1 X90.367 Y136.99 E5.56711
G1 X89.431 Y136.938 E5.59829
G1 X88.502 Y136.806 E5.6295
G1 X87.588 Y136.596 E5.66069
G1 X86.695 Y136.309 E5.69189
G1 X85.83 Y135.946 E5.72309
G1 X84.999 Y135.512 E5.75427
G1 X84.208 Y135.008 E5.78547
G1 X83.463 Y134.438 E5.81667
G1 X82.769 Y133.807 E5.84786
G1 X82.132 Y133.12 E5.87903
G1 X81.555 Y132.38 E5.91024
G1 X81.043 Y131.594 E5.94144
G1 X80.6 Y130.767 E5.97264
G1 X80.229 Y129.906 E6.00382
G1 X79.933 Y129.016 E6.03502
G1 X79.714 Y128.104 E6.06621
G1 X79.573 Y127.177 E6.0974
G1 X79.513 Y126.288 E6.12703
G1 X79.504 Y125.955 E6.13811
G1 X79.5 Y125.658 E6.14799
G1 X79.501 Y109.525 E6.68458
G1 X79.51 Y108.86 E6.7067
G1 X79.563 Y107.924 E6.73788
G1 X79.695 Y106.995 E6.76909
G1 X79.906 Y106.081 E6.80029
G1 X80.194 Y105.189 E6.83147
G1 X80.557 Y104.324 E6.86267
G1 X80.992 Y103.493 E6.89386
G1 X81.496 Y102.703 E6.92503
G1 X82.066 Y101.958 E6.95623
G1 X82.698 Y101.264 E6.98745
G1 X83.386 Y100.627 E7.01863
G0 F6000 X83.774 Y100.823
G1 F1200 X84.51 Y100.27 E7.04925
G1 X85.291 Y99.782 E7.07988
G1 X86.111 Y99.364 E7.1105
G1 X86.965 Y99.019 E7.14113
G1 X87.845 Y98.749 E7.17175
G1 X88.745 Y98.557 E7.20235
G1 X89.659 Y98.443 E7.23299
G1 X90.212 Y98.413 E7.25141
G1 X90.533 Y98.404 E7.26209
G1 X90.83 Y98.4 E7.27197
G1 X143.793 Y98.4 E9.03353
G1 X144.643 Y98.411 E9.0618
G1 X145.562 Y98.464 E9.09242
G1 X146.473 Y98.597 E9.12304
G1 X147.369 Y98.808 E9.15365
G1 X148.243 Y99.096 E9.18426
G1 X149.09 Y99.459 E9.21491
G1 X149.901 Y99.894 E9.24552
G1 X150.671 Y100.398 E9.27613
G1 X151.395 Y100.967 E9.30675
G1 X152.067 Y101.597 E9.33739
G1 X152.682 Y102.282 E9.36801
G1 X153.235 Y103.018 E9.39863
G1 X153.722 Y103.799 E9.42924
G1 X154.139 Y104.62 E9.45987
G1 X154.484 Y105.474 E9.4905
G1 X154.753 Y106.354 E9.52111
G1 X154.945 Y107.255 E9.55175
G1 X155.058 Y108.168 E9.58235
G1 X155.087 Y108.712 E9.60047
G1 X155.096 Y109.032 E9.61111
G1 X155.1 Y109.33 E9.62103
G1 X155.099 Y125.395 E10.15535
G1 X155.09 Y126.122 E10.17953
G1 X155.039 Y127.041 E10.21015
G1 X154.908 Y127.953 E10.24079
G1 X154.698 Y128.849 E10.2714
G1 X154.412 Y129.724 E10.30202
G1 X154.051 Y130.571 E10.33264
G1 X153.617 Y131.383 E10.36326
G1 X153.115 Y132.155 E10.39389
G1 X152.547 Y132.88 E10.42452
G1 X151.919 Y133.553 E10.45514
G1 X151.235 Y134.169 E10.48576
G1 X150.5 Y134.723 E10.51637
G1 X149.72 Y135.212 E10.54699
G1 X148.9 Y135.631 E10.57761
G1 X148.047 Y135.977 E10.60823
G1 X147.167 Y136.248 E10.63886
G1 X146.267 Y136.441 E10.66947
G1 X145.353 Y136.556 E10.70011
G1 X144.788 Y136.587 E10.71893
G1 X144.467 Y136.596 E10.72961
G1 X144.17 Y136.6 E10.73949
G1 X91.07 Y136.599 E12.5056
G1 X90.372 Y136.59 E12.52882
G1 X89.453 Y136.538 E12.55944
G1 X88.542 Y136.407 E12.59005
G1 X87.646 Y136.197 E12.62066
G1 X86.771 Y135.91 E12.65128
G1 X85.924 Y135.548 E12.68192
G1 X85.112 Y135.114 E12.71254
G1 X84.341 Y134.612 E12.74314
G1 X83.616 Y134.044 E12.77378
G1 X82.943 Y133.415 E12.80442
G1 X82.328 Y132.731 E12.83501
G1 X81.774 Y131.996 E12.86562
G1 X81.286 Y131.215 E12.89625
G1 X80.867 Y130.395 E12.92688
G1 X80.521 Y129.542 E12.9575
G1 X80.251 Y128.662 E12.98811
G1 X80.058 Y127.761 E13.01876
G1 X79.944 Y126.848 E13.04936
G1 X79.913 Y126.277 E13.06838
G1 X79.904 Y125.944 E13.07946
G1 X79.9 Y125.658 E13.08897
G1 X79.901 Y109.531 E13.62536
G1 X79.91 Y108.866 E13.64748
G1 X79.962 Y107.946 E13.67813
G1 X80.094 Y107.035 E13.70874
G1 X80.305 Y106.139 E13.73936
G1 X80.592 Y105.264 E13.76999
G1 X80.955 Y104.418 E13.80061
G1 X81.389 Y103.606 E13.83123
G1 X81.892 Y102.835 E13.86185
G1 X82.461 Y102.111 E13.89248
G1 X83.089 Y101.439 E13.92307
G1 X83.774 Y100.823 E13.95371
G0 F6000 X84.162 Y101.024
G1 F1200 X84.894 Y100.494 E13.98377
G1 X85.669 Y100.031 E14.01379
G1 X86.482 Y99.638 E14.04383
G1 X87.327 Y99.318 E14.07388
G1 X88.196 Y99.075 E14.10389
G1 X89.084 Y98.909 E14.13394
G1 X90.223 Y98.813 E14.17195
G1 X90.544 Y98.804 E14.18263
G1 X90.83 Y98.8 E14.19215
G1 X143.793 Y98.8 E15.9537
G1 X144.637 Y98.811 E15.98178
G1 X145.539 Y98.864 E16.01183
G1 X146.432 Y98.996 E16.04186
G1 X147.31 Y99.207 E16.07189
G1 X148.166 Y99.495 E16.10193
G1 X148.993 Y99.857 E16.13195
G1 X149.785 Y100.292 E16.16201
G1 X150.536 Y100.794 E16.19205
G1 X151.239 Y101.361 E16.22209
G1 X151.889 Y101.988 E16.25213
G1 X152.481 Y102.67 E16.28217
G1 X153.011 Y103.401 E16.3122
G1 X153.473 Y104.177 E16.34224
G1 X153.866 Y104.99 E16.37227
G1 X154.184 Y105.835 E16.4023
G1 X154.427 Y106.705 E16.43234
G1 X154.592 Y107.593 E16.46238
G1 X154.687 Y108.723 E16.5001
G1 X154.696 Y109.043 E16.51075
G1 X154.7 Y109.33 E16.52029
G1 X154.699 Y125.39 E17.05445
G1 X154.69 Y126.117 E17.07863
G1 X154.639 Y127.019 E17.10868
G1 X154.508 Y127.913 E17.13873
G1 X154.299 Y128.791 E17.16875
G1 X154.013 Y129.648 E17.1988
G1 X153.652 Y130.476 E17.22884
G1 X153.22 Y131.268 E17.25885
G1 X152.719 Y132.02 E17.2889
G1 X152.153 Y132.724 E17.31895
G1 X151.528 Y133.375 E17.34896
G1 X150.847 Y133.969 E17.37902
G1 X150.116 Y134.5 E17.40907
G1 X149.342 Y134.964 E17.43909
G1 X148.529 Y135.358 E17.46913
G1 X147.685 Y135.678 E17.49916
G1 X146.815 Y135.923 E17.52922
G1 X145.928 Y136.089 E17.55923
G1 X144.777 Y136.187 E17.59765
G1 X144.456 Y136.196 E17.60833
G1 X144.17 Y136.2 E17.61785
G1 X91.075 Y136.199 E19.38379
G1 X90.377 Y136.19 E19.40701
G1 X89.476 Y136.139 E19.43703
G1 X88.582 Y136.007 E19.46708
G1 X87.704 Y135.798 E19.4971
G1 X86.847 Y135.511 E19.52716
G1 X86.02 Y135.15 E19.55717
G1 X85.227 Y134.717 E19.58723
G1 X84.476 Y134.216 E19.61725
G1 X83.772 Y133.65 E19.6473
G1 X83.121 Y133.024 E19.67733
G1 X82.528 Y132.343 E19.70737
G1 X81.998 Y131.612 E19.7374
G1 X81.534 Y130.837 E19.76744
G1 X81.14 Y130.024 E19.79749
G1 X80.82 Y129.18 E19.82751
G1 X80.576 Y128.31 E19.85757
G1 X80.41 Y127.422 E19.88761
G1 X80.313 Y126.267 E19.92616
G1 X80.304 Y125.934 E19.93724
G1 X80.3 Y125.658 E19.94642
G1 X80.301 Y109.536 E20.48264
G1 X80.31 Y108.871 E20.50476
G1 X80.362 Y107.969 E20.53481
G1 X80.494 Y107.076 E20.56484
G1 X80.704 Y106.198 E20.59486
G1 X80.991 Y105.341 E20.62492
G1 X81.353 Y104.514 E20.65495
G1 X81.786 Y103.722 E20.68497
G1 X82.288 Y102.971 E20.71502
G1 X82.855 Y102.267 E20.74508
G1 X83.481 Y101.617 E20.7751
G1 X84.162 Y101.024 E20.80513
G1 F2700 E15.80513
;MESH:molde.stl
G0 F6000 X90.914 Y108.335
G0 X90.914 Y109.414
G0 X143.318 Y110.182
G0 X143.5 Y125
;TYPE:WALL-INNER
G1 F2700 E20.80513
G1 F1200 X91.5 Y125 E22.53466
G1 X91.5 Y110 E23.03356
G1 X143.5 Y110 E24.76309
G1 X143.5 Y125 E25.26199
G0 F6000 X143.9 Y125.4
G1 F1200 X91.1 Y125.4 E27.01812
G1 X91.1 Y109.6 E27.54363
G1 X143.9 Y109.6 E29.29977
G1 X143.9 Y125.4 E29.82528
G0 F6000 X144.3 Y125.8
;TYPE:WALL-OUTER
G1 F1200 X90.7 Y125.8 E31.60802
G1 X90.7 Y109.2 E32.16014
G1 X144.3 Y109.2 E33.94288
G1 X144.3 Y125.8 E34.495
G0 F6000 X144.03 Y125.53
G0 X143.39 Y124.61
G0 X143.11 Y124.61
;TYPE:SKIN
G1 F1200 X91.89 Y124.61 E36.19859
G1 X91.89 Y110.39 E36.67155
G1 X143.11 Y110.39 E38.37513
G1 X143.11 Y124.61 E38.84809
G0 F6000 X143.39 Y124.61
G0 X143.39 Y110.705
G0 X142.949 Y110.705
G1 F1200 X142.793 Y110.549 E38.85543
G0 F6000 X142.228 Y110.549
G1 F1200 X142.949 Y111.271 E38.88936
G0 F6000 X142.949 Y111.836
G1 F1200 X141.662 Y110.549 E38.9499
G0 F6000 X141.096 Y110.549
G1 F1200 X142.949 Y112.402 E39.03706
G0 F6000 X142.949 Y112.968
G1 F1200 X140.531 Y110.549 E39.15082
G0 F6000 X139.965 Y110.549
G1 F1200 X142.949 Y113.533 E39.29118
G0 F6000 X142.949 Y114.099
G1 F1200 X139.399 Y110.549 E39.45816
G0 F6000 X138.834 Y110.549
G1 F1200 X142.949 Y114.665 E39.65174
G0 F6000 X142.949 Y115.23
G1 F1200 X138.268 Y110.549 E39.87192
G0 F6000 X137.702 Y110.549
G1 F1200 X142.949 Y115.796 E40.11872
G0 F6000 X142.949 Y116.362
G1 F1200 X137.136 Y110.549 E40.39215
G0 F6000 X136.571 Y110.549
G1 F1200 X142.949 Y116.927 E40.69215
G0 F6000 X142.949 Y117.493
G1 F1200 X136.005 Y110.549 E41.01877
G0 F6000 X135.439 Y110.549
G1 F1200 X142.949 Y118.059 E41.37202
G0 F6000 X142.949 Y118.624
G1 F1200 X134.874 Y110.549 E41.75184
G0 F6000 X134.308 Y110.549
G1 F1200 X142.949 Y119.19 E42.15829
G0 F6000 X142.949 Y119.756
G1 F1200 X133.742 Y110.549 E42.59136
G0 F6000 X133.177 Y110.549
G1 F1200 X142.949 Y120.321 E43.051
G0 F6000 X142.949 Y120.887
G1 F1200 X132.611 Y110.549 E43.53727
G0 F6000 X132.045 Y110.549
G1 F1200 X142.949 Y121.453 E44.05016
G0 F6000 X142.949 Y122.019
G1 F1200 X131.48 Y110.549 E44.58965
G0 F6000 X130.914 Y110.549
G1 F1200 X142.949 Y122.584 E45.15574
G0 F6000 X142.949 Y123.15
G1 F1200 X130.348 Y110.549 E45.74845
G0 F6000 X129.783 Y110.549
G1 F1200 X142.949 Y123.716 E46.36777
G0 F6000 X142.949 Y124.281
G1 F1200 X129.217 Y110.549 E47.01368
G0 F6000 X128.651 Y110.549
G1 F1200 X142.551 Y124.449 E47.66749
G0 F6000 X141.985 Y124.449
G1 F1200 X128.086 Y110.549 E48.32128
G0 F6000 X127.52 Y110.549
G1 F1200 X141.419 Y124.449 E48.97507
G0 F6000 X140.854 Y124.449
G1 F1200 X126.954 Y110.549 E49.62888
G0 F6000 X126.388 Y110.549
G1 F1200 X140.288 Y124.449 E50.2827
G0 F6000 X139.722 Y124.449
G1 F1200 X125.823 Y110.549 E50.93649
G0 F6000 X125.257 Y110.549
G1 F1200 X139.157 Y124.449 E51.5903
G0 F6000 X138.591 Y124.449
G1 F1200 X124.691 Y110.549 E52.24411
G0 F6000 X124.126 Y110.549
G1 F1200 X138.025 Y124.449 E52.8979
G0 F6000 X137.46 Y124.449
G1 F1200 X123.56 Y110.549 E53.55172
G0 F6000 X122.994 Y110.549
G1 F1200 X136.894 Y124.449 E54.20553
G0 F6000 X136.328 Y124.449
G1 F1200 X122.429 Y110.549 E54.85932
G0 F6000 X121.863 Y110.549
G1 F1200 X135.763 Y124.449 E55.51313
G0 F6000 X135.197 Y124.449
G1 F1200 X121.297 Y110.549 E56.16695
G0 F6000 X120.732 Y110.549
G1 F1200 X134.631 Y124.449 E56.82074
G0 F6000 X134.066 Y124.449
G1 F1200 X120.166 Y110.549 E57.47455
G0 F6000 X119.6 Y110.549
G1 F1200 X133.5 Y124.449 E58.12836
G0 F6000 X132.934 Y124.449
G1 F1200 X119.035 Y110.549 E58.78215
G0 F6000 X118.469 Y110.549
G1 F1200 X132.368 Y124.449 E59.43594
G0 F6000 X131.803 Y124.449
G1 F1200 X117.903 Y110.549 E60.08976
G0 F6000 X117.338 Y110.549
G1 F1200 X131.237 Y124.449 E60.74355
G0 F6000 X130.671 Y124.449
G1 F1200 X116.772 Y110.549 E61.39734
G0 F6000 X116.206 Y110.549
G1 F1200 X130.106 Y124.449 E62.05115
G0 F6000 X129.54 Y124.449
G1 F1200 X115.64 Y110.549 E62.70496
G0 F6000 X115.075 Y110.549
G1 F1200 X128.974 Y124.449 E63.35875
G0 F6000 X128.409 Y124.449
G1 F1200 X114.509 Y110.549 E64.01257
G0 F6000 X113.943 Y110.549
G1 F1200 X127.843 Y124.449 E64.66638
G0 F6000 X127.277 Y124.449
G1 F1200 X113.378 Y110.549 E65.32017
G0 F6000 X112.812 Y110.549
G1 F1200 X126.712 Y124.449 E65.97398
G0 F6000 X126.146 Y124.449
G1 F1200 X112.246 Y110.549 E66.6278
G0 F6000 X111.681 Y110.549
G1 F1200 X125.58 Y124.449 E67.28159
G0 F6000 X125.015 Y124.449
G1 F1200 X111.115 Y110.549 E67.9354
G0 F6000 X110.549 Y110.549
G1 F1200 X124.449 Y124.449 E68.58921
G0 F6000 X123.883 Y124.449
G1 F1200 X109.984 Y110.549 E69.243
G0 F6000 X109.418 Y110.549
G1 F1200 X123.318 Y124.449 E69.89682
G0 F6000 X122.752 Y124.449
G1 F1200 X108.852 Y110.549 E70.55063
G0 F6000 X108.287 Y110.549
G1 F1200 X122.186 Y124.449 E71.20442
G0 F6000 X121.62 Y124.449
G1 F1200 X107.721 Y110.549 E71.85821
G0 F6000 X107.155 Y110.549
G1 F1200 X121.055 Y124.449 E72.51202
G0 F6000 X120.489 Y124.449
G1 F1200 X106.589 Y110.549 E73.16584
G0 F6000 X106.024 Y110.549
G1 F1200 X119.923 Y124.449 E73.81963
G0 F6000 X119.358 Y124.449
G1 F1200 X105.458 Y110.549 E74.47344
G0 F6000 X104.892 Y110.549
G1 F1200 X118.792 Y124.449 E75.12725
G0 F6000 X118.226 Y124.449
G1 F1200 X104.327 Y110.549 E75.78104
G0 F6000 X103.761 Y110.549
G1 F1200 X117.661 Y124.449 E76.43486
G0 F6000 X117.095 Y124.449
G1 F1200 X103.195 Y110.549 E77.08867
G0 F6000 X102.63 Y110.549
G1 F1200 X116.529 Y124.449 E77.74246
G0 F6000 X115.964 Y124.449
G1 F1200 X102.064 Y110.549 E78.39627
G0 F6000 X101.498 Y110.549
G1 F1200 X115.398 Y124.449 E79.05009
G0 F6000 X114.832 Y124.449
G1 F1200 X100.933 Y110.549 E79.70388
G0 F6000 X100.367 Y110.549
G1 F1200 X114.267 Y124.449 E80.35769
G0 F6000 X113.701 Y124.449
G1 F1200 X99.801 Y110.549 E81.0115
G0 F6000 X99.236 Y110.549
G1 F1200 X113.135 Y124.449 E81.66529
G0 F6000 X112.569 Y124.449
G1 F1200 X98.67 Y110.549 E82.31908
G0 F6000 X98.104 Y110.549
G1 F1200 X112.004 Y124.449 E82.9729
G0 F6000 X111.438 Y124.449
G1 F1200 X97.539 Y110.549 E83.62669
G0 F6000 X96.973 Y110.549
G1 F1200 X110.872 Y124.449 E84.28048
G0 F6000 X110.307 Y124.449
G1 F1200 X96.407 Y110.549 E84.93429
G0 F6000 X95.841 Y110.549
G1 F1200 X109.741 Y124.449 E85.5881
G0 F6000 X109.175 Y124.449
G1 F1200 X95.276 Y110.549 E86.24189
G0 F6000 X94.71 Y110.549
G1 F1200 X108.61 Y124.449 E86.89571
G0 F6000 X108.044 Y124.449
G1 F1200 X94.144 Y110.549 E87.54952
G0 F6000 X93.579 Y110.549
G1 F1200 X107.478 Y124.449 E88.20331
G0 F6000 X106.913 Y124.449
G1 F1200 X93.013 Y110.549 E88.85712
G0 F6000 X92.447 Y110.549
G1 F1200 X106.347 Y124.449 E89.51094
G0 F6000 X105.781 Y124.449
G1 F1200 X92.049 Y110.717 E90.15685
G0 F6000 X92.049 Y111.283
G1 F1200 X105.216 Y124.449 E90.77616
G0 F6000 X104.65 Y124.449
G1 F1200 X92.049 Y111.848 E91.36887
G0 F6000 X92.049 Y112.414
G1 F1200 X104.084 Y124.449 E91.93496
G0 F6000 X103.519 Y124.449
G1 F1200 X92.049 Y112.98 E92.47445
G0 F6000 X92.049 Y113.545
G1 F1200 X102.953 Y124.449 E92.98734
G0 F6000 X102.387 Y124.449
G1 F1200 X92.049 Y114.111 E93.47361
G0 F6000 X92.049 Y114.677
