;FLAVOR:Marlin
M117 Time Left 1h34m31s
;TIME:5671
;Filament used: 3.09252m
;Layer height: 0.16
;MINX:66.071
;MINY:100.55
;MINZ:0.2
;MAXX:168.935
;MAXY:134.45
;MAXZ:16.36
;POSTPROCESSED
;Generated with Cura_SteamEngine 4.8.0
M140 S60
M105
M190 S60
M104 S205
M105
M109 S205
M82 ;absolute extrusion mode
; Ender 3 Custom Start G-code
G92 E0 ; Reset Extruder
G28 ; Home all axes
; ***SET NEW E STEP *** (93 is factory value - 95 mine - start)
G90                          ; Force coordinates to be absolute relative to the origin
M92 E95 ;					 ; ***SET NEW E STEP *** (93 is factory value - 95 mine - end)
G90                          ; Force coordinates to be absolute relative to the origin
G28                          ; Home X/Y/Z axis
G92 E0 ; Reset Extruder
G28 ; Home all axes
G1 Z2.0 F3000 ; Move Z Axis up little to prevent scratching of Heat Bed
G1 X0.1 Y20 Z0.3 F5000.0 ; Move to start position
G1 X0.1 Y200.0 Z0.3 F1500.0 E15 ; Draw the first line
G1 X0.4 Y200.0 Z0.3 F5000.0 ; Move to side a little
G1 X0.4 Y20 Z0.3 F1500.0 E30 ; Draw the second line
G92 E0 ; Reset Extruder
G1 Z2.0 F3000 ; Move Z Axis up little to prevent scratching of Heat Bed
G1 X5 Y20 Z0.3 F5000.0 ; Move over to prevent blob squish
G92 E0
G92 E0
G1 F2700 E-5
;LAYER_COUNT:83
;LAYER:0
M107
G0 F6000 X73.017 Y103.818 Z0.2
;TYPE:SKIRT
G1 F2700 E0
G1 F1200 X73.652 Y103.389 E0.02549
G1 X74.28 Y102.996 E0.05013
G1 X74.657 Y102.77 E0.06475
G1 X74.867 Y102.65 E0.07279
G1 X75.701 Y102.22 E0.104
G1 X76.133 Y102.031 E0.11968
G1 X76.902 Y101.714 E0.14735
G1 X77.583 Y101.46 E0.17152
G1 X77.868 Y101.364 E0.18153
G1 X78.689 Y101.122 E0.20999
G1 X78.804 Y101.093 E0.21394
G1 X79.361 Y100.968 E0.23293
G1 X80.125 Y100.817 E0.25883
G1 X80.865 Y100.697 E0.28376
G1 X81.435 Y100.636 E0.30283
G1 X81.788 Y100.608 E0.31461
G1 X82.17 Y100.585 E0.32733
G1 X82.508 Y100.57 E0.33859
G1 X82.85 Y100.56 E0.34997
G1 X83.675 Y100.55 E0.37741
G1 X151.294 Y100.55 E2.62643
G1 X152.216 Y100.562 E2.65709
G1 X152.501 Y100.57 E2.66658
G1 X152.749 Y100.58 E2.67483
G1 X153.25 Y100.612 E2.69153
G1 X153.726 Y100.653 E2.70742
G1 X154.406 Y100.733 E2.73019
G1 X154.901 Y100.815 E2.74688
G1 X155.296 Y100.89 E2.76025
G1 X155.821 Y101.003 E2.77812
G1 X156.099 Y101.07 E2.78763
G1 X156.683 Y101.228 E2.80775
G1 X156.913 Y101.297 E2.81574
G1 X157.628 Y101.539 E2.84084
G1 X158.284 Y101.786 E2.86416
G1 X158.681 Y101.944 E2.87837
G1 X158.783 Y101.987 E2.88205
G1 X159.313 Y102.227 E2.9014
G1 X159.587 Y102.36 E2.91153
G1 X160.336 Y102.76 E2.93977
G1 X160.596 Y102.912 E2.94979
G1 X160.92 Y103.109 E2.9624
G1 X161.246 Y103.315 E2.97523
G1 X161.826 Y103.708 E2.99853
G1 X162.055 Y103.874 E3.00794
G1 X162.536 Y104.243 E3.0281
G1 X162.728 Y104.399 E3.03633
G1 X163.127 Y104.739 E3.05376
G1 X163.441 Y105.02 E3.06778
G1 X163.912 Y105.467 E3.08938
G1 X164.184 Y105.741 E3.10222
G1 X164.822 Y106.442 E3.13374
G1 X165.024 Y106.684 E3.14423
G1 X165.235 Y106.945 E3.15539
G1 X165.424 Y107.186 E3.16558
G1 X165.817 Y107.719 E3.1876
G1 X166.07 Y108.085 E3.2024
G1 X166.625 Y108.977 E3.23734
G1 X166.864 Y109.405 E3.25365
G1 X167.022 Y109.698 E3.26472
G1 X167.156 Y109.956 E3.27439
G1 X167.32 Y110.285 E3.28662
G1 X167.813 Y111.462 E3.32906
G1 X168.043 Y112.115 E3.35208
G1 X168.264 Y112.815 E3.3765
G1 X168.39 Y113.267 E3.39211
G1 X168.626 Y114.305 E3.42751
G1 X168.701 Y114.729 E3.44183
G1 X168.752 Y115.046 E3.45251
G1 X168.783 Y115.257 E3.45961
G1 X168.836 Y115.674 E3.47359
G1 X168.86 Y115.896 E3.48101
G1 X168.919 Y116.745 E3.50932
G1 X168.929 Y117.075 E3.5203
G1 X168.935 Y117.498 E3.53437
G1 X168.93 Y117.885 E3.54724
G1 X168.92 Y118.231 E3.55876
G1 X168.855 Y119.156 E3.5896
G1 X168.816 Y119.499 E3.60108
G1 X168.735 Y120.071 E3.62029
G1 X168.648 Y120.591 E3.63783
G1 X168.451 Y121.52 E3.66942
G1 X168.4 Y121.718 E3.67622
G1 X168.313 Y122.037 E3.68721
G1 X168.175 Y122.513 E3.7037
G1 X167.954 Y123.191 E3.72741
G1 X167.903 Y123.332 E3.7324
G1 X167.634 Y124.005 E3.75651
G1 X167.464 Y124.393 E3.7706
G1 X167.156 Y125.039 E3.7944
G1 X166.883 Y125.566 E3.81414
G1 X166.406 Y126.397 E3.84601
G1 X166.224 Y126.684 E3.85731
G1 X165.985 Y127.044 E3.87168
G1 X165.764 Y127.364 E3.88462
G1 X165.266 Y128.03 E3.91228
G1 X165.135 Y128.192 E3.91921
G1 X164.885 Y128.49 E3.93215
G1 X164.759 Y128.635 E3.93853
G1 X164.468 Y128.957 E3.95297
G1 X164.135 Y129.311 E3.96913
G1 X163.542 Y129.895 E3.99682
G1 X163.357 Y130.064 E4.00515
G1 X163.019 Y130.361 E4.02012
G1 X162.849 Y130.504 E4.0275
G1 X162.459 Y130.817 E4.04414
G1 X162.091 Y131.099 E4.05956
G1 X161.484 Y131.532 E4.08436
G1 X161.243 Y131.692 E4.09398
G1 X160.39 Y132.205 E4.12708
G1 X159.687 Y132.585 E4.15366
G1 X158.621 Y133.089 E4.19288
G1 X158.141 Y133.276 E4.21002
G1 X157.394 Y133.547 E4.23645
G1 X156.088 Y133.931 E4.28172
G1 X155.544 Y134.055 E4.30028
G1 X155.079 Y134.15 E4.31606
G1 X154.762 Y134.208 E4.32678
G1 X153.843 Y134.337 E4.35765
G1 X153.585 Y134.362 E4.36627
G1 X153.104 Y134.398 E4.38231
G1 X152.801 Y134.414 E4.3924
G1 X152.423 Y134.427 E4.40498
G1 X151.282 Y134.448 E4.44294
G1 X151.08 Y134.45 E4.44966
G1 X83.564 Y134.449 E6.69525
G1 X83.179 Y134.444 E6.70806
G1 X82.777 Y134.431 E6.72143
G1 X81.789 Y134.382 E6.75434
G1 X81.208 Y134.338 E6.77372
G1 X81.004 Y134.317 E6.78054
G1 X79.984 Y134.164 E6.81484
G1 X79.602 Y134.088 E6.8278
G1 X79.098 Y133.975 E6.84498
G1 X78.667 Y133.868 E6.85975
G1 X78.038 Y133.692 E6.88147
G1 X77.801 Y133.618 E6.88973
G1 X77.12 Y133.381 E6.91371
G1 X76.866 Y133.283 E6.92277
G1 X76.424 Y133.101 E6.93866
G1 X75.927 Y132.884 E6.9567
G1 X75.108 Y132.485 E6.987
G1 X75.006 Y132.43 E6.99086
G1 X74.533 Y132.159 E7.00899
G1 X74.057 Y131.871 E7.02749
G1 X73.415 Y131.452 E7.05299
G1 X73.046 Y131.192 E7.068
G1 X72.228 Y130.556 E7.10247
G1 X71.769 Y130.163 E7.12256
G1 X71.243 Y129.682 E7.14627
G1 X70.96 Y129.406 E7.15942
G1 X70.282 Y128.682 E7.19241
G1 X70.122 Y128.495 E7.20059
G1 X69.814 Y128.119 E7.21676
G1 X69.581 Y127.821 E7.22934
G1 X69.361 Y127.529 E7.2415
G1 X69.218 Y127.333 E7.24957
G1 X68.66 Y126.491 E7.28317
G1 X68.304 Y125.895 E7.30626
G1 X67.948 Y125.251 E7.33073
G1 X67.793 Y124.947 E7.34208
G1 X67.398 Y124.08 E7.37377
G1 X67.272 Y123.769 E7.38493
G1 X67.166 Y123.497 E7.39464
G1 X67.072 Y123.246 E7.40355
G1 X66.928 Y122.837 E7.41798
G1 X66.859 Y122.628 E7.4253
G1 X66.654 Y121.931 E7.44946
G1 X66.585 Y121.664 E7.45863
G1 X66.418 Y120.911 E7.48429
G1 X66.311 Y120.332 E7.50387
G1 X66.206 Y119.64 E7.52715
G1 X66.164 Y119.289 E7.53891
G1 X66.123 Y118.879 E7.55261
G1 X66.105 Y118.659 E7.55995
G1 X66.071 Y117.51 E7.59819
G1 X66.087 Y116.812 E7.62141
G1 X66.123 Y116.141 E7.64376
G1 X66.146 Y115.868 E7.65287
G1 X66.278 Y114.862 E7.68662
G1 X66.389 Y114.239 E7.70766
G1 X66.473 Y113.813 E7.72211
G1 X66.505 Y113.667 E7.72708
G1 X66.83 Y112.497 E7.76746
G1 X67.102 Y111.693 E7.79569
G1 X67.466 Y110.76 E7.829
G1 X67.595 Y110.469 E7.83959
G1 X67.856 Y109.921 E7.85978
G1 X67.948 Y109.741 E7.8665
G1 X68.205 Y109.268 E7.88441
G1 X68.448 Y108.845 E7.90063
G1 X68.803 Y108.269 E7.92314
G1 X68.954 Y108.04 E7.93226
G1 X69.431 Y107.371 E7.95959
G1 X69.638 Y107.103 E7.97085
G1 X69.87 Y106.813 E7.9832
G1 X70.139 Y106.488 E7.99724
G1 X70.571 Y105.996 E8.01901
G1 X70.683 Y105.876 E8.02447
G1 X71.327 Y105.241 E8.05455
G1 X71.787 Y104.823 E8.07523
G1 X72.085 Y104.562 E8.0884
G1 X72.343 Y104.344 E8.09964
G1 X72.973 Y103.85 E8.12626
G1 X73.017 Y103.818 E8.12807
G0 F6000 X73.252 Y104.141
G1 F1200 X73.864 Y103.728 E8.15263
G1 X74.492 Y103.335 E8.17727
G1 X74.856 Y103.118 E8.19136
G1 X75.066 Y102.998 E8.19941
G1 X76.285 Y102.401 E8.24455
G1 X77.054 Y102.084 E8.27222
G1 X77.71 Y101.839 E8.29551
G1 X77.995 Y101.743 E8.30551
G1 X78.787 Y101.51 E8.33297
G1 X78.902 Y101.481 E8.33691
G1 X79.439 Y101.36 E8.35522
G1 X80.203 Y101.209 E8.38113
G1 X80.916 Y101.093 E8.40515
G1 X81.467 Y101.035 E8.42358
G1 X81.82 Y101.007 E8.43536
G1 X82.188 Y100.984 E8.44762
G1 X82.526 Y100.969 E8.45887
G1 X82.856 Y100.96 E8.46985
G1 X83.675 Y100.95 E8.4971
G1 X151.294 Y100.95 E10.74611
G1 X152.211 Y100.962 E10.77661
G1 X152.485 Y100.97 E10.78573
G1 X152.733 Y100.98 E10.79399
G1 X153.216 Y101.01 E10.81008
G1 X153.692 Y101.051 E10.82597
G1 X154.347 Y101.128 E10.84791
G1 X154.826 Y101.208 E10.86406
G1 X155.221 Y101.283 E10.87743
G1 X155.728 Y101.392 E10.89468
G1 X156.006 Y101.459 E10.90419
G1 X156.568 Y101.611 E10.92356
G1 X156.798 Y101.68 E10.93154
G1 X157.487 Y101.913 E10.95573
G1 X158.143 Y102.16 E10.97905
G1 X158.526 Y102.312 E10.99275
G1 X158.628 Y102.355 E10.99644
G1 X159.139 Y102.587 E11.0151
G1 X159.413 Y102.72 E11.02523
G1 X160.134 Y103.105 E11.05242
G1 X160.394 Y103.257 E11.06243
G1 X160.706 Y103.447 E11.07458
G1 X161.032 Y103.653 E11.08741
G1 X161.591 Y104.032 E11.10987
G1 X161.82 Y104.198 E11.11928
G1 X162.283 Y104.553 E11.13868
G1 X162.475 Y104.709 E11.14691
G1 X162.86 Y105.037 E11.16373
G1 X163.174 Y105.318 E11.17775
G1 X163.628 Y105.749 E11.19857
G1 X163.9 Y106.023 E11.21141
G1 X164.515 Y106.698 E11.24178
G1 X164.717 Y106.94 E11.25227
G1 X164.92 Y107.192 E11.26303
G1 X165.109 Y107.433 E11.27322
G1 X165.488 Y107.947 E11.29446
G1 X165.741 Y108.313 E11.30926
G1 X166.276 Y109.172 E11.34291
G1 X166.515 Y109.6 E11.35922
G1 X166.667 Y109.882 E11.36987
G1 X166.801 Y110.14 E11.37954
G1 X166.961 Y110.46 E11.39144
G1 X167.436 Y111.595 E11.43237
G1 X167.666 Y112.248 E11.45539
G1 X167.879 Y112.923 E11.47893
G1 X168.005 Y113.375 E11.49454
G1 X168.232 Y114.375 E11.52865
G1 X168.307 Y114.799 E11.54297
G1 X168.356 Y115.104 E11.55324
G1 X168.387 Y115.315 E11.56034
G1 X168.439 Y115.717 E11.57382
G1 X168.463 Y115.939 E11.58125
G1 X168.519 Y116.757 E11.60852
G1 X168.529 Y117.087 E11.6195
G1 X168.535 Y117.5 E11.63323
G1 X168.531 Y117.873 E11.64564
G1 X168.521 Y118.219 E11.65715
G1 X168.457 Y119.111 E11.6869
G1 X168.418 Y119.454 E11.69838
G1 X168.341 Y120.005 E11.71688
G1 X168.254 Y120.525 E11.73442
G1 X168.064 Y121.42 E11.76485
G1 X168.013 Y121.618 E11.77165
G1 X167.929 Y121.926 E11.78227
G1 X167.791 Y122.402 E11.79875
G1 X167.578 Y123.055 E11.8216
G1 X167.527 Y123.196 E11.82659
G1 X167.268 Y123.845 E11.84983
G1 X167.098 Y124.233 E11.86392
G1 X166.801 Y124.855 E11.88684
G1 X166.528 Y125.382 E11.90658
G1 X166.068 Y126.183 E11.9373
G1 X165.886 Y126.47 E11.94861
G1 X165.656 Y126.817 E11.96245
G1 X165.435 Y127.137 E11.97539
G1 X164.955 Y127.778 E12.00202
G1 X164.824 Y127.94 E12.00895
G1 X164.583 Y128.228 E12.02144
G1 X164.457 Y128.373 E12.02783
G1 X164.177 Y128.683 E12.04173
G1 X163.844 Y129.037 E12.05789
G1 X163.272 Y129.6 E12.08458
G1 X163.087 Y129.769 E12.09292
G1 X162.761 Y130.055 E12.10734
G1 X162.591 Y130.198 E12.11473
G1 X162.215 Y130.5 E12.13077
G1 X161.847 Y130.782 E12.14619
G1 X161.263 Y131.199 E12.17006
G1 X161.022 Y131.359 E12.17968
G1 X160.199 Y131.853 E12.21161
G1 X159.496 Y132.233 E12.23819
G1 X158.47 Y132.719 E12.27595
G1 X158.005 Y132.9 E12.29254
G1 X157.258 Y133.171 E12.31897
G1 X155.999 Y133.541 E12.36262
G1 X155.455 Y133.665 E12.38117
G1 X155.007 Y133.757 E12.39639
G1 X154.69 Y133.815 E12.4071
G1 X153.804 Y133.939 E12.43686
G1 X153.546 Y133.964 E12.44548
G1 X153.083 Y133.998 E12.46092
G1 X152.78 Y134.014 E12.47101
G1 X152.416 Y134.027 E12.48313
G1 X151.08 Y134.05 E12.52757
G1 X83.569 Y134.049 E14.773
G1 X83.184 Y134.044 E14.7858
G1 X82.797 Y134.032 E14.79868
G1 X81.809 Y133.983 E14.83158
G1 X81.249 Y133.94 E14.85026
G1 X81.045 Y133.919 E14.85708
G1 X80.062 Y133.771 E14.89015
G1 X79.68 Y133.695 E14.9031
G1 X79.194 Y133.587 E14.91966
G1 X78.763 Y133.48 E14.93443
G1 X78.158 Y133.31 E14.95533
G1 X77.921 Y133.236 E14.96359
G1 X77.264 Y133.007 E14.98673
G1 X77.01 Y132.909 E14.99579
G1 X76.584 Y132.734 E15.0111
G1 X76.087 Y132.517 E15.02914
G1 X75.298 Y132.133 E15.05833
G1 X75.196 Y132.078 E15.06218
G1 X74.74 Y131.817 E15.07965
G1 X74.264 Y131.529 E15.09816
G1 X73.646 Y131.125 E15.12272
G1 X73.277 Y130.865 E15.13773
G1 X72.488 Y130.252 E15.17096
G1 X72.029 Y129.859 E15.19106
G1 X71.522 Y129.396 E15.2139
G1 X71.239 Y129.12 E15.22704
G1 X70.586 Y128.422 E15.25883
G1 X70.426 Y128.235 E15.26702
G1 X70.129 Y127.873 E15.28259
G1 X69.896 Y127.575 E15.29518
G1 X69.684 Y127.294 E15.30688
G1 X69.541 Y127.098 E15.31495
G1 X69.004 Y126.286 E15.34733
G1 X68.648 Y125.69 E15.37042
G1 X68.305 Y125.069 E15.39402
G1 X68.15 Y124.765 E15.40537
G1 X67.769 Y123.93 E15.43589
G1 X67.643 Y123.619 E15.44705
G1 X67.54 Y123.357 E15.45642
G1 X67.446 Y123.106 E15.46533
G1 X67.307 Y122.711 E15.47926
G1 X67.238 Y122.502 E15.48658
G1 X67.041 Y121.831 E15.50984
G1 X66.972 Y121.564 E15.51901
G1 X66.811 Y120.838 E15.54375
G1 X66.704 Y120.259 E15.56333
G1 X66.603 Y119.592 E15.58577
G1 X66.561 Y119.241 E15.59752
G1 X66.521 Y118.846 E15.61073
G1 X66.503 Y118.626 E15.61807
G1 X66.471 Y117.519 E15.6549
G1 X66.487 Y116.821 E15.67813
G1 X66.521 Y116.174 E15.69968
G1 X66.544 Y115.901 E15.70879
G1 X66.671 Y114.932 E15.74129
G1 X66.782 Y114.309 E15.76234
G1 X66.864 Y113.899 E15.77625
G1 X66.896 Y113.753 E15.78122
G1 X67.209 Y112.625 E15.82015
G1 X67.481 Y111.821 E15.84838
G1 X67.831 Y110.922 E15.88047
G1 X67.96 Y110.631 E15.89106
G1 X68.212 Y110.103 E15.91052
G1 X68.304 Y109.923 E15.91724
G1 X68.552 Y109.467 E15.9345
G1 X68.795 Y109.044 E15.95073
G1 X69.137 Y108.489 E15.97241
G1 X69.288 Y108.26 E15.98154
G1 X69.748 Y107.615 E16.00788
G1 X69.955 Y107.347 E16.01915
G1 X70.178 Y107.068 E16.03103
G1 X70.447 Y106.743 E16.04506
G1 X70.864 Y106.269 E16.06606
G1 X70.976 Y106.149 E16.07152
G1 X71.596 Y105.537 E16.10049
G1 X72.056 Y105.119 E16.12116
G1 X72.344 Y104.867 E16.13389
G1 X72.602 Y104.649 E16.14513
G1 X73.208 Y104.173 E16.17076
G1 X73.252 Y104.141 E16.17257
G0 F6000 X73.488 Y104.465
G1 F1200 X74.076 Y104.068 E16.19616
G1 X74.704 Y103.675 E16.2208
G1 X75.054 Y103.465 E16.23438
G1 X75.264 Y103.345 E16.24242
G1 X76.438 Y102.771 E16.28589
G1 X77.207 Y102.454 E16.31355
G1 X77.838 Y102.218 E16.33596
G1 X78.123 Y102.122 E16.34596
G1 X78.885 Y101.898 E16.37238
G1 X79 Y101.869 E16.37632
G1 X79.516 Y101.753 E16.39392
G1 X80.28 Y101.602 E16.41982
G1 X80.966 Y101.49 E16.44294
G1 X81.498 Y101.434 E16.46073
G1 X81.851 Y101.406 E16.47251
G1 X82.206 Y101.384 E16.48434
G1 X82.544 Y101.369 E16.49559
G1 X82.861 Y101.36 E16.50614
G1 X83.675 Y101.35 E16.53321
G1 X151.294 Y101.35 E18.78223
G1 X152.205 Y101.362 E18.81253
G1 X152.469 Y101.369 E18.82132
G1 X152.717 Y101.379 E18.82957
G1 X153.181 Y101.409 E18.84504
G1 X153.657 Y101.45 E18.86093
G1 X154.288 Y101.524 E18.88206
G1 X154.752 Y101.601 E18.8977
G1 X155.147 Y101.676 E18.91107
G1 X155.634 Y101.781 E18.92764
G1 X155.912 Y101.848 E18.93715
G1 X156.453 Y101.994 E18.95579
G1 X156.683 Y102.063 E18.96378
G1 X157.346 Y102.287 E18.98705
G1 X158.002 Y102.534 E19.01037
G1 X158.37 Y102.681 E19.02355
G1 X158.472 Y102.724 E19.02723
G1 X158.964 Y102.947 E19.0452
G1 X159.238 Y103.08 E19.05533
G1 X159.932 Y103.45 E19.08149
G1 X160.192 Y103.602 E19.0915
G1 X160.493 Y103.785 E19.10322
G1 X160.819 Y103.991 E19.11604
G1 X161.356 Y104.356 E19.13764
G1 X161.585 Y104.522 E19.14705
G1 X162.031 Y104.864 E19.16574
G1 X162.223 Y105.02 E19.17397
G1 X162.593 Y105.335 E19.19013
G1 X162.907 Y105.616 E19.20415
G1 X163.344 Y106.031 E19.22419
G1 X163.616 Y106.305 E19.23703
G1 X164.208 Y106.955 E19.26627
G1 X164.41 Y107.197 E19.27676
G1 X164.605 Y107.439 E19.28709
G1 X164.794 Y107.68 E19.29728
G1 X165.158 Y108.174 E19.31769
G1 X165.411 Y108.54 E19.33249
G1 X165.927 Y109.367 E19.36491
G1 X166.166 Y109.795 E19.38121
G1 X166.312 Y110.067 E19.39148
G1 X166.558 Y110.546 E19.40939
G1 X166.602 Y110.636 E19.41272
G1 X167.059 Y111.727 E19.45207
G1 X167.289 Y112.38 E19.47509
G1 X167.493 Y113.03 E19.49775
G1 X167.619 Y113.482 E19.51336
G1 X167.838 Y114.444 E19.54617
G1 X167.913 Y114.868 E19.56049
G1 X167.961 Y115.162 E19.5704
G1 X167.992 Y115.373 E19.5775
G1 X168.041 Y115.76 E19.59047
G1 X168.065 Y115.982 E19.5979
G1 X168.119 Y116.769 E19.62413
G1 X168.134 Y117.344 E19.64326
G1 X168.135 Y117.503 E19.64855
G1 X168.131 Y117.862 E19.66049
G1 X168.121 Y118.208 E19.67201
G1 X168.06 Y119.065 E19.70058
G1 X168.021 Y119.408 E19.71207
G1 X167.946 Y119.939 E19.7299
G1 X167.859 Y120.459 E19.74744
G1 X167.677 Y121.32 E19.77671
G1 X167.626 Y121.518 E19.78351
