;FLAVOR:Marlin
M117 Time Left 0h21m32s
;TIME:1292
;Filament used: 0.444134m
;Layer height: 0.2
;MINX:100.998
;MINY:101.05
;MINZ:0.2
;MAXX:134
;MAXY:133.95
;MAXZ:18.4
;POSTPROCESSED
;Generated with Cura_SteamEngine 4.8.0
M140 S60
M105
M190 S60
M104 S205
M105
M109 S205
M82 ;absolute extrusion mode
; Ender 3 Custom Start G-code
G92 E0 ; Reset Extruder
G28 ; Home all axes
; ***SET NEW E STEP *** (93 is factory value - 95 mine - start)
G90                          ; Force coordinates to be absolute relative to the origin
M92 E95 ;					 ; ***SET NEW E STEP *** (93 is factory value - 95 mine - end)
G90                          ; Force coordinates to be absolute relative to the origin
G28                          ; Home X/Y/Z axis
G92 E0 ; Reset Extruder
G28 ; Home all axes
G1 Z2.0 F3000 ; Move Z Axis up little to prevent scratching of Heat Bed
G1 X0.1 Y20 Z0.3 F5000.0 ; Move to start position
G1 X0.1 Y200.0 Z0.3 F1500.0 E15 ; Draw the first line
G1 X0.4 Y200.0 Z0.3 F5000.0 ; Move to side a little
G1 X0.4 Y20 Z0.3 F1500.0 E30 ; Draw the second line
G92 E0 ; Reset Extruder
G1 Z2.0 F3000 ; Move Z Axis up little to prevent scratching of Heat Bed
G1 X5 Y20 Z0.3 F5000.0 ; Move over to prevent blob squish
G92 E0
G92 E0
G1 F2700 E-5
;LAYER_COUNT:92
;LAYER:0
M107
G0 F6000 X104.21 Y104.302 Z0.2
;TYPE:SKIRT
G1 F2700 E0
G1 F1200 X104.899 Y103.666 E0.03119
G1 X105.64 Y103.091 E0.06238
G1 X106.427 Y102.581 E0.09357
G1 X107.255 Y102.14 E0.12478
G1 X108.117 Y101.771 E0.15596
G1 X109.008 Y101.477 E0.18717
G1 X109.92 Y101.259 E0.21836
G1 X110.847 Y101.121 E0.24953
G1 X111.701 Y101.063 E0.278
G1 X112.021 Y101.054 E0.28865
G1 X112.33 Y101.05 E0.29892
G1 X122.293 Y101.05 E0.63029
G1 X123.149 Y101.061 E0.65877
G1 X124.085 Y101.115 E0.68995
G1 X125.013 Y101.247 E0.72113
G1 X125.927 Y101.459 E0.75233
G1 X126.819 Y101.748 E0.78352
G1 X127.684 Y102.111 E0.81472
G1 X128.514 Y102.547 E0.8459
G1 X129.305 Y103.052 E0.87712
G1 X130.049 Y103.623 E0.90831
G1 X130.742 Y104.255 E0.93951
G1 X131.379 Y104.943 E0.97069
G1 X131.954 Y105.684 E1.00189
G1 X132.465 Y106.47 E1.03307
G1 X132.907 Y107.298 E1.06428
G1 X133.276 Y108.16 E1.09547
G1 X133.571 Y109.05 E1.12666
G1 X133.789 Y109.962 E1.15784
G1 X133.929 Y110.89 E1.18906
G1 X133.987 Y111.751 E1.21776
G1 X133.996 Y112.071 E1.22841
G1 X134 Y112.377 E1.23859
G1 X134 Y120.011 E1.49249
G1 X133.999 Y122.365 E1.57079
G1 X133.989 Y123.092 E1.59497
G1 X133.936 Y124.029 E1.62619
G1 X133.804 Y124.957 E1.65736
G1 X133.593 Y125.871 E1.68856
G1 X133.304 Y126.763 E1.71975
G1 X132.941 Y127.628 E1.75095
G1 X132.506 Y128.459 E1.78215
G1 X132.001 Y129.249 E1.81333
G1 X131.431 Y129.994 E1.84453
G1 X130.8 Y130.688 E1.87573
G1 X130.111 Y131.325 E1.90694
G1 X129.371 Y131.901 E1.93813
G1 X128.585 Y132.412 E1.96931
G1 X127.758 Y132.854 E2.0005
G1 X126.896 Y133.224 E2.0317
G1 X126.006 Y133.519 E2.06288
G1 X125.094 Y133.738 E2.09408
G1 X124.167 Y133.878 E2.12526
G1 X123.299 Y133.937 E2.1542
G1 X122.979 Y133.946 E2.16484
G1 X122.67 Y133.95 E2.17512
G1 X112.565 Y133.949 E2.51121
G1 X111.867 Y133.94 E2.53443
G1 X110.931 Y133.888 E2.56561
G1 X110.002 Y133.756 E2.59682
G1 X109.088 Y133.546 E2.62801
G1 X108.195 Y133.259 E2.65921
G1 X107.33 Y132.896 E2.69041
G1 X106.499 Y132.462 E2.72159
G1 X105.708 Y131.958 E2.75279
G1 X104.963 Y131.388 E2.78399
G1 X104.269 Y130.757 E2.81518
G1 X103.632 Y130.07 E2.84634
G1 X103.055 Y129.33 E2.87756
G1 X102.543 Y128.544 E2.90875
G1 X102.1 Y127.717 E2.93996
G1 X101.729 Y126.856 E2.97114
G1 X101.433 Y125.966 E3.00234
G1 X101.214 Y125.054 E3.03353
G1 X101.073 Y124.127 E3.06472
G1 X101.013 Y123.238 E3.09435
G1 X101.004 Y122.905 E3.10543
G1 X101 Y122.62 E3.11491
G1 X100.998 Y120.78 E3.17611
G1 X101.001 Y116.397 E3.32189
G1 X101.001 Y112.559 E3.44954
G1 X101.011 Y111.894 E3.47167
G1 X101.065 Y110.957 E3.50288
G1 X101.199 Y110.029 E3.53407
G1 X101.411 Y109.115 E3.56527
G1 X101.7 Y108.223 E3.59646
G1 X102.065 Y107.359 E3.62766
G1 X102.501 Y106.529 E3.65884
G1 X103.007 Y105.739 E3.69004
G1 X103.578 Y104.995 E3.72124
G1 X104.21 Y104.302 E3.75243
G0 F6000 X104.602 Y104.477
G1 F1200 X105.288 Y103.863 E3.78305
G1 X106.024 Y103.311 E3.81365
G1 X106.806 Y102.824 E3.84429
G1 X107.627 Y102.408 E3.8749
G1 X108.481 Y102.064 E3.90553
G1 X109.361 Y101.795 E3.93613
G1 X110.262 Y101.604 E3.96676
G1 X111.176 Y101.492 E3.99739
G1 X111.712 Y101.463 E4.01525
G1 X112.032 Y101.454 E4.02589
G1 X112.33 Y101.45 E4.0358
G1 X122.293 Y101.45 E4.36718
G1 X123.143 Y101.461 E4.39545
G1 X124.062 Y101.514 E4.42607
G1 X124.973 Y101.647 E4.45669
G1 X125.869 Y101.858 E4.4873
G1 X126.743 Y102.146 E4.51791
G1 X127.59 Y102.509 E4.54856
G1 X128.401 Y102.944 E4.57917
G1 X129.171 Y103.448 E4.60978
G1 X129.895 Y104.017 E4.6404
G1 X130.567 Y104.647 E4.67104
G1 X131.182 Y105.332 E4.70166
G1 X131.735 Y106.068 E4.73228
G1 X132.222 Y106.849 E4.76289
G1 X132.639 Y107.67 E4.79352
G1 X132.984 Y108.524 E4.82415
G1 X133.253 Y109.404 E4.85476
G1 X133.445 Y110.305 E4.8854
G1 X133.558 Y111.218 E4.916
G1 X133.587 Y111.762 E4.93412
G1 X133.596 Y112.082 E4.94476
G1 X133.6 Y112.377 E4.95458
G1 X133.6 Y120.01 E5.20845
G1 X133.599 Y122.36 E5.28661
G1 X133.589 Y123.087 E5.3108
G1 X133.536 Y124.006 E5.34141
G1 X133.404 Y124.917 E5.37203
G1 X133.193 Y125.813 E5.40264
G1 X132.906 Y126.688 E5.43327
G1 X132.543 Y127.534 E5.46389
G1 X132.109 Y128.346 E5.49451
G1 X131.605 Y129.117 E5.52515
G1 X131.037 Y129.841 E5.55576
G1 X130.408 Y130.513 E5.58637
G1 X129.723 Y131.128 E5.61699
G1 X128.987 Y131.681 E5.64761
G1 X128.206 Y132.169 E5.67824
G1 X127.386 Y132.587 E5.70885
G1 X126.532 Y132.932 E5.73949
G1 X125.652 Y133.201 E5.77009
G1 X124.751 Y133.394 E5.80074
G1 X123.838 Y133.507 E5.83134
G1 X123.288 Y133.537 E5.84966
G1 X122.968 Y133.546 E5.86031
G1 X122.67 Y133.55 E5.87022
G1 X112.57 Y133.549 E6.20615
G1 X111.872 Y133.54 E6.22936
G1 X110.953 Y133.488 E6.25998
G1 X110.042 Y133.357 E6.29059
G1 X109.146 Y133.147 E6.3212
G1 X108.271 Y132.86 E6.35183
G1 X107.424 Y132.498 E6.38246
G1 X106.612 Y132.064 E6.41309
G1 X105.841 Y131.562 E6.44369
G1 X105.116 Y130.994 E6.47432
G1 X104.443 Y130.365 E6.50496
G1 X103.828 Y129.681 E6.53555
G1 X103.274 Y128.946 E6.56616
G1 X102.786 Y128.165 E6.59679
G1 X102.367 Y127.345 E6.62742
G1 X102.021 Y126.492 E6.65804
G1 X101.751 Y125.612 E6.68865
G1 X101.558 Y124.711 E6.7193
G1 X101.444 Y123.798 E6.7499
G1 X101.413 Y123.227 E6.76892
G1 X101.404 Y122.894 E6.78
G1 X101.4 Y122.62 E6.78912
G1 X101.398 Y120.781 E6.85028
G1 X101.401 Y116.397 E6.99609
G1 X101.401 Y112.565 E7.12355
G1 X101.411 Y111.9 E7.14567
G1 X101.465 Y110.981 E7.17629
G1 X101.598 Y110.07 E7.20691
G1 X101.81 Y109.174 E7.23753
G1 X102.099 Y108.299 E7.26818
G1 X102.463 Y107.454 E7.29878
G1 X102.898 Y106.643 E7.32939
G1 X103.403 Y105.872 E7.36004
G1 X103.972 Y105.149 E7.39065
G1 X104.602 Y104.477 E7.42128
G0 F6000 X104.993 Y104.656
G1 F1200 X105.675 Y104.064 E7.45132
G1 X106.407 Y103.535 E7.48136
G1 X107.183 Y103.073 E7.5114
G1 X107.997 Y102.682 E7.54143
G1 X108.842 Y102.363 E7.57147
G1 X109.712 Y102.121 E7.60151
G1 X110.6 Y101.957 E7.63154
G1 X111.723 Y101.863 E7.66902
G1 X112.043 Y101.854 E7.67967
G1 X112.33 Y101.85 E7.68922
G1 X122.293 Y101.85 E8.02059
G1 X123.137 Y101.861 E8.04866
G1 X124.039 Y101.914 E8.07871
G1 X124.932 Y102.046 E8.10874
G1 X125.81 Y102.257 E8.13877
G1 X126.666 Y102.545 E8.16881
G1 X127.493 Y102.907 E8.19884
G1 X128.285 Y103.342 E8.22889
G1 X129.036 Y103.844 E8.25894
G1 X129.739 Y104.411 E8.28897
G1 X130.389 Y105.038 E8.31901
G1 X130.981 Y105.72 E8.34905
G1 X131.511 Y106.451 E8.37908
G1 X131.973 Y107.227 E8.40912
G1 X132.366 Y108.04 E8.43915
G1 X132.684 Y108.885 E8.46918
G1 X132.927 Y109.755 E8.49923
G1 X133.092 Y110.643 E8.52927
G1 X133.187 Y111.773 E8.56698
G1 X133.196 Y112.093 E8.57763
G1 X133.2 Y112.377 E8.58708
G1 X133.2 Y120.01 E8.84095
G1 X133.199 Y122.354 E8.91891
G1 X133.189 Y123.081 E8.9431
G1 X133.137 Y123.983 E8.97315
G1 X133.005 Y124.876 E9.00317
G1 X132.794 Y125.755 E9.03324
G1 X132.507 Y126.611 E9.06326
G1 X132.145 Y127.438 E9.09329
G1 X131.711 Y128.23 E9.12333
G1 X131.209 Y128.981 E9.15337
G1 X130.643 Y129.684 E9.18339
G1 X130.016 Y130.335 E9.21345
G1 X129.335 Y130.927 E9.24347
G1 X128.604 Y131.457 E9.2735
G1 X127.828 Y131.92 E9.30355
G1 X127.015 Y132.313 E9.33359
G1 X126.17 Y132.633 E9.36364
G1 X125.301 Y132.876 E9.39365
G1 X124.413 Y133.041 E9.42369
G1 X123.277 Y133.137 E9.46161
G1 X122.957 Y133.146 E9.47226
G1 X122.67 Y133.15 E9.4818
G1 X112.575 Y133.149 E9.81756
G1 X111.877 Y133.14 E9.84078
G1 X110.976 Y133.089 E9.8708
G1 X110.082 Y132.957 E9.90085
G1 X109.204 Y132.748 E9.93087
G1 X108.347 Y132.461 E9.96093
G1 X107.52 Y132.1 E9.99094
G1 X106.727 Y131.667 E10.021
G1 X105.976 Y131.166 E10.05102
G1 X105.272 Y130.6 E10.08107
G1 X104.621 Y129.974 E10.11111
G1 X104.028 Y129.293 E10.14114
G1 X103.498 Y128.562 E10.17117
G1 X103.034 Y127.787 E10.20121
G1 X102.64 Y126.974 E10.23126
G1 X102.32 Y126.13 E10.26128
G1 X102.076 Y125.26 E10.29134
G1 X101.91 Y124.372 E10.32138
G1 X101.813 Y123.217 E10.35993
G1 X101.804 Y122.884 E10.37101
G1 X101.8 Y122.619 E10.37983
G1 X101.798 Y120.782 E10.44093
G1 X101.801 Y116.397 E10.58677
G1 X101.801 Y112.571 E10.71403
G1 X101.811 Y111.906 E10.73615
G1 X101.865 Y111.004 E10.7662
G1 X101.998 Y110.111 E10.79623
G1 X102.209 Y109.233 E10.82626
G1 X102.498 Y108.377 E10.85631
G1 X102.861 Y107.55 E10.88635
G1 X103.295 Y106.759 E10.91636
G1 X103.798 Y106.008 E10.94642
G1 X104.366 Y105.306 E10.97646
G1 X104.993 Y104.656 E11.0065
G1 F2700 E6.0065
G0 F6000 X111.339 Y115.757
G0 X113.401 Y117.8
G1 F2700 E11.0065
G1 F1200 X121.6 Y117.8 E11.2792
G1 X121.6 Y118.6 E11.3058
G1 X113.4 Y118.6 E11.57854
G1 X113.401 Y117.8 E11.60515
G0 F6000 X113.001 Y117.4
G1 F1200 X122 Y117.4 E11.90445
G1 X122 Y119 E11.95767
G1 X113 Y119 E12.25701
G1 X113.001 Y117.4 E12.31023
G0 F6000 X112.601 Y117
G1 F1200 X122.4 Y117 E12.63614
G1 X122.4 Y119.4 E12.71597
G1 X112.6 Y119.4 E13.04192
G1 X112.601 Y117 E13.12174
G0 F6000 X112.201 Y116.6
G1 F1200 X122.8 Y116.6 E13.47427
G1 X122.8 Y119.8 E13.5807
G1 X112.2 Y119.8 E13.93326
G1 X112.201 Y116.6 E14.03969
G1 F2700 E9.03969
;MESH:test16.stl
G0 F6000 X112.414 Y120.135
G0 X112.414 Y121.214
G0 X122.218 Y121.582
G0 X122.4 Y122.35
;TYPE:WALL-INNER
G1 F2700 E14.03969
G1 F1200 X112.6 Y122.35 E14.36564
G1 X112.6 Y121.4 E14.39723
G1 X122.4 Y121.4 E14.72318
G1 X122.4 Y122.35 E14.75478
G0 F6000 X122.8 Y122.75
;TYPE:WALL-OUTER
G1 F1200 X112.2 Y122.75 E15.10734
G1 X112.2 Y121 E15.16554
G1 X122.8 Y121 E15.5181
G1 X122.8 Y122.75 E15.57631
G0 F6000 X122.53 Y122.48
G0 X122.01 Y122.24
G0 X122.01 Y121.96
;TYPE:SKIN
G1 F1200 X112.99 Y121.96 E15.87631
G1 X112.99 Y121.79 E15.88197
G1 X122.01 Y121.79 E16.18197
G1 X122.01 Y121.96 E16.18763
G0 F6000 X122.01 Y122.15
G1 F2700 E11.18763
G0 F6000 X122.01 Y122.24
G0 X122.4 Y121.22
G0 X122.4 Y120.135
G0 X122.4 Y116.265
G0 X122.4 Y115.18
G0 X122.4 Y115
;TYPE:WALL-INNER
G1 F2700 E16.18763
G1 F1200 X112.6 Y115 E16.51358
G1 X112.6 Y112.65 E16.59174
G1 X122.4 Y112.65 E16.91769
G1 X122.4 Y115 E16.99585
G0 F6000 X122.8 Y115.4
;TYPE:WALL-OUTER
G1 F1200 X112.2 Y115.4 E17.34841
G1 X112.2 Y112.25 E17.45318
G1 X122.8 Y112.25 E17.80573
G1 X122.8 Y115.4 E17.9105
G0 F6000 X122.53 Y115.13
G0 X122.29 Y114.61
G0 X122.01 Y114.61
;TYPE:SKIN
G1 F1200 X112.99 Y114.61 E18.21051
G1 X112.99 Y113.04 E18.26273
G1 X122.01 Y113.04 E18.56273
G1 X122.01 Y114.61 E18.61495
G0 F6000 X122.29 Y114.61
G0 X122.29 Y113.364
G0 X121.849 Y113.364
G1 F1200 X121.685 Y113.2 E18.62267
G0 F6000 X121.119 Y113.2
G1 F1200 X121.849 Y113.929 E18.65698
G0 F6000 X121.803 Y114.449
G1 F1200 X120.553 Y113.2 E18.71575
G0 F6000 X119.988 Y113.2
G1 F1200 X121.237 Y114.449 E18.7745
G0 F6000 X120.672 Y114.449
G1 F1200 X119.422 Y113.2 E18.83327
G0 F6000 X118.856 Y113.2
G1 F1200 X120.106 Y114.449 E18.89205
G0 F6000 X119.54 Y114.449
G1 F1200 X118.291 Y113.2 E18.9508
G0 F6000 X117.725 Y113.2
G1 F1200 X118.974 Y114.449 E19.00955
G0 F6000 X118.409 Y114.449
G1 F1200 X117.159 Y113.2 E19.06832
G0 F6000 X116.594 Y113.2
G1 F1200 X117.843 Y114.449 E19.12707
G0 F6000 X117.277 Y114.449
G1 F1200 X116.028 Y113.2 E19.18582
G0 F6000 X115.462 Y113.2
G1 F1200 X116.712 Y114.449 E19.24459
G0 F6000 X116.146 Y114.449
G1 F1200 X114.897 Y113.2 E19.30334
G0 F6000 X114.331 Y113.2
G1 F1200 X115.58 Y114.449 E19.36209
G0 F6000 X115.015 Y114.449
G1 F1200 X113.765 Y113.2 E19.42086
G0 F6000 X113.2 Y113.2
G1 F1200 X114.449 Y114.449 E19.47961
G0 F6000 X113.883 Y114.449
G1 F1200 X113.149 Y113.715 E19.51413
G0 F6000 X113.149 Y114.281
G1 F1200 X113.318 Y114.449 E19.52206
G0 F6000 X113.318 Y114.8
G1 F2700 E14.52206
;MESH:NONMESH
G0 F300 X113.318 Y114.8 Z0.4
G0 F6000 X113.318 Y114.89
G0 X112.414 Y115.186
G0 X112.201 Y116.6
M117 Time Left 0h20m53s
;TIME_ELAPSED:38.981508
;LAYER:1
M106 S85
;TYPE:SUPPORT
G1 F2700 E19.52206
G1 F1350 X122.8 Y116.6 E19.87458
G1 X122.8 Y119.8 E19.98102
G1 X112.2 Y119.8 E20.33357
G1 X112.201 Y116.6 E20.44001
G0 F7500 X114 Y119.52
G1 F1350 X116 Y119.52 E20.50653
G1 X116 Y116.88 E20.59433
G1 X118 Y116.88 E20.66085
G1 X118 Y119.52 E20.74866
G1 X120 Y119.52 E20.81518
G1 X120 Y116.88 E20.90299
G1 X122 Y116.88 E20.96951
G1 X122 Y119.52 E21.05731
G1 X122.52 Y119.52 E21.07461
G1 X122.52 Y116.88 E21.16242
G1 X122 Y116.88 E21.17971
G1 F2700 E16.17971
G0 F7500 X123.665 Y116.88
G0 X123.661 Y123.107
G0 X123.157 Y123.611
G0 X111.843 Y123.611
G0 X111.339 Y123.107
G0 X111.335 Y119.52
G0 X114 Y119.52
G1 F2700 E21.17971
G1 F1350 X112.48 Y119.52 E21.23027
G1 X112.481 Y116.88 E21.31807
G1 X114 Y116.88 E21.3686
G1 X114 Y119.52 E21.4564
G1 F2700 E16.4564
;MESH:test16.stl
G0 F7500 X114 Y121.22
G0 X122.218 Y121.582
G0 X122.4 Y122.35
;TYPE:WALL-INNER
G1 F2700 E21.4564
G1 F1350 X112.6 Y122.35 E21.78235
G1 X112.6 Y121.4 E21.81395
G1 X122.4 Y121.4 E22.1399
G1 X122.4 Y122.35 E22.1715
G0 F7500 X122.8 Y122.75
;TYPE:WALL-OUTER
G1 F1350 X112.2 Y122.75 E22.52405
G1 X112.2 Y121 E22.58226
G1 X122.8 Y121 E22.93482
G1 X122.8 Y122.75 E22.99302
G0 F7500 X122.53 Y122.48
G0 X122.01 Y122.24
G0 X122.01 Y121.96
;TYPE:SKIN
G1 F1350 X112.99 Y121.96 E23.29303
G1 X112.99 Y121.79 E23.29868
G1 X122.01 Y121.79 E23.59869
G1 X122.01 Y121.96 E23.60434
G0 F7500 X122.01 Y122.15
G1 F2700 E18.60434
G0 F7500 X122.01 Y122.24
G0 X122.4 Y121.22
G0 X123.629 Y120.639
G0 X123.629 Y115.761
G0 X122.4 Y115.18
G0 X122.4 Y115
;TYPE:WALL-INNER
G1 F2700 E23.60434
G1 F1350 X112.6 Y115 E23.93029
G1 X112.6 Y112.65 E24.00845
G1 X122.4 Y112.65 E24.3344
G1 X122.4 Y115 E24.41256
G0 F7500 X122.8 Y115.4
;TYPE:WALL-OUTER
G1 F1350 X112.2 Y115.4 E24.76512
G1 X112.2 Y112.25 E24.86989
G1 X122.8 Y112.25 E25.22245
G1 X122.8 Y115.4 E25.32722
G0 F7500 X122.53 Y115.13
G0 X122.29 Y114.61
G0 X122.01 Y114.61
;TYPE:SKIN
G1 F1350 X112.99 Y114.61 E25.62722
G1 X112.99 Y113.04 E25.67944
G1 X122.01 Y113.04 E25.97945
G1 X122.01 Y114.61 E26.03167
G0 F7500 X121.849 Y114.041
G1 F1350 X121.44 Y114.45 E26.0509
G0 F7500 X120.874 Y114.45
G1 F1350 X121.849 Y113.475 E26.09677
G0 F7500 X121.56 Y113.199
G1 F1350 X120.309 Y114.45 E26.15561
G0 F7500 X119.743 Y114.45
G1 F1350 X120.994 Y113.199 E26.21445
G0 F7500 X120.428 Y113.199
G1 F1350 X119.177 Y114.45 E26.2733
G0 F7500 X118.612 Y114.45
G1 F1350 X119.863 Y113.199 E26.33214
G0 F7500 X119.297 Y113.199
G1 F1350 X118.046 Y114.45 E26.39098
G0 F7500 X117.48 Y114.45
G1 F1350 X118.731 Y113.199 E26.44983
G0 F7500 X118.166 Y113.199
G1 F1350 X116.915 Y114.45 E26.50867
G0 F7500 X116.349 Y114.45
G1 F1350 X117.6 Y113.199 E26.56751
G0 F7500 X117.034 Y113.199
G1 F1350 X115.783 Y114.45 E26.62635
G0 F7500 X115.218 Y114.45
G1 F1350 X116.468 Y113.199 E26.68517
G0 F7500 X115.903 Y113.199
G1 F1350 X114.652 Y114.45 E26.74402
G0 F7500 X114.086 Y114.45
G1 F1350 X115.337 Y113.199 E26.80286
G0 F7500 X114.771 Y113.199
G1 F1350 X113.521 Y114.45 E26.86168
G0 F7500 X113.149 Y114.255
G1 F1350 X114.206 Y113.199 E26.91138
G0 F7500 X113.64 Y113.199
G1 F1350 X113.149 Y113.69 E26.93447
G0 F7500 X112.8 Y113.69
G1 F2700 E21.93447
;MESH:NONMESH
G0 F300 X112.8 Y113.69 Z0.6
G0 F7500 X112.71 Y113.69
G0 X112.414 Y115.186
G0 X112.201 Y116.6
M117 Time Left 0h20m37s
;TIME_ELAPSED:54.904605
;LAYER:2
M106 S170
;TYPE:SUPPORT
G1 F2700 E26.93447
G1 F1452.9 X122.8 Y116.6 E27.28699
