;FLAVOR:Marlin
M117 Time Left 0h21m10s
;TIME:1270
;Filament used: 0.406926m
;Layer height: 0.2
;MINX:101.498
;MINY:101.05
;MINZ:0.2
;MAXX:133.5
;MAXY:133.95
;MAXZ:18.4
;POSTPROCESSED
;Generated with Cura_SteamEngine 4.8.0
M140 S60
M105
M190 S60
M104 S205
M105
M109 S205
M82 ;absolute extrusion mode
; Ender 3 Custom Start G-code
G92 E0 ; Reset Extruder
G28 ; Home all axes
; ***SET NEW E STEP *** (93 is factory value - 95 mine - start)
G90                          ; Force coordinates to be absolute relative to the origin
M92 E95 ;					 ; ***SET NEW E STEP *** (93 is factory value - 95 mine - end)
G90                          ; Force coordinates to be absolute relative to the origin
G28                          ; Home X/Y/Z axis
G92 E0 ; Reset Extruder
G28 ; Home all axes
G1 Z2.0 F3000 ; Move Z Axis up little to prevent scratching of Heat Bed
G1 X0.1 Y20 Z0.3 F5000.0 ; Move to start position
G1 X0.1 Y200.0 Z0.3 F1500.0 E15 ; Draw the first line
G1 X0.4 Y200.0 Z0.3 F5000.0 ; Move to side a little
G1 X0.4 Y20 Z0.3 F1500.0 E30 ; Draw the second line
G92 E0 ; Reset Extruder
G1 Z2.0 F3000 ; Move Z Axis up little to prevent scratching of Heat Bed
G1 X5 Y20 Z0.3 F5000.0 ; Move over to prevent blob squish
G92 E0
G92 E0
G1 F2700 E-5
;LAYER_COUNT:92
;LAYER:0
M107
G0 F6000 X104.71 Y104.302 Z0.2
;TYPE:SKIRT
G1 F2700 E0
G1 F1200 X105.399 Y103.666 E0.03119
G1 X106.14 Y103.091 E0.06238
G1 X106.927 Y102.581 E0.09357
G1 X107.755 Y102.14 E0.12478
G1 X108.617 Y101.771 E0.15596
G1 X109.508 Y101.477 E0.18717
G1 X110.42 Y101.259 E0.21836
G1 X111.347 Y101.121 E0.24953
G1 X112.201 Y101.063 E0.278
G1 X112.521 Y101.054 E0.28865
G1 X112.83 Y101.05 E0.29892
G1 X121.793 Y101.05 E0.59703
G1 X122.649 Y101.061 E0.62551
G1 X123.585 Y101.115 E0.65669
G1 X124.513 Y101.247 E0.68787
G1 X125.427 Y101.459 E0.71907
G1 X126.319 Y101.748 E0.75026
G1 X127.184 Y102.111 E0.78146
G1 X128.014 Y102.547 E0.81264
G1 X128.805 Y103.052 E0.84386
G1 X129.549 Y103.623 E0.87505
G1 X130.242 Y104.255 E0.90625
G1 X130.879 Y104.943 E0.93743
G1 X131.454 Y105.684 E0.96863
G1 X131.965 Y106.47 E0.99981
G1 X132.407 Y107.298 E1.03102
G1 X132.776 Y108.16 E1.06221
G1 X133.071 Y109.05 E1.0934
G1 X133.289 Y109.962 E1.12458
G1 X133.429 Y110.89 E1.1558
G1 X133.487 Y111.751 E1.1845
G1 X133.496 Y112.071 E1.19515
G1 X133.5 Y112.377 E1.20533
G1 X133.5 Y120.011 E1.45923
G1 X133.499 Y122.365 E1.53753
G1 X133.489 Y123.092 E1.56171
G1 X133.436 Y124.029 E1.59293
G1 X133.304 Y124.957 E1.6241
G1 X133.093 Y125.871 E1.6553
G1 X132.804 Y126.763 E1.68649
G1 X132.441 Y127.628 E1.71769
G1 X132.006 Y128.459 E1.74889
G1 X131.501 Y129.249 E1.78007
G1 X130.931 Y129.994 E1.81127
G1 X130.3 Y130.688 E1.84247
G1 X129.611 Y131.325 E1.87368
G1 X128.871 Y131.901 E1.90487
G1 X128.085 Y132.412 E1.93605
G1 X127.258 Y132.854 E1.96724
G1 X126.396 Y133.224 E1.99844
G1 X125.506 Y133.519 E2.02962
G1 X124.594 Y133.738 E2.06082
G1 X123.667 Y133.878 E2.092
G1 X122.799 Y133.937 E2.12094
G1 X122.479 Y133.946 E2.13158
G1 X122.17 Y133.95 E2.14186
G1 X113.065 Y133.949 E2.44469
G1 X112.367 Y133.94 E2.46791
G1 X111.431 Y133.888 E2.49909
G1 X110.502 Y133.756 E2.5303
G1 X109.588 Y133.546 E2.56149
G1 X108.695 Y133.259 E2.59269
G1 X107.83 Y132.896 E2.62389
G1 X106.999 Y132.462 E2.65507
G1 X106.208 Y131.958 E2.68627
G1 X105.463 Y131.388 E2.71747
G1 X104.769 Y130.757 E2.74866
G1 X104.132 Y130.07 E2.77982
G1 X103.555 Y129.33 E2.81103
G1 X103.043 Y128.544 E2.84223
G1 X102.6 Y127.717 E2.87344
G1 X102.229 Y126.856 E2.90462
G1 X101.933 Y125.966 E2.93582
G1 X101.714 Y125.054 E2.96701
G1 X101.573 Y124.127 E2.9982
G1 X101.513 Y123.238 E3.02783
G1 X101.504 Y122.905 E3.03891
G1 X101.5 Y122.62 E3.04839
G1 X101.498 Y120.78 E3.10959
G1 X101.501 Y116.397 E3.25537
G1 X101.501 Y112.559 E3.38302
G1 X101.511 Y111.894 E3.40514
G1 X101.565 Y110.957 E3.43636
G1 X101.699 Y110.029 E3.46755
G1 X101.911 Y109.115 E3.49875
G1 X102.2 Y108.223 E3.52994
G1 X102.565 Y107.359 E3.56114
G1 X103.001 Y106.529 E3.59232
G1 X103.507 Y105.739 E3.62352
G1 X104.078 Y104.995 E3.65472
G1 X104.71 Y104.302 E3.68591
G0 F6000 X105.102 Y104.477
G1 F1200 X105.788 Y103.863 E3.71653
G1 X106.524 Y103.311 E3.74713
G1 X107.306 Y102.824 E3.77777
G1 X108.127 Y102.408 E3.80838
G1 X108.981 Y102.064 E3.83901
G1 X109.861 Y101.795 E3.86961
G1 X110.762 Y101.604 E3.90024
G1 X111.676 Y101.492 E3.93087
G1 X112.212 Y101.463 E3.94872
G1 X112.532 Y101.454 E3.95937
G1 X112.83 Y101.45 E3.96928
G1 X121.793 Y101.45 E4.2674
G1 X122.643 Y101.461 E4.29567
G1 X123.562 Y101.514 E4.32629
G1 X124.473 Y101.647 E4.35691
G1 X125.369 Y101.858 E4.38752
G1 X126.243 Y102.146 E4.41813
G1 X127.09 Y102.509 E4.44878
G1 X127.901 Y102.944 E4.47939
G1 X128.671 Y103.448 E4.51
G1 X129.395 Y104.017 E4.54062
G1 X130.067 Y104.647 E4.57126
G1 X130.682 Y105.332 E4.60188
G1 X131.235 Y106.068 E4.6325
G1 X131.722 Y106.849 E4.66311
G1 X132.139 Y107.67 E4.69374
G1 X132.484 Y108.524 E4.72437
G1 X132.753 Y109.404 E4.75498
G1 X132.945 Y110.305 E4.78562
G1 X133.058 Y111.218 E4.81622
G1 X133.087 Y111.762 E4.83434
G1 X133.096 Y112.082 E4.84498
G1 X133.1 Y112.377 E4.8548
G1 X133.1 Y120.01 E5.10867
G1 X133.099 Y122.36 E5.18683
G1 X133.089 Y123.087 E5.21101
G1 X133.036 Y124.006 E5.24163
G1 X132.904 Y124.917 E5.27225
G1 X132.693 Y125.813 E5.30286
G1 X132.406 Y126.688 E5.33349
G1 X132.043 Y127.534 E5.36411
G1 X131.609 Y128.346 E5.39473
G1 X131.105 Y129.117 E5.42537
G1 X130.537 Y129.841 E5.45598
G1 X129.908 Y130.513 E5.48659
G1 X129.223 Y131.128 E5.51721
G1 X128.487 Y131.681 E5.54783
G1 X127.706 Y132.169 E5.57846
G1 X126.886 Y132.587 E5.60907
G1 X126.032 Y132.932 E5.63971
G1 X125.152 Y133.201 E5.67031
G1 X124.251 Y133.394 E5.70096
G1 X123.338 Y133.507 E5.73156
G1 X122.788 Y133.537 E5.74988
G1 X122.468 Y133.546 E5.76052
G1 X122.17 Y133.55 E5.77044
G1 X113.07 Y133.549 E6.0731
G1 X112.372 Y133.54 E6.09632
G1 X111.453 Y133.488 E6.12694
G1 X110.542 Y133.357 E6.15755
G1 X109.646 Y133.147 E6.18816
G1 X108.771 Y132.86 E6.21879
G1 X107.924 Y132.498 E6.24942
G1 X107.112 Y132.064 E6.28004
G1 X106.341 Y131.562 E6.31064
G1 X105.616 Y130.994 E6.34128
G1 X104.943 Y130.365 E6.37192
G1 X104.328 Y129.681 E6.40251
G1 X103.774 Y128.946 E6.43312
G1 X103.286 Y128.165 E6.46375
G1 X102.867 Y127.345 E6.49438
G1 X102.521 Y126.492 E6.525
G1 X102.251 Y125.612 E6.55561
G1 X102.058 Y124.711 E6.58626
G1 X101.944 Y123.798 E6.61686
G1 X101.913 Y123.227 E6.63588
G1 X101.904 Y122.894 E6.64696
G1 X101.9 Y122.62 E6.65607
G1 X101.898 Y120.781 E6.71724
G1 X101.901 Y116.397 E6.86305
G1 X101.901 Y112.565 E6.99051
G1 X101.911 Y111.9 E7.01263
G1 X101.965 Y110.981 E7.04324
G1 X102.098 Y110.07 E7.07387
G1 X102.31 Y109.174 E7.10449
G1 X102.599 Y108.299 E7.13514
G1 X102.963 Y107.454 E7.16574
G1 X103.398 Y106.643 E7.19635
G1 X103.903 Y105.872 E7.227
G1 X104.472 Y105.149 E7.2576
G1 X105.102 Y104.477 E7.28824
G0 F6000 X105.493 Y104.656
G1 F1200 X106.175 Y104.064 E7.31828
G1 X106.907 Y103.535 E7.34832
G1 X107.683 Y103.073 E7.37836
G1 X108.497 Y102.682 E7.40839
G1 X109.342 Y102.363 E7.43843
G1 X110.212 Y102.121 E7.46847
G1 X111.1 Y101.957 E7.4985
G1 X112.223 Y101.863 E7.53598
G1 X112.543 Y101.854 E7.54663
G1 X112.83 Y101.85 E7.55618
G1 X121.793 Y101.85 E7.85429
G1 X122.637 Y101.861 E7.88236
G1 X123.539 Y101.914 E7.91241
G1 X124.432 Y102.046 E7.94244
G1 X125.31 Y102.257 E7.97247
G1 X126.166 Y102.545 E8.00251
G1 X126.993 Y102.907 E8.03254
G1 X127.785 Y103.342 E8.06259
G1 X128.536 Y103.844 E8.09263
G1 X129.239 Y104.411 E8.12267
G1 X129.889 Y105.038 E8.15271
G1 X130.481 Y105.72 E8.18275
G1 X131.011 Y106.451 E8.21278
G1 X131.473 Y107.227 E8.24282
G1 X131.866 Y108.04 E8.27285
G1 X132.184 Y108.885 E8.30288
G1 X132.427 Y109.755 E8.33293
G1 X132.592 Y110.643 E8.36297
G1 X132.687 Y111.773 E8.40068
G1 X132.696 Y112.093 E8.41133
G1 X132.7 Y112.377 E8.42078
G1 X132.7 Y120.01 E8.67465
G1 X132.699 Y122.354 E8.75261
G1 X132.689 Y123.081 E8.7768
G1 X132.637 Y123.983 E8.80685
G1 X132.505 Y124.876 E8.83687
G1 X132.294 Y125.755 E8.86694
G1 X132.007 Y126.611 E8.89696
G1 X131.645 Y127.438 E8.92699
G1 X131.211 Y128.23 E8.95703
G1 X130.709 Y128.981 E8.98707
G1 X130.143 Y129.684 E9.01709
G1 X129.516 Y130.335 E9.04715
G1 X128.835 Y130.927 E9.07717
G1 X128.104 Y131.457 E9.1072
G1 X127.328 Y131.92 E9.13725
G1 X126.515 Y132.313 E9.16729
G1 X125.67 Y132.633 E9.19734
G1 X124.801 Y132.876 E9.22735
G1 X123.913 Y133.041 E9.25739
G1 X122.777 Y133.137 E9.29531
G1 X122.457 Y133.146 E9.30596
G1 X122.17 Y133.15 E9.3155
G1 X113.075 Y133.149 E9.618
G1 X112.377 Y133.14 E9.64122
G1 X111.476 Y133.089 E9.67124
G1 X110.582 Y132.957 E9.70129
G1 X109.704 Y132.748 E9.73131
G1 X108.847 Y132.461 E9.76137
G1 X108.02 Y132.1 E9.79138
G1 X107.227 Y131.667 E9.82143
G1 X106.476 Y131.166 E9.85146
G1 X105.772 Y130.6 E9.88151
G1 X105.121 Y129.974 E9.91154
G1 X104.528 Y129.293 E9.94158
G1 X103.998 Y128.562 E9.97161
G1 X103.534 Y127.787 E10.00165
G1 X103.14 Y126.974 E10.0317
G1 X102.82 Y126.13 E10.06172
G1 X102.576 Y125.26 E10.09178
G1 X102.41 Y124.372 E10.12182
G1 X102.313 Y123.217 E10.16037
G1 X102.304 Y122.884 E10.17145
G1 X102.3 Y122.619 E10.18027
G1 X102.298 Y120.782 E10.24137
G1 X102.301 Y116.397 E10.38721
G1 X102.301 Y112.571 E10.51447
G1 X102.311 Y111.906 E10.53659
G1 X102.365 Y111.004 E10.56664
G1 X102.498 Y110.111 E10.59667
G1 X102.709 Y109.233 E10.6267
G1 X102.998 Y108.377 E10.65675
G1 X103.361 Y107.55 E10.68679
G1 X103.795 Y106.759 E10.7168
G1 X104.298 Y106.008 E10.74686
G1 X104.866 Y105.306 E10.7769
G1 X105.493 Y104.656 E10.80694
G1 F2700 E5.80694
G0 F6000 X111.839 Y115.757
G0 X113.901 Y117.8
G1 F2700 E10.80694
G1 F1200 X121.1 Y117.8 E11.04638
G1 X121.1 Y118.6 E11.07298
G1 X113.9 Y118.6 E11.31246
G1 X113.901 Y117.8 E11.33906
G0 F6000 X113.501 Y117.4
G1 F1200 X121.5 Y117.4 E11.60511
G1 X121.5 Y119 E11.65833
G1 X113.5 Y119 E11.92441
G1 X113.501 Y117.4 E11.97763
G0 F6000 X113.101 Y117
G1 F1200 X121.9 Y117 E12.27028
G1 X121.9 Y119.4 E12.35011
G1 X113.1 Y119.4 E12.6428
G1 X113.101 Y117 E12.72262
G0 F6000 X112.701 Y116.6
G1 F1200 X122.3 Y116.6 E13.04188
G1 X122.3 Y119.8 E13.14832
G1 X112.7 Y119.8 E13.46761
G1 X112.701 Y116.6 E13.57405
G1 F2700 E8.57405
;MESH:test14.stl
G0 F6000 X112.914 Y120.135
G0 X112.914 Y121.214
G0 X121.718 Y121.582
G0 X121.9 Y122.35
;TYPE:WALL-INNER
G1 F2700 E13.57405
G1 F1200 X113.1 Y122.35 E13.86674
G1 X113.1 Y121.4 E13.89833
G1 X121.9 Y121.4 E14.19102
G1 X121.9 Y122.35 E14.22262
G0 F6000 X122.3 Y122.75
;TYPE:WALL-OUTER
G1 F1200 X112.7 Y122.75 E14.54192
G1 X112.7 Y121 E14.60012
G1 X122.3 Y121 E14.91942
G1 X122.3 Y122.75 E14.97762
G0 F6000 X122.03 Y122.48
G0 X121.51 Y122.24
G0 X121.51 Y121.96
;TYPE:SKIN
G1 F1200 X113.49 Y121.96 E15.24437
G1 X113.49 Y121.79 E15.25002
G1 X121.51 Y121.79 E15.51677
G1 X121.51 Y121.96 E15.52243
G0 F6000 X121.51 Y122.15
G1 F2700 E10.52243
G0 F6000 X121.51 Y122.24
G0 X121.9 Y121.22
G0 X121.9 Y120.135
G0 X121.9 Y116.265
G0 X121.9 Y115.18
G0 X121.9 Y115
;TYPE:WALL-INNER
G1 F2700 E15.52243
G1 F1200 X113.1 Y115 E15.81511
G1 X113.1 Y112.65 E15.89328
G1 X121.9 Y112.65 E16.18596
G1 X121.9 Y115 E16.26413
G0 F6000 X122.3 Y115.4
;TYPE:WALL-OUTER
G1 F1200 X112.7 Y115.4 E16.58342
G1 X112.7 Y112.25 E16.68819
G1 X122.3 Y112.25 E17.00749
G1 X122.3 Y115.4 E17.11226
G0 F6000 X122.03 Y115.13
G0 X121.79 Y114.61
G0 X121.51 Y114.61
;TYPE:SKIN
G1 F1200 X113.49 Y114.61 E17.37901
G1 X113.49 Y113.04 E17.43122
G1 X121.51 Y113.04 E17.69797
G1 X121.51 Y114.61 E17.75019
G0 F6000 X121.79 Y114.61
G0 X121.79 Y113.429
G0 X121.349 Y113.429
G1 F1200 X121.119 Y113.2 E17.76098
G0 F6000 X120.553 Y113.2
G1 F1200 X121.349 Y113.995 E17.7984
G0 F6000 X121.237 Y114.449
G1 F1200 X119.988 Y113.2 E17.85715
G0 F6000 X119.422 Y113.2
G1 F1200 X120.672 Y114.449 E17.91592
G0 F6000 X120.106 Y114.449
G1 F1200 X118.856 Y113.2 E17.9747
G0 F6000 X118.291 Y113.2
G1 F1200 X119.54 Y114.449 E18.03345
G0 F6000 X118.974 Y114.449
G1 F1200 X117.725 Y113.2 E18.09219
G0 F6000 X117.159 Y113.2
G1 F1200 X118.409 Y114.449 E18.15097
G0 F6000 X117.843 Y114.449
G1 F1200 X116.594 Y113.2 E18.20972
G0 F6000 X116.028 Y113.2
G1 F1200 X117.277 Y114.449 E18.26847
G0 F6000 X116.712 Y114.449
G1 F1200 X115.462 Y113.2 E18.32724
G0 F6000 X114.897 Y113.2
G1 F1200 X116.146 Y114.449 E18.38599
G0 F6000 X115.58 Y114.449
G1 F1200 X114.331 Y113.2 E18.44474
G0 F6000 X113.765 Y113.2
G1 F1200 X115.015 Y114.449 E18.50351
G0 F6000 X114.449 Y114.449
G1 F1200 X113.649 Y113.649 E18.54114
G0 F6000 X113.649 Y114.215
G1 F1200 X113.883 Y114.449 E18.55215
G0 F6000 X113.883 Y114.8
G1 F2700 E13.55215
;MESH:NONMESH
G0 F300 X113.883 Y114.8 Z0.4
G0 F6000 X113.883 Y114.89
G0 X112.914 Y115.186
G0 X112.701 Y116.6
M117 Time Left 0h20m32s
;TIME_ELAPSED:37.370010
;LAYER:1
M106 S85
;TYPE:SUPPORT
G1 F2700 E18.55215
G1 F1350 X122.3 Y116.6 E18.87141
G1 X122.3 Y119.8 E18.97784
G1 X112.7 Y119.8 E19.29714
G1 X112.701 Y116.6 E19.40357
G1 F2700 E14.40357
G0 F7500 X111.835 Y116.6
G0 X111.835 Y119.52
G0 X114 Y119.52
G1 F2700 E19.40357
G1 F1350 X116 Y119.52 E19.47009
G1 X116 Y116.88 E19.5579
G1 X118 Y116.88 E19.62442
G1 X118 Y119.52 E19.71223
G1 X120 Y119.52 E19.77875
G1 X120 Y116.88 E19.86655
G1 X122 Y116.88 E19.93307
G1 X122 Y119.52 E20.02088
G1 X122.02 Y119.52 E20.02154
G1 X122.02 Y116.88 E20.10935
G1 X122 Y116.88 E20.11002
G1 F2700 E15.11002
G0 F7500 X123.165 Y116.88
G0 X123.161 Y123.107
G0 X122.657 Y123.611
G0 X112.343 Y123.611
G0 X111.839 Y123.107
G0 X111.835 Y119.52
G0 X114 Y119.52
G1 F2700 E20.11002
G1 F1350 X112.98 Y119.52 E20.14394
G1 X112.981 Y116.88 E20.23175
G1 X114 Y116.88 E20.26564
G1 X114 Y119.52 E20.35345
G1 F2700 E15.35345
;MESH:test14.stl
G0 F7500 X114 Y121.22
G0 X121.718 Y121.582
G0 X121.9 Y122.35
;TYPE:WALL-INNER
G1 F2700 E20.35345
G1 F1350 X113.1 Y122.35 E20.64614
G1 X113.1 Y121.4 E20.67773
G1 X121.9 Y121.4 E20.97042
G1 X121.9 Y122.35 E21.00202
G0 F7500 X122.3 Y122.75
;TYPE:WALL-OUTER
G1 F1350 X112.7 Y122.75 E21.32132
G1 X112.7 Y121 E21.37952
G1 X122.3 Y121 E21.69882
G1 X122.3 Y122.75 E21.75703
G0 F7500 X122.03 Y122.48
G0 X121.51 Y122.24
G0 X121.51 Y121.96
;TYPE:SKIN
G1 F1350 X113.49 Y121.96 E22.02377
G1 X113.49 Y121.79 E22.02943
G1 X121.51 Y121.79 E22.29617
G1 X121.51 Y121.96 E22.30183
G0 F7500 X121.51 Y122.15
G1 F2700 E17.30183
G0 F7500 X121.51 Y122.24
G0 X121.9 Y121.22
G0 X123.129 Y120.639
G0 X123.129 Y115.761
G0 X121.9 Y115.18
G0 X121.9 Y115
;TYPE:WALL-INNER
G1 F2700 E22.30183
G1 F1350 X113.1 Y115 E22.59452
G1 X113.1 Y112.65 E22.67268
G1 X121.9 Y112.65 E22.96537
G1 X121.9 Y115 E23.04353
G0 F7500 X122.3 Y115.4
;TYPE:WALL-OUTER
G1 F1350 X112.7 Y115.4 E23.36282
G1 X112.7 Y112.25 E23.46759
G1 X122.3 Y112.25 E23.78689
G1 X122.3 Y115.4 E23.89166
G0 F7500 X122.03 Y115.13
G0 X121.79 Y114.61
G0 X121.51 Y114.61
;TYPE:SKIN
G1 F1350 X113.49 Y114.61 E24.15841
G1 X113.49 Y113.04 E24.21063
G1 X121.51 Y113.04 E24.47737
G1 X121.51 Y114.61 E24.52959
G0 F7500 X121.348 Y113.976
G1 F1350 X120.875 Y114.449 E24.55184
G0 F7500 X120.309 Y114.449
G1 F1350 X121.348 Y113.41 E24.60071
G0 F7500 X120.993 Y113.2
G1 F1350 X119.744 Y114.449 E24.65946
G0 F7500 X119.178 Y114.449
G1 F1350 X120.428 Y113.2 E24.71823
G0 F7500 X119.862 Y113.2
G1 F1350 X118.612 Y114.449 E24.777
G0 F7500 X118.047 Y114.449
G1 F1350 X119.296 Y113.2 E24.83575
G0 F7500 X118.731 Y113.2
G1 F1350 X117.481 Y114.449 E24.89453
G0 F7500 X116.915 Y114.449
G1 F1350 X118.165 Y113.2 E24.9533
G0 F7500 X117.599 Y113.2
G1 F1350 X116.35 Y114.449 E25.01205
G0 F7500 X115.784 Y114.449
G1 F1350 X117.033 Y113.2 E25.0708
G0 F7500 X116.468 Y113.2
G1 F1350 X115.218 Y114.449 E25.12957
G0 F7500 X114.653 Y114.449
G1 F1350 X115.902 Y113.2 E25.18832
G0 F7500 X115.336 Y113.2
G1 F1350 X114.087 Y114.449 E25.24707
G0 F7500 X113.65 Y114.32
G1 F1350 X114.771 Y113.2 E25.29977
G0 F7500 X114.205 Y113.2
G1 F1350 X113.65 Y113.755 E25.32588
G0 F7500 X113.3 Y113.755
G1 F2700 E20.32588
;MESH:NONMESH
G0 F300 X113.3 Y113.755 Z0.6
G0 F7500 X113.21 Y113.755
G0 X112.914 Y115.186
G0 X112.701 Y116.6
M117 Time Left 0h20m17s
;TIME_ELAPSED:52.721261
;LAYER:2
M106 S170
;TYPE:SUPPORT
G1 F2700 E25.32588
G1 F1343 X122.3 Y116.6 E25.64514
G1 X122.3 Y119.8 E25.75157
G1 X112.7 Y119.8 E26.07087
G1 X112.701 Y116.6 E26.1773
G1 F2700 E21.1773
G0 F9000 X111.835 Y116.6
G0 X111.835 Y119.52
G0 X114 Y119.52
