;FLAVOR:Marlin
;TIME:4705
;Filament used: 3.61328m
;Layer height: 0.2
;Generated with Cura_SteamEngine 4.0.0
M140 S60
M105
M190 S60
M104 S200
M105
M109 S200
M82 ;absolute extrusion mode
; Ender 3 Custom Start G-code
M117 Clean ; Indicate nozzle clean in progress on LCD
M107 ; Turn layer fan off
G21 ; Set to metric [change to G20 if you want Imperial]
G28 ; Home all axes
; ***SET NEW E STEP *** (93 is factory value)
G90                          ; Force coordinates to be absolute relative to the origin
M92 E95 ;
G90                          ; Force coordinates to be absolute relative to the origin
G28                          ; Home X/Y/Z axis
;
G92 E0 ; Reset Extruder
G1 Z2.0 F3000 ; Move Z Axis up little to prevent scratching of Heat Bed
G1 X0.1 Y20 Z0.3 F5000.0 ; Move to start position
G1 X0.1 Y200.0 Z0.3 F1500.0 E15 ; Draw the first line
G1 X0.4 Y200.0 Z0.3 F5000.0 ; Move to side a little
G1 X0.4 Y20 Z0.3 F1500.0 E30 ; Draw the second line
G92 E0 ; Reset Extruder
G1 Z2.0 F3000 ; Move Z Axis up little to prevent scratching of Heat Bed
M117 Printing ; Indicate printing on LCD
; End of custom start GCode
G92 E0
G1 F3000 E-6
;LAYER_COUNT:43
;LAYER:0
M107
M204 S5000
M205 X30 Y30
G0 F7200 X64.087 Y114.101 Z0.2
M204 S500
M205 X20 Y20
;TYPE:SKIRT
G1 F3000 E0
G1 F900 X64.712 Y113.753 E0.02498
G1 X65.294 Y113.505 E0.04708
G1 X68.149 Y112.451 E0.15336
G1 X73.085 Y110.383 E0.34026
G1 X77.829 Y108.072 E0.52455
G1 X82.453 Y105.485 E0.70958
G1 X86.922 Y102.643 E0.89454
G1 X91.213 Y99.558 E1.07911
G1 X95.343 Y96.221 E1.26454
G1 X99.294 Y92.64 E1.45076
G1 X101.032 Y90.937 E1.53574
G1 X101.57 Y90.466 E1.56071
G1 X102.158 Y90.058 E1.5857
G1 X102.787 Y89.718 E1.61067
G1 X103.45 Y89.45 E1.63565
G1 X104.139 Y89.258 E1.66063
G1 X104.845 Y89.144 E1.6856
G1 X105.511 Y89.109 E1.70889
G1 X139.496 Y89.11 E2.89575
G1 X140.21 Y89.15 E2.92073
G1 X140.916 Y89.269 E2.94573
G1 X141.603 Y89.467 E2.9707
G1 X142.264 Y89.74 E2.99568
G1 X142.891 Y90.085 E3.02067
G1 X143.495 Y90.513 E3.04652
G1 X145.172 Y91.855 E3.12153
G1 X149.485 Y95.042 E3.30882
G1 X153.888 Y97.927 E3.49265
G1 X159.732 Y101.258 E3.72757
G1 X160.333 Y101.646 E3.75255
G1 X161.085 Y102.289 E3.7871
G1 X161.701 Y102.904 E3.8175
G1 X162.178 Y103.437 E3.84248
G1 X162.593 Y104.019 E3.86745
G1 X163.08 Y104.957 E3.90435
G1 X163.341 Y105.579 E3.92791
G1 X163.581 Y106.253 E3.9529
G1 X163.744 Y106.949 E3.97786
G1 X163.84 Y108.006 E4.01493
G1 X163.889 Y114.46 E4.24033
G1 X163.886 Y114.71 E4.24906
G1 X163.78 Y118.089 E4.36712
G1 X163.899 Y125.127 E4.61295
G1 X163.9 Y125.249 E4.61721
G1 X163.889 Y130.522 E4.80136
G1 X163.886 Y130.71 E4.80792
G1 X163.78 Y134.096 E4.92623
G1 X163.899 Y141.127 E5.17181
G1 X163.9 Y141.301 E5.17789
G1 X163.842 Y146.985 E5.3764
G1 X163.794 Y147.699 E5.40139
G1 X163.607 Y148.637 E5.4348
G1 X163.536 Y148.892 E5.44404
G1 X163.306 Y149.569 E5.46901
G1 X162.99 Y150.239 E5.49488
G1 X162.701 Y150.769 E5.51596
G1 X162.324 Y151.377 E5.54095
G1 X161.882 Y151.939 E5.56592
G1 X161.334 Y152.488 E5.59301
G1 X160.767 Y152.992 E5.6195
G1 X160.207 Y153.437 E5.64448
G1 X159.569 Y153.833 E5.6707
G1 X157.215 Y155.111 E5.76425
G1 X152.64 Y157.852 E5.9505
G1 X148.252 Y160.831 E6.13572
G1 X143.386 Y164.567 E6.34997
G1 X142.795 Y164.97 E6.37495
G1 X142.163 Y165.305 E6.39993
G1 X141.498 Y165.567 E6.42489
G1 X140.807 Y165.754 E6.44989
G1 X140.1 Y165.862 E6.47487
G1 X139.488 Y165.891 E6.49627
G1 X105.505 Y165.89 E7.68306
G1 X104.791 Y165.85 E7.70803
G1 X104.085 Y165.731 E7.73304
G1 X103.398 Y165.533 E7.758
G1 X102.553 Y165.168 E7.79015
G1 X100.255 Y163.973 E7.88061
G1 X95.391 Y161.694 E8.06819
G1 X90.406 Y159.693 E8.25579
G1 X86.268 Y158.203 E8.40938
G1 X85.609 Y157.923 E8.43439
G1 X84.986 Y157.572 E8.45936
G1 X84.406 Y157.153 E8.48435
G1 X83.957 Y156.752 E8.50537
G1 X81.571 Y154.414 E8.62203
G1 X77.547 Y150.693 E8.81344
G1 X75.57 Y149.013 E8.90404
G1 X73.543 Y147.39 E8.99473
G1 X69.253 Y144.241 E9.18058
G1 X64.035 Y140.868 E9.39757
G1 X63.457 Y140.447 E9.42254
G1 X62.929 Y139.964 E9.44753
G1 X62.459 Y139.425 E9.4725
G1 X62.052 Y138.837 E9.49748
G1 X61.713 Y138.207 E9.52246
G1 X61.446 Y137.543 E9.54746
G1 X61.255 Y136.854 E9.57242
G1 X61.143 Y136.148 E9.59739
G1 X61.109 Y135.493 E9.62029
G1 X61.11 Y119.509 E10.17851
G1 X61.15 Y118.794 E10.20351
G1 X61.269 Y118.089 E10.22848
G1 X61.467 Y117.402 E10.25345
G1 X61.74 Y116.741 E10.27843
G1 X62.085 Y116.114 E10.30342
G1 X62.497 Y115.53 E10.32838
G1 X62.973 Y114.995 E10.35339
G1 X63.505 Y114.517 E10.37837
G1 X64.087 Y114.101 E10.40335
M204 S5000
M205 X30 Y30
G0 F7200 X64.47 Y114.336
M204 S500
M205 X20 Y20
G1 F900 X65.086 Y114.02 E10.42753
G1 X65.433 Y113.88 E10.4406
G1 X68.294 Y112.824 E10.5471
G1 X73.242 Y110.751 E10.73445
G1 X78.028 Y108.419 E10.92038
G1 X82.65 Y105.833 E11.10534
G1 X87.148 Y102.973 E11.29149
G1 X91.461 Y99.873 E11.47698
G1 X95.6 Y96.528 E11.66283
G1 X99.572 Y92.927 E11.85007
G1 X101.312 Y91.223 E11.93512
G1 X101.834 Y90.768 E11.9593
G1 X102.405 Y90.376 E11.98349
G1 X103.017 Y90.052 E12.00768
G1 X103.662 Y89.801 E12.03185
G1 X104.333 Y89.626 E12.05606
G1 X105.018 Y89.529 E12.08022
G1 X105.511 Y89.509 E12.09746
G1 X139.496 Y89.51 E13.28432
G1 X140.188 Y89.55 E13.30853
G1 X140.87 Y89.669 E13.3327
G1 X141.534 Y89.867 E13.3569
G1 X142.17 Y90.139 E13.38106
G1 X142.771 Y90.483 E13.40524
G1 X143.245 Y90.826 E13.42568
G1 X144.924 Y92.17 E13.50078
G1 X149.241 Y95.36 E13.68824
G1 X153.681 Y98.269 E13.87362
G1 X159.534 Y101.605 E14.10889
G1 X160.115 Y101.982 E14.13308
G1 X160.802 Y102.572 E14.16471
G1 X161.418 Y103.187 E14.1951
G1 X161.879 Y103.704 E14.2193
G1 X162.278 Y104.27 E14.24348
G1 X162.712 Y105.111 E14.27653
G1 X162.973 Y105.733 E14.30009
G1 X163.203 Y106.386 E14.32427
G1 X163.357 Y107.062 E14.34848
G1 X163.44 Y108.009 E14.38168
G1 X163.489 Y114.463 E14.60708
G1 X163.486 Y114.697 E14.61525
G1 X163.379 Y118.09 E14.7338
G1 X163.499 Y125.134 E14.97984
G1 X163.5 Y125.249 E14.98385
G1 X163.489 Y130.522 E15.168
G1 X163.486 Y130.697 E15.17412
G1 X163.379 Y134.09 E15.29267
G1 X163.499 Y141.134 E15.5387
G1 X163.5 Y141.297 E15.5444
G1 X163.442 Y146.981 E15.74291
G1 X163.395 Y147.672 E15.7671
G1 X163.222 Y148.529 E15.79763
G1 X163.151 Y148.784 E15.80688
G1 X162.927 Y149.44 E15.83108
G1 X162.639 Y150.047 E15.85455
G1 X162.35 Y150.577 E15.87563
G1 X161.984 Y151.165 E15.89982
G1 X161.552 Y151.707 E15.92402
G1 X161.068 Y152.189 E15.94788
G1 X160.501 Y152.693 E15.97437
G1 X159.958 Y153.123 E15.99856
G1 X159.378 Y153.482 E16.02238
G1 X157.017 Y154.764 E16.11621
G1 X152.416 Y157.521 E16.30353
G1 X148.02 Y160.504 E16.48906
G1 X143.142 Y164.25 E16.70385
G1 X142.57 Y164.639 E16.72801
G1 X141.956 Y164.96 E16.7522
G1 X141.309 Y165.208 E16.7764
G1 X140.638 Y165.38 E16.80059
G1 X139.952 Y165.473 E16.82477
G1 X139.488 Y165.491 E16.84098
G1 X105.505 Y165.49 E18.02778
G1 X104.813 Y165.45 E18.05198
G1 X104.131 Y165.331 E18.07616
G1 X103.467 Y165.133 E18.10036
G1 X102.737 Y164.813 E18.1282
G1 X100.411 Y163.604 E18.21974
G1 X95.567 Y161.334 E18.40657
G1 X90.532 Y159.313 E18.59604
G1 X86.403 Y157.826 E18.7493
G1 X85.766 Y157.554 E18.77349
G1 X85.165 Y157.211 E18.79766
G1 X84.607 Y156.801 E18.82184
G1 X84.237 Y156.467 E18.83925
G1 X81.822 Y154.1 E18.95734
G1 X77.82 Y150.399 E19.14771
G1 X75.833 Y148.712 E19.23874
G1 X73.797 Y147.081 E19.32984
G1 X69.469 Y143.904 E19.51734
G1 X64.252 Y140.532 E19.73428
G1 X63.693 Y140.123 E19.75847
G1 X63.185 Y139.653 E19.78264
G1 X62.734 Y139.127 E19.80684
G1 X62.348 Y138.552 E19.83102
G1 X62.029 Y137.937 E19.85522
G1 X61.784 Y137.29 E19.87938
G1 X61.615 Y136.618 E19.90358
G1 X61.525 Y135.931 E19.92778
G1 X61.509 Y135.493 E19.94308
G1 X61.51 Y119.509 E20.50129
G1 X61.55 Y118.817 E20.5255
G1 X61.669 Y118.135 E20.54968
G1 X61.867 Y117.471 E20.57388
G1 X62.139 Y116.835 E20.59803
G1 X62.483 Y116.233 E20.62225
G1 X62.894 Y115.676 E20.64642
G1 X63.366 Y115.17 E20.67059
G1 X63.894 Y114.721 E20.69479
G1 X64.47 Y114.336 E20.71899
M204 S5000
M205 X30 Y30
G0 F7200 X64.282 Y114.933
M204 S500
M205 X20 Y20
G1 F900 X64.85 Y114.581 E20.74233
G1 X65.571 Y114.255 E20.76996
G1 X68.454 Y113.191 E20.87728
G1 X73.408 Y111.115 E21.06487
G1 X78.206 Y108.778 E21.25125
G1 X82.868 Y106.17 E21.4378
G1 X87.371 Y103.306 E21.62417
G1 X91.693 Y100.2 E21.81005
G1 X95.864 Y96.828 E21.99736
G1 X99.852 Y93.214 E22.18531
G1 X101.592 Y91.509 E22.27039
G1 X102.097 Y91.07 E22.29376
G1 X102.651 Y90.694 E22.31714
G1 X103.245 Y90.388 E22.34047
G1 X103.872 Y90.154 E22.36385
G1 X104.523 Y89.997 E22.38723
G1 X105.511 Y89.909 E22.42187
G1 X139.496 Y89.91 E23.60874
G1 X140.164 Y89.95 E23.63211
G1 X140.822 Y90.069 E23.65546
G1 X141.462 Y90.266 E23.67885
G1 X142.073 Y90.538 E23.7022
G1 X142.648 Y90.881 E23.72558
G1 X142.995 Y91.138 E23.74066
G1 X144.676 Y92.484 E23.81587
G1 X149.022 Y95.695 E24.00458
G1 X153.474 Y98.611 E24.19044
G1 X159.336 Y101.953 E24.42609
G1 X159.897 Y102.318 E24.44947
G1 X160.52 Y102.855 E24.47819
G1 X161.136 Y103.47 E24.50859
G1 X161.58 Y103.97 E24.53194
G1 X161.962 Y104.52 E24.55533
G1 X162.343 Y105.266 E24.58458
G1 X162.604 Y105.888 E24.60814
G1 X162.825 Y106.519 E24.63149
G1 X162.97 Y107.173 E24.65488
G1 X163.04 Y108.012 E24.68428
G1 X163.089 Y114.466 E24.90968
G1 X163.086 Y114.685 E24.91733
G1 X162.979 Y118.085 E25.03613
G1 X163.099 Y125.141 E25.28258
G1 X163.1 Y125.248 E25.28632
G1 X163.089 Y130.521 E25.47047
G1 X163.086 Y130.685 E25.4762
G1 X162.979 Y134.085 E25.595
G1 X163.099 Y141.141 E25.84145
G1 X163.1 Y141.293 E25.84676
G1 X163.042 Y146.977 E26.04527
G1 X162.995 Y147.645 E26.06866
G1 X162.837 Y148.422 E26.09635
G1 X162.766 Y148.677 E26.10559
G1 X162.548 Y149.31 E26.12897
G1 X162.288 Y149.856 E26.15009
G1 X161.999 Y150.386 E26.17118
G1 X161.644 Y150.953 E26.19454
G1 X161.224 Y151.474 E26.21791
G1 X160.802 Y151.89 E26.2386
G1 X160.235 Y152.394 E26.2651
G1 X159.71 Y152.808 E26.28845
G1 X159.187 Y153.13 E26.30989
G1 X156.826 Y154.412 E26.40372
G1 X152.207 Y157.18 E26.59178
G1 X147.789 Y160.178 E26.77824
G1 X142.899 Y163.933 E26.99355
G1 X142.345 Y164.308 E27.01692
G1 X141.75 Y164.614 E27.04028
G1 X141.123 Y164.847 E27.06364
G1 X140.472 Y165.004 E27.08703
G1 X139.488 Y165.091 E27.12153
G1 X105.505 Y165.09 E28.30832
G1 X104.837 Y165.05 E28.33169
G1 X104.179 Y164.931 E28.35504
G1 X103.539 Y164.734 E28.37843
G1 X102.922 Y164.459 E28.40202
G1 X100.587 Y163.245 E28.49393
G1 X95.722 Y160.966 E28.68155
G1 X90.674 Y158.939 E28.87152
G1 X86.539 Y157.45 E29.025
G1 X85.924 Y157.186 E29.04838
G1 X85.345 Y156.851 E29.07174
G1 X84.81 Y156.449 E29.09511
G1 X84.517 Y156.181 E29.10898
G1 X82.091 Y153.804 E29.22759
G1 X78.092 Y150.106 E29.41781
G1 X76.076 Y148.393 E29.5102
G1 X74.04 Y146.763 E29.60128
G1 X69.706 Y143.581 E29.78905
G1 X64.469 Y140.196 E30.00682
G1 X63.93 Y139.8 E30.03018
G1 X63.442 Y139.343 E30.05353
G1 X63.012 Y138.83 E30.0769
G1 X62.646 Y138.27 E30.10027
G1 X62.35 Y137.67 E30.12363
G1 X62.127 Y137.039 E30.14701
G1 X61.981 Y136.386 E30.17037
G1 X61.909 Y135.493 E30.20166
G1 X61.91 Y119.509 E30.75987
G1 X61.95 Y118.841 E30.78324
G1 X62.069 Y118.183 E30.8066
G1 X62.266 Y117.543 E30.82998
G1 X62.538 Y116.932 E30.85334
G1 X62.881 Y116.357 E30.87672
G1 X63.29 Y115.828 E30.90007
G1 X63.759 Y115.351 E30.92343
G1 X64.282 Y114.933 E30.94682
M204 S5000
M205 X30 Y30
G0 F7200 X64.668 Y115.155
M204 S500
M205 X20 Y20
G1 F900 X65.228 Y114.836 E30.96932
G1 X65.71 Y114.631 E30.98762
G1 X68.579 Y113.572 E31.09442
G1 X73.566 Y111.483 E31.28324
G1 X78.397 Y109.129 E31.47092
G1 X83.064 Y106.518 E31.65768
G1 X87.593 Y103.638 E31.84512
G1 X91.963 Y100.497 E32.03306
G1 X96.11 Y97.145 E32.21928
G1 X100.118 Y93.512 E32.4082
G1 X101.872 Y91.794 E32.49394
G1 X102.36 Y91.373 E32.51645
G1 X102.896 Y91.015 E32.53896
G1 X103.472 Y90.725 E32.56148
G1 X104.079 Y90.51 E32.58397
G1 X104.709 Y90.371 E32.6065
G1 X105.511 Y90.309 E32.63459
G1 X139.496 Y90.31 E33.82146
G1 X140.14 Y90.35 E33.84399
G1 X140.773 Y90.469 E33.86648
G1 X141.387 Y90.666 E33.889
G1 X141.972 Y90.937 E33.91152
G1 X142.745 Y91.45 E33.94392
G1 X144.445 Y92.81 E34.01995
G1 X148.779 Y96.013 E34.20815
G1 X153.267 Y98.953 E34.39553
G1 X159.138 Y102.3 E34.63154
G1 X159.677 Y102.654 E34.65406
G1 X160.237 Y103.138 E34.67991
G1 X160.853 Y103.753 E34.71031
G1 X161.28 Y104.236 E34.73282
G1 X161.644 Y104.768 E34.75533
G1 X161.974 Y105.421 E34.78088
G1 X162.235 Y106.043 E34.80444
G1 X162.447 Y106.652 E34.82696
G1 X162.582 Y107.282 E34.84946
G1 X162.64 Y108.016 E34.87518
G1 X162.689 Y114.47 E35.10058
G1 X162.686 Y114.672 E35.10763
G1 X162.579 Y118.079 E35.22667
G1 X162.699 Y125.148 E35.47358
G1 X162.7 Y125.247 E35.47704
G1 X162.689 Y130.52 E35.66119
G1 X162.686 Y130.672 E35.6665
G1 X162.579 Y134.079 E35.78554
G1 X162.699 Y141.148 E36.03245
G1 X162.7 Y141.289 E36.03737
G1 X162.642 Y146.973 E36.23588
G1 X162.595 Y147.616 E36.2584
G1 X162.451 Y148.315 E36.28332
G1 X162.38 Y148.57 E36.29257
G1 X162.169 Y149.179 E36.31508
G1 X161.936 Y149.664 E36.33387
G1 X161.647 Y150.194 E36.35495
G1 X161.304 Y150.74 E36.37747
G1 X160.896 Y151.239 E36.39998
G1 X160.537 Y151.592 E36.41756
G1 X159.97 Y152.096 E36.44405
G1 X159.462 Y152.493 E36.46657
G1 X158.996 Y152.779 E36.48566
G1 X156.629 Y154.065 E36.57974
G1 X151.982 Y156.848 E36.76891
G1 X147.547 Y159.859 E36.95611
G1 X142.655 Y163.615 E37.1715
G1 X142.12 Y163.976 E37.19404
G1 X141.545 Y164.267 E37.21655
G1 X140.938 Y164.485 E37.23907
G1 X140.309 Y164.626 E37.26159
G1 X139.488 Y164.691 E37.29035
G1 X105.505 Y164.69 E38.47714
G1 X104.861 Y164.65 E38.49967
G1 X104.228 Y164.531 E38.52217
G1 X103.614 Y164.334 E38.54469
G1 X103.106 Y164.104 E38.56416
G1 X100.762 Y162.885 E38.65643
G1 X95.883 Y160.6 E38.84458
G1 X90.799 Y158.558 E39.03592
G1 X86.674 Y157.073 E39.18902
G1 X86.082 Y156.818 E39.21153
G1 X85.527 Y156.491 E39.23403
G1 X84.797 Y155.895 E39.26694
G1 X82.395 Y153.541 E39.3844
G1 X78.339 Y149.79 E39.57733
G1 X76.339 Y148.091 E39.66898
G1 X74.283 Y146.445 E39.76096
G1 X69.93 Y143.25 E39.94953
G1 X64.686 Y139.86 E40.1676
G1 X64.168 Y139.477 E40.1901
G1 X63.7 Y139.033 E40.21263
G1 X63.292 Y138.535 E40.23511
G1 X62.948 Y137.99 E40.25762
G1 X62.674 Y137.406 E40.28015
G1 X62.474 Y136.793 E40.30267
G1 X62.352 Y136.16 E40.32518
G1 X62.309 Y135.493 E40.34852
G1 X62.31 Y119.509 E40.90673
G1 X62.35 Y118.865 E40.92927
G1 X62.469 Y118.232 E40.95176
G1 X62.666 Y117.618 E40.97428
G1 X62.937 Y117.033 E40.9968
G1 X63.279 Y116.486 E41.01932
G1 X63.685 Y115.986 E41.04182
G1 X64.151 Y115.54 E41.06434
G1 X64.668 Y115.155 E41.08686
M204 S5000
M205 X30 Y30
G1 F3000 E35.08686
;MESH:sup_btn._v5_2.stl
G0 F7200 X67.914 Y118.835
G0 X67.914 Y119.914
G0 X68.703 Y126.592
G0 X70.042 Y129.839
M204 S500
M205 X20 Y20
;TYPE:WALL-INNER
G1 F3000 E41.08686
G1 F900 X70.669 Y130.127 E41.11095
G1 X71.35 Y130.253 E41.13514
G1 X72.04 Y130.202 E41.1593
G1 X72.694 Y129.983 E41.18339
G1 X73.273 Y129.609 E41.20746
G1 X73.743 Y129.103 E41.23158
G1 X74.069 Y128.497 E41.25561
G1 X74.236 Y127.844 E41.27915
G1 X74.236 Y127.154 E41.30325
G1 X74.064 Y126.486 E41.32733
G1 X73.731 Y125.878 E41.35154
G1 X73.256 Y125.375 E41.3757
G1 X72.675 Y125.005 E41.39976
G1 X72.018 Y124.791 E41.42389
G1 X71.377 Y124.752 E41.44632
G1 X71.326 Y124.748 E41.44811
G1 X70.649 Y124.878 E41.47218
G1 X70.019 Y125.172 E41.49646
G1 X69.475 Y125.631 E41.52132
G1 X69.073 Y126.194 E41.54548
G1 X68.896 Y126.653 E41.56266
G1 X68.825 Y126.838 E41.56958
G1 X68.82 Y126.887 E41.5713
G1 X68.744 Y127.523 E41.59367
G1 X68.835 Y128.208 E41.6178
G1 X68.896 Y128.359 E41.62349
G1 X69.095 Y128.848 E41.64192
G1 X69.505 Y129.402 E41.66599
G1 X70.042 Y129.839 E41.69017
M204 S5000
M205 X30 Y30
G0 F7200 X70.255 Y129.497
M204 S500
M205 X20 Y20
G1 F900 X70.791 Y129.743 E41.71077
G1 X71.372 Y129.85 E41.7314
G1 X71.961 Y129.807 E41.75202
G1 X72.519 Y129.62 E41.77258
G1 X73.014 Y129.3 E41.79316
G1 X73.415 Y128.868 E41.81375
G1 X73.694 Y128.35 E41.83429
G1 X73.836 Y127.794 E41.85433
G1 X73.836 Y127.205 E41.8749
G1 X73.689 Y126.634 E41.89549
G1 X73.405 Y126.115 E41.91616
G1 X72.999 Y125.686 E41.93678
G1 X72.503 Y125.37 E41.95732
G1 X71.942 Y125.187 E41.97793
G1 X71.352 Y125.15 E41.99857
G1 X70.773 Y125.261 E42.01916
G1 X70.236 Y125.512 E42.03986
G1 X69.771 Y125.904 E42.0611
