;FLAVOR:Marlin
;TIME:1096
;Filament used: 0.85971m
;Layer height: 0.2
;Generated with Cura_SteamEngine 4.0.0
M140 S60
M105
M190 S60
M104 S200
M105
M109 S200
M82 ;absolute extrusion mode
; Ender 3 Custom Start G-code
M117 Clean ; Indicate nozzle clean in progress on LCD
M107 ; Turn layer fan off
G21 ; Set to metric [change to G20 if you want Imperial]
G28 ; Home all axes
; ***SET NEW E STEP *** (93 is factory value)
G90                          ; Force coordinates to be absolute relative to the origin
M92 E95 ;
G90                          ; Force coordinates to be absolute relative to the origin
G28                          ; Home X/Y/Z axis
;
G92 E0 ; Reset Extruder
G1 Z2.0 F3000 ; Move Z Axis up little to prevent scratching of Heat Bed
G1 X0.1 Y20 Z0.3 F5000.0 ; Move to start position
G1 X0.1 Y200.0 Z0.3 F1500.0 E15 ; Draw the first line
G1 X0.4 Y200.0 Z0.3 F5000.0 ; Move to side a little
G1 X0.4 Y20 Z0.3 F1500.0 E30 ; Draw the second line
G92 E0 ; Reset Extruder
G1 Z2.0 F3000 ; Move Z Axis up little to prevent scratching of Heat Bed
M117 Printing ; Indicate printing on LCD
; End of custom start GCode
G92 E0
G1 F3000 E-6
;LAYER_COUNT:43
;LAYER:0
M107
M204 S5000
M205 X30 Y30
G0 F7200 X94.247 Y118.001 Z0.2
M204 S500
M205 X20 Y20
;TYPE:SKIRT
G1 F3000 E0
G1 F900 X100.415 Y113.325 E0.27031
G1 X104.402 Y109.88 E0.45432
G1 X108.23 Y106.174 E0.6404
G1 X111.474 Y102.697 E0.80647
G1 X111.99 Y102.202 E0.83144
G1 X112.823 Y101.598 E0.86737
G1 X113.514 Y101.177 E0.89563
G1 X114.145 Y100.839 E0.92063
G1 X114.809 Y100.574 E0.9456
G1 X115.714 Y100.343 E0.97822
G1 X116.327 Y100.233 E0.99997
G1 X117.037 Y100.146 E1.02495
G1 X117.486 Y100.132 E1.04063
G1 X127.965 Y100.179 E1.4066
G1 X128.679 Y100.222 E1.43158
G1 X129.383 Y100.345 E1.45654
G1 X130.361 Y100.656 E1.49238
G1 X130.957 Y100.9 E1.51487
G1 X131.603 Y101.208 E1.53986
G1 X132.21 Y101.585 E1.56482
G1 X132.571 Y101.858 E1.58062
G1 X132.973 Y102.185 E1.59872
G1 X133.501 Y102.667 E1.62369
G1 X134.036 Y103.286 E1.65226
G1 X134.292 Y103.624 E1.66707
G1 X134.691 Y104.217 E1.69203
G1 X135.153 Y105.165 E1.72886
G1 X135.393 Y105.781 E1.75194
G1 X135.615 Y106.461 E1.77693
G1 X135.76 Y107.161 E1.80189
G1 X135.83 Y108.065 E1.83356
G1 X135.869 Y114.465 E2.05707
G1 X135.866 Y114.705 E2.06545
G1 X135.76 Y118.092 E2.18379
G1 X135.879 Y125.143 E2.43007
G1 X135.88 Y125.263 E2.43426
G1 X135.87 Y130.511 E2.61754
G1 X135.867 Y130.701 E2.62417
G1 X135.76 Y134.094 E2.74273
G1 X135.879 Y141.158 E2.98946
G1 X135.88 Y141.328 E2.9954
G1 X135.825 Y146.966 E3.1923
G1 X135.778 Y147.68 E3.21729
G1 X135.651 Y148.384 E3.24228
G1 X135.365 Y149.287 E3.27535
G1 X135.109 Y149.925 E3.29936
G1 X134.806 Y150.573 E3.32434
G1 X134.432 Y151.183 E3.34933
G1 X134.161 Y151.547 E3.36518
G1 X133.873 Y151.906 E3.38125
G1 X133.395 Y152.438 E3.40623
G1 X132.727 Y153.017 E3.4371
G1 X132.312 Y153.329 E3.45524
G1 X131.717 Y153.726 E3.48022
G1 X130.78 Y154.18 E3.51658
G1 X130.241 Y154.389 E3.53677
G1 X129.56 Y154.61 E3.56177
G1 X128.86 Y154.754 E3.58673
G1 X128.224 Y154.815 E3.60904
G1 X126.975 Y154.873 E3.65271
G1 X126.638 Y154.88 E3.66448
G1 X117.021 Y154.82 E4.00034
G1 X116.307 Y154.775 E4.02533
G1 X115.603 Y154.652 E4.05028
G1 X114.916 Y154.45 E4.07529
G1 X114.497 Y154.284 E4.09103
G1 X113.827 Y153.991 E4.11657
G1 X113.188 Y153.668 E4.14157
G1 X112.59 Y153.276 E4.16655
G1 X112.039 Y152.82 E4.19152
G1 X111.749 Y152.533 E4.20577
G1 X110.139 Y150.836 E4.28746
G1 X106.308 Y146.915 E4.47891
G1 X102.4 Y143.342 E4.66383
G1 X98.276 Y139.98 E4.84965
G1 X94.302 Y137.039 E5.02231
G1 X93.752 Y136.583 E5.04726
G1 X93.256 Y136.067 E5.07225
G1 X92.9 Y135.613 E5.0924
G1 X92.521 Y135.082 E5.11518
G1 X92.138 Y134.478 E5.14016
G1 X91.826 Y133.834 E5.16515
G1 X91.576 Y133.121 E5.19154
G1 X91.387 Y132.459 E5.21558
G1 X91.229 Y131.761 E5.24057
G1 X91.15 Y131.05 E5.26556
G1 X91.141 Y130.691 E5.2781
G1 X91.152 Y124.2 E5.50479
G1 X91.193 Y123.486 E5.52976
G1 X91.314 Y122.781 E5.55474
G1 X91.541 Y122.014 E5.58268
G1 X91.814 Y121.267 E5.61045
G1 X92.097 Y120.61 E5.63543
G1 X92.451 Y119.989 E5.6604
G1 X92.811 Y119.486 E5.682
G1 X93.099 Y119.123 E5.69818
G1 X93.574 Y118.589 E5.72314
G1 X94.247 Y118.001 E5.75435
M204 S5000
M205 X30 Y30
G0 F7200 X94.489 Y118.319
M204 S500
M205 X20 Y20
G1 F900 X100.67 Y113.634 E6.02521
G1 X104.669 Y110.178 E6.2098
G1 X108.518 Y106.451 E6.39691
G1 X111.766 Y102.97 E6.56317
G1 X112.267 Y102.491 E6.58738
G1 X113.031 Y101.939 E6.6203
G1 X113.722 Y101.518 E6.64855
G1 X114.333 Y101.193 E6.67272
G1 X114.978 Y100.94 E6.69692
G1 X115.784 Y100.736 E6.72596
G1 X116.397 Y100.626 E6.74771
G1 X117.085 Y100.544 E6.7719
G1 X117.484 Y100.532 E6.78584
G1 X127.963 Y100.579 E7.15181
G1 X128.654 Y100.622 E7.17599
G1 X129.336 Y100.745 E7.20019
G1 X130.209 Y101.026 E7.23222
G1 X130.805 Y101.27 E7.25471
G1 X131.43 Y101.569 E7.2789
G1 X132.016 Y101.938 E7.30309
G1 X132.318 Y102.168 E7.31634
G1 X132.72 Y102.495 E7.33444
G1 X133.231 Y102.963 E7.35864
G1 X133.717 Y103.527 E7.38464
G1 X133.973 Y103.865 E7.39945
G1 X134.359 Y104.441 E7.42366
G1 X134.781 Y105.31 E7.4574
G1 X135.021 Y105.926 E7.48049
G1 X135.234 Y106.585 E7.50468
G1 X135.371 Y107.263 E7.52883
G1 X135.43 Y108.067 E7.55699
G1 X135.469 Y114.467 E7.7805
G1 X135.466 Y114.692 E7.78836
G1 X135.359 Y118.086 E7.90694
G1 X135.479 Y125.149 E8.15364
G1 X135.48 Y125.262 E8.15759
G1 X135.47 Y130.51 E8.34087
G1 X135.467 Y130.689 E8.34712
G1 X135.36 Y134.088 E8.46588
G1 X135.479 Y141.165 E8.71307
G1 X135.48 Y141.325 E8.71865
G1 X135.425 Y146.963 E8.91556
G1 X135.378 Y147.653 E8.93971
G1 X135.252 Y148.334 E8.9639
G1 X134.993 Y149.138 E8.9934
G1 X134.737 Y149.776 E9.01741
G1 X134.443 Y150.403 E9.04159
G1 X134.078 Y150.992 E9.06579
G1 X133.849 Y151.297 E9.07911
G1 X133.561 Y151.656 E9.09518
G1 X133.097 Y152.17 E9.11936
G1 X132.487 Y152.697 E9.14752
G1 X132.072 Y153.009 E9.16565
G1 X131.495 Y153.392 E9.18983
G1 X130.635 Y153.807 E9.22318
G1 X130.096 Y154.016 E9.24337
G1 X129.437 Y154.229 E9.26756
G1 X128.758 Y154.364 E9.29174
G1 X128.205 Y154.416 E9.31113
G1 X126.956 Y154.474 E9.3548
G1 X126.641 Y154.48 E9.3658
G1 X117.024 Y154.42 E9.70166
G1 X116.332 Y154.376 E9.72588
G1 X115.651 Y154.252 E9.75005
G1 X114.988 Y154.051 E9.77425
G1 X114.657 Y153.917 E9.78672
G1 X113.987 Y153.624 E9.81226
G1 X113.37 Y153.311 E9.83642
G1 X112.792 Y152.928 E9.86063
G1 X112.039 Y152.257 E9.89586
G1 X110.425 Y150.556 E9.97775
G1 X106.581 Y146.622 E10.16983
G1 X102.668 Y143.044 E10.355
G1 X98.531 Y139.671 E10.54142
G1 X94.54 Y136.718 E10.7148
G1 X94.008 Y136.275 E10.73898
G1 X93.53 Y135.773 E10.76318
G1 X93.225 Y135.381 E10.78053
G1 X92.846 Y134.85 E10.80331
G1 X92.477 Y134.264 E10.8275
G1 X92.178 Y133.639 E10.85169
G1 X91.961 Y133.011 E10.8749
G1 X91.772 Y132.349 E10.89894
G1 X91.62 Y131.673 E10.92314
G1 X91.541 Y130.692 E10.95751
G1 X91.552 Y124.201 E11.18419
G1 X91.593 Y123.51 E11.20837
G1 X91.714 Y122.828 E11.23256
G1 X91.917 Y122.151 E11.25724
G1 X92.19 Y121.404 E11.28502
G1 X92.464 Y120.769 E11.30917
G1 X92.811 Y120.169 E11.33337
G1 X93.125 Y119.735 E11.35208
G1 X93.413 Y119.372 E11.36826
G1 X93.874 Y118.855 E11.39246
G1 X94.489 Y118.319 E11.42095
M204 S5000
M205 X30 Y30
G0 F7200 X94.73 Y118.638
M204 S500
M205 X20 Y20
G1 F900 X100.923 Y113.944 E11.69233
G1 X104.953 Y110.46 E11.87837
G1 X108.797 Y106.739 E12.06521
G1 X112.059 Y103.243 E12.2322
G1 X112.543 Y102.781 E12.25556
G1 X113.239 Y102.281 E12.28549
G1 X113.93 Y101.86 E12.31375
G1 X114.521 Y101.546 E12.33712
G1 X115.146 Y101.306 E12.3605
G1 X115.855 Y101.13 E12.38601
G1 X116.468 Y101.02 E12.40776
G1 X117.132 Y100.941 E12.43112
G1 X117.482 Y100.932 E12.44334
G1 X127.961 Y100.979 E12.80931
G1 X128.629 Y101.022 E12.83268
G1 X129.287 Y101.144 E12.85605
G1 X130.058 Y101.396 E12.88438
G1 X130.654 Y101.64 E12.90687
G1 X131.257 Y101.931 E12.93026
G1 X132.066 Y102.479 E12.96438
G1 X132.468 Y102.806 E12.98248
G1 X132.961 Y103.258 E13.00584
G1 X133.398 Y103.769 E13.02932
G1 X133.654 Y104.107 E13.04412
G1 X134.025 Y104.663 E13.06747
G1 X134.408 Y105.455 E13.09819
G1 X134.648 Y106.071 E13.12128
G1 X134.853 Y106.708 E13.14465
G1 X134.981 Y107.365 E13.16802
G1 X135.03 Y108.07 E13.1927
G1 X135.069 Y114.47 E13.41622
G1 X135.066 Y114.68 E13.42355
G1 X134.959 Y118.081 E13.54238
G1 X135.079 Y125.156 E13.7895
G1 X135.08 Y125.262 E13.7932
G1 X135.07 Y130.51 E13.97648
G1 X135.067 Y130.676 E13.98228
G1 X134.959 Y134.082 E14.10129
G1 X135.079 Y141.171 E14.34889
G1 X135.08 Y141.321 E14.35413
G1 X135.025 Y146.959 E14.55104
G1 X134.978 Y147.626 E14.57439
G1 X134.853 Y148.283 E14.59774
G1 X134.622 Y148.989 E14.62369
G1 X134.366 Y149.627 E14.64769
G1 X134.08 Y150.232 E14.67106
G1 X133.537 Y151.046 E14.70524
G1 X133.249 Y151.405 E14.72131
G1 X132.8 Y151.901 E14.74467
G1 X132.246 Y152.377 E14.77018
G1 X131.831 Y152.689 E14.78831
G1 X131.273 Y153.058 E14.81168
G1 X130.491 Y153.434 E14.84198
G1 X129.952 Y153.643 E14.86217
G1 X129.314 Y153.847 E14.88556
G1 X128.658 Y153.974 E14.9089
G1 X128.187 Y154.016 E14.92541
G1 X126.938 Y154.074 E14.96908
G1 X126.643 Y154.08 E14.97938
G1 X117.026 Y154.02 E15.31524
G1 X116.358 Y153.976 E15.33862
G1 X115.701 Y153.852 E15.36197
G1 X114.817 Y153.551 E15.39458
G1 X114.147 Y153.258 E15.42012
G1 X113.551 Y152.954 E15.44349
G1 X112.996 Y152.581 E15.46684
G1 X112.329 Y151.982 E15.49815
G1 X110.668 Y150.232 E15.58241
G1 X106.872 Y146.347 E15.7721
G1 X102.917 Y142.731 E15.95925
G1 X98.772 Y139.352 E16.14601
G1 X94.778 Y136.396 E16.31954
G1 X94.265 Y135.967 E16.34289
G1 X93.807 Y135.479 E16.36627
G1 X93.551 Y135.148 E16.38088
G1 X93.172 Y134.617 E16.40366
G1 X92.816 Y134.051 E16.42701
G1 X92.531 Y133.445 E16.4504
G1 X92.345 Y132.901 E16.47048
G1 X92.156 Y132.239 E16.49452
G1 X92.011 Y131.586 E16.51788
G1 X91.941 Y130.693 E16.54916
G1 X91.952 Y124.202 E16.77585
G1 X91.993 Y123.534 E16.79922
G1 X92.114 Y122.876 E16.82259
G1 X92.292 Y122.289 E16.84401
G1 X92.565 Y121.542 E16.87179
G1 X92.832 Y120.928 E16.89517
G1 X93.17 Y120.351 E16.91852
G1 X93.438 Y119.983 E16.93442
G1 X93.726 Y119.62 E16.9506
G1 X94.172 Y119.122 E16.97395
G1 X94.73 Y118.638 E16.99975
M204 S5000
M205 X30 Y30
G0 F7200 X94.972 Y118.957
M204 S500
M205 X20 Y20
G1 F900 X101.177 Y114.254 E17.27165
G1 X105.211 Y110.768 E17.45785
G1 X109.075 Y107.026 E17.6457
G1 X112.351 Y103.515 E17.8134
G1 X112.819 Y103.072 E17.8359
G1 X113.447 Y102.622 E17.86288
G1 X114.138 Y102.201 E17.89114
G1 X114.709 Y101.901 E17.91367
G1 X115.312 Y101.673 E17.93618
G1 X115.926 Y101.524 E17.95825
G1 X116.539 Y101.414 E17.98
G1 X117.48 Y101.332 E18.01298
G1 X127.959 Y101.379 E18.37895
G1 X128.603 Y101.422 E18.40149
G1 X129.236 Y101.544 E18.424
G1 X129.906 Y101.767 E18.44866
G1 X130.502 Y102.011 E18.47115
G1 X131.082 Y102.291 E18.49365
G1 X131.813 Y102.789 E18.52454
G1 X132.215 Y103.116 E18.54263
G1 X132.689 Y103.553 E18.56515
G1 X133.079 Y104.01 E18.58613
G1 X133.335 Y104.348 E18.60094
G1 X133.692 Y104.885 E18.62346
G1 X134.035 Y105.6 E18.65115
G1 X134.275 Y106.216 E18.67424
G1 X134.472 Y106.83 E18.69676
G1 X134.59 Y107.464 E18.71928
G1 X134.63 Y108.072 E18.74056
G1 X134.669 Y114.472 E18.96407
G1 X134.666 Y114.667 E18.97088
G1 X134.559 Y118.075 E19.08996
G1 X134.679 Y125.163 E19.33753
G1 X134.68 Y125.261 E19.34095
G1 X134.67 Y130.509 E19.52423
G1 X134.667 Y130.663 E19.52961
G1 X134.559 Y134.076 E19.64886
G1 X134.679 Y141.178 E19.89692
G1 X134.68 Y141.317 E19.90177
G1 X134.625 Y146.955 E20.09868
G1 X134.579 Y147.598 E20.12119
G1 X134.453 Y148.23 E20.1437
G1 X134.251 Y148.84 E20.16614
G1 X133.995 Y149.478 E20.19015
G1 X133.718 Y150.061 E20.21269
G1 X133.225 Y150.796 E20.2436
G1 X132.937 Y151.155 E20.25967
G1 X132.503 Y151.632 E20.28219
G1 X132.006 Y152.057 E20.30503
G1 X131.591 Y152.369 E20.32316
G1 X131.052 Y152.724 E20.3457
G1 X130.346 Y153.061 E20.37302
G1 X129.807 Y153.27 E20.39321
G1 X129.193 Y153.466 E20.41572
G1 X128.559 Y153.583 E20.43823
G1 X128.168 Y153.616 E20.45194
G1 X126.919 Y153.674 E20.4956
G1 X126.646 Y153.68 E20.50514
G1 X117.029 Y153.62 E20.841
G1 X116.385 Y153.576 E20.86355
G1 X115.753 Y153.453 E20.88603
G1 X114.977 Y153.184 E20.91471
G1 X114.307 Y152.891 E20.94025
G1 X113.734 Y152.597 E20.96274
G1 X113.201 Y152.234 E20.98526
G1 X112.619 Y151.706 E21.01271
G1 X110.97 Y149.968 E21.09638
G1 X107.155 Y146.063 E21.28703
G1 X103.184 Y142.433 E21.47492
G1 X99.015 Y139.035 E21.66275
G1 X95.016 Y136.075 E21.8365
G1 X94.522 Y135.66 E21.85904
G1 X94.084 Y135.187 E21.88155
G1 X93.877 Y134.916 E21.89346
G1 X93.498 Y134.385 E21.91624
G1 X93.156 Y133.838 E21.93877
G1 X92.885 Y133.253 E21.96129
G1 X92.73 Y132.792 E21.97827
G1 X92.541 Y132.13 E22.00231
G1 X92.403 Y131.5 E22.02484
G1 X92.341 Y130.693 E22.0531
G1 X92.352 Y124.202 E22.27979
G1 X92.393 Y123.559 E22.30229
G1 X92.513 Y122.925 E22.32483
G1 X92.668 Y122.426 E22.34307
G1 X92.941 Y121.679 E22.37085
G1 X93.199 Y121.088 E22.39337
G1 X93.529 Y120.534 E22.41589
G1 X93.751 Y120.232 E22.42898
G1 X94.039 Y119.869 E22.44516
G1 X94.471 Y119.39 E22.46769
G1 X94.972 Y118.957 E22.49081
M204 S5000
M205 X30 Y30
G1 F3000 E16.49081
;MESH:btn_v5_2.stl
G0 F7200 X99.321 Y121.9
G0 X99.358 Y121.925
G0 X105.351 Y125.981
G0 X105.388 Y126.006
G0 X105.444 Y126.045
G0 X105.444 Y124.21
G0 X107.62 Y124.38
M204 S500
M205 X20 Y20
;TYPE:WALL-INNER
G1 F3000 E22.49081
G1 F900 X101.38 Y124.38 E22.70873
G1 X101.38 Y130.62 E22.92665
G1 X107.62 Y130.62 E23.14457
G1 X107.62 Y124.38 E23.3625
M204 S5000
M205 X30 Y30
G0 F7200 X107.22 Y124.78
M204 S500
M205 X20 Y20
G1 F900 X101.78 Y124.78 E23.55248
G1 X101.78 Y130.22 E23.74246
G1 X107.22 Y130.22 E23.93244
G1 X107.22 Y124.78 E24.12242
M204 S5000
M205 X30 Y30
G0 F7200 X106.82 Y125.18
M204 S500
M205 X20 Y20
;TYPE:WALL-OUTER
G1 F900 X102.18 Y125.18 E24.28447
G1 X102.18 Y129.82 E24.44651
G1 X106.82 Y129.82 E24.60855
G1 X106.82 Y125.18 E24.7706
M204 S5000
M205 X30 Y30
G0 F7200 X106.62 Y125.18
G0 X106.62 Y124.74
G1 F3000 E18.7706
G0 F7200 X101.952 Y124.952
G0 X101.184 Y130.816
G0 X101.184 Y131.27
G0 X101.217 Y131.268
G0 X101.137 Y131.27
G0 X98.972 Y131.324
M204 S500
M205 X20 Y20
;TYPE:WALL-INNER
G1 F3000 E24.7706
G1 F900 X98.895 Y131.269 E24.7739
G1 X98.807 Y131.191 E24.77801
G1 X98.741 Y131.117 E24.78147
G1 X98.669 Y131.015 E24.78583
G1 X98.612 Y130.91 E24.79
G1 X98.573 Y130.817 E24.79352
G1 X98.546 Y130.721 E24.79701
G1 X98.529 Y130.611 E24.80089
G1 X98.52 Y130.476 E24.80562
G1 X98.52 Y124.513 E25.01387
G1 X98.528 Y124.388 E25.01824
G1 X98.546 Y124.28 E25.02206
G1 X98.573 Y124.182 E25.02561
G1 X98.615 Y124.084 E25.02934
G1 X98.671 Y123.982 E25.0334
G1 X98.745 Y123.878 E25.03786
G1 X98.807 Y123.809 E25.0411
G1 X98.895 Y123.731 E25.04521
G1 X98.972 Y123.676 E25.04851
G1 X99.074 Y123.619 E25.05259
G1 X99.183 Y123.574 E25.05671
G1 X99.282 Y123.546 E25.0603
G1 X99.389 Y123.528 E25.06409
G1 X99.526 Y123.52 E25.06888
G1 X109.474 Y123.52 E25.4163
G1 X109.611 Y123.528 E25.42109
G1 X109.713 Y123.545 E25.4247
G1 X109.839 Y123.581 E25.42928
G1 X109.913 Y123.612 E25.43208
G1 X110.016 Y123.669 E25.43619
G1 X110.113 Y123.738 E25.44035
G1 X110.187 Y123.803 E25.44379
G1 X110.275 Y123.902 E25.44842
G1 X110.321 Y123.966 E25.45117
G1 X110.381 Y124.074 E25.45548
G1 X110.426 Y124.183 E25.4596
G1 X110.454 Y124.281 E25.46316
G1 X110.471 Y124.38 E25.46667
G1 X110.48 Y124.521 E25.4716
G1 X110.479 Y130.488 E25.67999
G1 X110.469 Y130.622 E25.68468
G1 X110.453 Y130.719 E25.68812
G1 X110.416 Y130.84 E25.69253
G1 X110.377 Y130.932 E25.69602
G1 X110.32 Y131.033 E25.70007
G1 X110.273 Y131.098 E25.70288
G1 X110.177 Y131.203 E25.70784
G1 X110.098 Y131.273 E25.71153
G1 X110.015 Y131.331 E25.71507
G1 X109.917 Y131.383 E25.71894
G1 X109.802 Y131.429 E25.72327
G1 X109.72 Y131.452 E25.72624
G1 X109.579 Y131.474 E25.73122
G1 X109.471 Y131.48 E25.735
G1 X99.526 Y131.48 E26.08231
G1 X99.389 Y131.472 E26.0871
G1 X99.282 Y131.454 E26.09089
G1 X99.183 Y131.426 E26.09449
G1 X99.074 Y131.381 E26.09861
G1 X98.972 Y131.324 E26.10269
M204 S5000
M205 X30 Y30
G0 F7200 X98.758 Y131.663
M204 S500
M205 X20 Y20
G1 F900 X98.65 Y131.586 E26.10732
G1 X98.52 Y131.47 E26.1134
G1 X98.426 Y131.365 E26.11832
G1 X98.33 Y131.229 E26.12414
G1 X98.258 Y131.098 E26.12936
G1 X98.245 Y131.066 E26.13056
G1 X98.195 Y130.949 E26.13501
