;FLAVOR:Marlin
;TIME:6083
;Filament used: 5.56568m
;Layer height: 0.2
;Generated with Cura_SteamEngine 3.4.1
M190 S60
M104 S200
M109 S200
M82 ;absolute extrusion mode
G28 ; home all axes
M117 Purge extruder
G92 E0 ; reset extruder
G1 Z1.0 F3000 ; move z up little to prevent scratching of surface
G1 X0.1 Y20 Z0.3 F5000.0 ; move to start-line position
G1 X0.1 Y200.0 Z0.3 F1500.0 E15 ; draw 1st line
G1 X0.4 Y200.0 Z0.3 F5000.0 ; move to side a little
G1 X0.4 Y20 Z0.3 F1500.0 E30 ; draw 2nd line
G92 E0 ; reset extruder
G1 Z1.0 F3000 ; move z up little to prevent scratching of surface
M117 All systems go!
G92 E0
G1 F3600 E-5
;LAYER_COUNT:71
;LAYER:0
M107
M204 S5000
M205 X30 Y30
G0 F7200 X90.971 Y69.427 Z0.2
M204 S500
M205 X20 Y20
;TYPE:SKIRT
G1 F3600 E0
G1 F900 X91.294 Y69.005 E0.02651
G1 X91.758 Y68.444 E0.06283
G1 X92.268 Y67.89 E0.1004
G1 X92.834 Y67.393 E0.13798
G1 X93.375 Y67.006 E0.17117
G1 X93.768 Y66.752 E0.19451
G1 X94.422 Y66.377 E0.23212
G1 X95.203 Y66.04 E0.27456
G1 X95.617 Y65.89 E0.29653
G1 X96.338 Y65.671 E0.33412
G1 X96.834 Y65.568 E0.3594
G1 X99.111 Y65.177 E0.47466
G1 X104.33 Y64.073 E0.7408
G1 X106.833 Y63.433 E0.86969
G1 X111.887 Y61.908 E1.13306
G1 X116.841 Y60.1 E1.39616
G1 X121.646 Y58.033 E1.65713
G1 X126.382 Y55.669 E1.92121
G1 X130.499 Y53.335 E2.15732
G1 X131.173 Y52.998 E2.19491
G1 X131.879 Y52.735 E2.2325
G1 X132.609 Y52.549 E2.27008
G1 X133.355 Y52.44 E2.30769
G1 X134.001 Y52.411 E2.33996
G1 X180.991 Y52.41 E4.6843
G1 X181.743 Y52.45 E4.72187
G1 X182.487 Y52.569 E4.75946
G1 X183.214 Y52.767 E4.79705
G1 X183.916 Y53.041 E4.83464
G1 X184.585 Y53.387 E4.87222
G1 X185.214 Y53.802 E4.90982
G1 X185.795 Y54.282 E4.94742
G1 X186.322 Y54.82 E4.98499
G1 X186.789 Y55.411 E5.02257
G1 X187.19 Y56.049 E5.06016
G1 X187.522 Y56.725 E5.09774
G1 X187.78 Y57.433 E5.13533
G1 X187.962 Y58.164 E5.17291
G1 X188.066 Y58.91 E5.21049
G1 X188.091 Y59.51 E5.24045
G1 X188.09 Y95.497 E7.03585
G1 X188.05 Y96.25 E7.07347
G1 X187.931 Y96.993 E7.11101
G1 X187.733 Y97.72 E7.1486
G1 X187.459 Y98.422 E7.1862
G1 X187.113 Y99.091 E7.22378
G1 X186.558 Y99.902 E7.2728
G1 X182.517 Y105.009 E7.59771
G1 X179.522 Y109.311 E7.85923
G1 X176.762 Y113.798 E8.12204
G1 X174.27 Y118.412 E8.38366
G1 X172.04 Y123.167 E8.64569
G1 X170.051 Y128.116 E8.91179
G1 X169.218 Y130.482 E9.03693
G1 X167.666 Y135.553 E9.30151
G1 X166.406 Y140.686 E9.56519
G1 X165.892 Y143.244 E9.69536
G1 X165.459 Y145.779 E9.82367
G1 X164.78 Y151.077 E10.09015
G1 X164.566 Y153.586 E10.21578
G1 X164.462 Y154.333 E10.2534
G1 X164.28 Y155.064 E10.29099
G1 X164.021 Y155.771 E10.32855
G1 X163.689 Y156.447 E10.36613
G1 X163.287 Y157.084 E10.40371
G1 X162.82 Y157.675 E10.44128
G1 X162.292 Y158.213 E10.47889
G1 X161.711 Y158.693 E10.51649
G1 X160.942 Y159.187 E10.56209
G1 X155.295 Y162.327 E10.88445
G1 X150.872 Y165.14 E11.14596
G1 X146.599 Y168.213 E11.40854
G1 X142.543 Y171.493 E11.66878
G1 X137.314 Y176.306 E12.02335
G1 X136.733 Y176.786 E12.06094
G1 X136.105 Y177.202 E12.09853
G1 X135.436 Y177.549 E12.13613
G1 X134.735 Y177.823 E12.17367
G1 X134.008 Y178.021 E12.21127
G1 X133.264 Y178.141 E12.24886
G1 X132.515 Y178.182 E12.28629
G1 X119.817 Y178.2 E12.91979
G1 X119.655 Y178.198 E12.92788
G1 X116.817 Y178.137 E13.0695
G1 X98.524 Y178.19 E13.98214
G1 X97.772 Y178.152 E14.01971
G1 X97.028 Y178.035 E14.05728
G1 X96.3 Y177.839 E14.0949
G1 X95.597 Y177.568 E14.13249
G1 X94.927 Y177.223 E14.17008
G1 X94.298 Y176.81 E14.20762
G1 X93.949 Y176.536 E14.22976
G1 X89.113 Y172.491 E14.5443
G1 X84.912 Y169.387 E14.8049
G1 X80.492 Y166.492 E15.0685
G1 X75.962 Y163.879 E15.32941
G1 X71.249 Y161.506 E15.59266
G1 X66.663 Y159.498 E15.84243
G1 X65.99 Y159.16 E15.88
G1 X65.356 Y158.752 E15.91761
G1 X64.769 Y158.279 E15.95522
G1 X64.236 Y157.747 E15.9928
G1 X63.762 Y157.162 E16.03036
G1 X63.353 Y156.529 E16.06796
G1 X63.013 Y155.857 E16.10553
G1 X62.746 Y155.152 E16.14314
G1 X62.555 Y154.423 E16.18074
G1 X62.443 Y153.678 E16.21833
G1 X62.41 Y152.994 E16.25249
G1 X62.41 Y134.01 E17.19961
G1 X62.45 Y133.258 E17.23718
G1 X62.627 Y132.267 E17.2874
G1 X64.333 Y125.533 E17.63397
G1 X64.821 Y123.117 E17.75694
G1 X65.652 Y117.879 E18.02154
G1 X66.184 Y112.629 E18.2848
G1 X66.418 Y107.67 E18.53248
G1 X66.493 Y106.92 E18.57009
G1 X66.648 Y106.183 E18.60766
G1 X66.879 Y105.466 E18.64524
G1 X67.185 Y104.777 E18.68285
G1 X67.563 Y104.125 E18.72045
G1 X68.007 Y103.517 E18.75801
G1 X68.441 Y103.032 E18.79048
G1 X72.016 Y99.388 E19.04517
G1 X75.483 Y95.445 E19.30711
G1 X78.727 Y91.306 E19.56947
G1 X81.729 Y86.995 E19.83156
G1 X84.482 Y82.519 E20.09373
G1 X86.974 Y77.905 E20.35535
G1 X89.245 Y73.06 E20.6223
G1 X90.236 Y70.74 E20.74816
G1 X90.568 Y70.064 E20.78574
G1 X90.971 Y69.427 E20.82334
M204 S5000
M205 X30 Y30
G0 F7200 X91.496 Y69.723
M204 S500
M205 X20 Y20
G1 F900 X91.756 Y69.387 E20.84454
G1 X92.22 Y68.826 E20.88086
G1 X92.71 Y68.297 E20.91684
G1 X93.255 Y67.825 E20.95281
G1 X93.701 Y67.51 E20.98005
G1 X94.094 Y67.256 E21.00339
G1 X94.72 Y66.899 E21.03935
G1 X95.408 Y66.604 E21.07669
G1 X95.822 Y66.454 E21.09866
G1 X96.512 Y66.246 E21.13461
G1 X96.935 Y66.159 E21.15616
G1 X99.234 Y65.764 E21.27254
G1 X104.48 Y64.655 E21.54005
G1 X106.971 Y64.018 E21.66832
G1 X112.092 Y62.472 E21.9352
G1 X117.052 Y60.662 E22.19862
G1 X121.904 Y58.575 E22.46213
G1 X126.663 Y56.2 E22.72748
G1 X130.795 Y53.857 E22.96446
G1 X131.441 Y53.536 E23.00045
G1 X132.118 Y53.29 E23.03638
G1 X132.819 Y53.119 E23.07238
G1 X133.534 Y53.028 E23.10834
G1 X134.001 Y53.011 E23.13166
G1 X180.991 Y53.01 E25.476
G1 X181.711 Y53.05 E25.51197
G1 X182.421 Y53.169 E25.54789
G1 X183.115 Y53.367 E25.58389
G1 X183.782 Y53.64 E25.61985
G1 X184.415 Y53.985 E25.65582
G1 X185.005 Y54.398 E25.69175
G1 X185.547 Y54.874 E25.72774
G1 X186.032 Y55.407 E25.76369
G1 X186.456 Y55.99 E25.79965
G1 X186.812 Y56.617 E25.83562
G1 X187.096 Y57.279 E25.87156
G1 X187.306 Y57.969 E25.90755
G1 X187.437 Y58.678 E25.94352
G1 X187.491 Y59.51 E25.98511
G1 X187.49 Y95.497 E27.78051
G1 X187.45 Y96.217 E27.81649
G1 X187.331 Y96.928 E27.85245
G1 X187.133 Y97.621 E27.88841
G1 X186.86 Y98.288 E27.92437
G1 X186.515 Y98.921 E27.96033
G1 X186.087 Y99.53 E27.99747
G1 X182.031 Y104.656 E28.32358
G1 X179.019 Y108.983 E28.58661
G1 X176.242 Y113.496 E28.85097
G1 X173.739 Y118.132 E29.11382
G1 X171.487 Y122.935 E29.37848
G1 X169.493 Y127.896 E29.64523
G1 X168.644 Y130.304 E29.77261
G1 X167.092 Y135.375 E30.03719
G1 X165.819 Y140.565 E30.30379
G1 X165.297 Y143.162 E30.43595
G1 X164.868 Y145.676 E30.56319
G1 X164.183 Y151.018 E30.83188
G1 X163.968 Y153.535 E30.95791
G1 X163.867 Y154.249 E30.99389
G1 X163.688 Y154.947 E31.02984
G1 X163.432 Y155.621 E31.06581
G1 X163.103 Y156.263 E31.1018
G1 X162.706 Y156.864 E31.13773
G1 X162.244 Y157.417 E31.17368
G1 X161.723 Y157.916 E31.20968
G1 X161.151 Y158.354 E31.24562
G1 X160.651 Y158.663 E31.27494
G1 X154.983 Y161.815 E31.5985
G1 X150.528 Y164.648 E31.8619
G1 X146.239 Y167.733 E32.12548
G1 X142.141 Y171.046 E32.38839
G1 X136.907 Y175.864 E32.7433
G1 X136.351 Y176.322 E32.77924
G1 X135.747 Y176.716 E32.81522
G1 X135.103 Y177.04 E32.85118
G1 X134.427 Y177.291 E32.88716
G1 X133.728 Y177.466 E32.92311
G1 X133.014 Y177.562 E32.95905
G1 X132.514 Y177.582 E32.98402
G1 X119.816 Y177.6 E33.61752
G1 X119.668 Y177.599 E33.62491
G1 X116.787 Y177.537 E33.76867
G1 X98.523 Y177.59 E34.67987
G1 X97.803 Y177.552 E34.71584
G1 X97.092 Y177.435 E34.75179
G1 X96.398 Y177.239 E34.78777
G1 X95.73 Y176.968 E34.82374
G1 X95.096 Y176.625 E34.8597
G1 X94.333 Y176.076 E34.90659
G1 X89.484 Y172.02 E35.22199
G1 X85.241 Y168.885 E35.48518
G1 X80.825 Y165.993 E35.74854
G1 X76.228 Y163.341 E36.01331
G1 X71.506 Y160.963 E36.27708
G1 X66.903 Y158.948 E36.52776
G1 X66.26 Y158.623 E36.56371
G1 X65.657 Y158.229 E36.59965
G1 X65.101 Y157.77 E36.63562
G1 X64.599 Y157.252 E36.6716
G1 X64.158 Y156.682 E36.70756
G1 X63.782 Y156.067 E36.74352
G1 X63.477 Y155.414 E36.77948
G1 X63.246 Y154.731 E36.81545
G1 X63.093 Y154.027 E36.85139
G1 X63.01 Y152.994 E36.90309
G1 X63.01 Y134.01 E37.85021
G1 X63.05 Y133.29 E37.88619
G1 X63.209 Y132.414 E37.9306
G1 X64.917 Y125.673 E38.27754
G1 X65.409 Y123.235 E38.40162
G1 X66.249 Y117.944 E38.6689
G1 X66.782 Y112.681 E38.93282
G1 X67.017 Y107.698 E39.18169
G1 X67.091 Y106.981 E39.21766
G1 X67.244 Y106.276 E39.25365
G1 X67.474 Y105.593 E39.2896
G1 X67.778 Y104.94 E39.32554
G1 X68.152 Y104.324 E39.36149
G1 X68.593 Y103.753 E39.39749
G1 X68.87 Y103.452 E39.41789
G1 X72.453 Y99.799 E39.67317
G1 X75.939 Y95.834 E39.93657
G1 X79.21 Y91.663 E40.20102
G1 X82.231 Y87.324 E40.4648
G1 X85.008 Y82.808 E40.72929
G1 X87.513 Y78.17 E40.99227
G1 X89.787 Y73.318 E41.25961
G1 X90.788 Y70.976 E41.38667
G1 X91.107 Y70.33 E41.42262
G1 X91.496 Y69.723 E41.45859
M204 S5000
M205 X30 Y30
G0 F7200 X92.219 Y69.77
M204 S500
M205 X20 Y20
G1 F900 X92.683 Y69.209 E41.49491
G1 X93.15 Y68.706 E41.52915
G1 X93.673 Y68.261 E41.56341
G1 X94.026 Y68.014 E41.58491
G1 X94.419 Y67.76 E41.60825
G1 X95.017 Y67.421 E41.64255
G1 X95.612 Y67.168 E41.6748
G1 X96.026 Y67.018 E41.69677
G1 X96.684 Y66.822 E41.73102
G1 X97.037 Y66.75 E41.749
G1 X99.358 Y66.351 E41.86649
G1 X104.608 Y65.241 E42.13421
G1 X107.154 Y64.59 E42.26531
G1 X112.271 Y63.046 E42.53197
G1 X117.269 Y61.222 E42.79741
G1 X122.162 Y59.117 E43.06315
G1 X126.944 Y56.731 E43.32977
G1 X131.091 Y54.379 E43.56763
G1 X131.707 Y54.075 E43.6019
G1 X132.354 Y53.845 E43.63616
G1 X133.024 Y53.693 E43.67043
G1 X134.001 Y53.611 E43.71935
G1 X180.991 Y53.61 E46.06369
G1 X181.676 Y53.65 E46.09792
G1 X182.353 Y53.769 E46.13221
G1 X183.011 Y53.966 E46.16648
G1 X183.641 Y54.239 E46.20074
G1 X184.236 Y54.582 E46.235
G1 X184.786 Y54.993 E46.26925
G1 X185.285 Y55.464 E46.30349
G1 X185.726 Y55.991 E46.33777
G1 X186.103 Y56.565 E46.37203
G1 X186.411 Y57.179 E46.4063
G1 X186.645 Y57.824 E46.44053
G1 X186.803 Y58.493 E46.47483
G1 X186.891 Y59.51 E46.52576
G1 X186.89 Y95.497 E48.32116
G1 X186.85 Y96.183 E48.35544
G1 X186.731 Y96.859 E48.38968
G1 X186.533 Y97.517 E48.42397
G1 X186.261 Y98.147 E48.4582
G1 X185.918 Y98.742 E48.49246
G1 X185.617 Y99.158 E48.51808
G1 X181.546 Y104.303 E48.8454
G1 X178.511 Y108.661 E49.11035
G1 X175.725 Y113.191 E49.37568
G1 X173.204 Y117.861 E49.64044
G1 X170.933 Y122.703 E49.90726
G1 X168.931 Y127.683 E50.17504
G1 X168.083 Y130.09 E50.30236
G1 X166.509 Y135.236 E50.57084
G1 X165.231 Y140.444 E50.83837
G1 X164.714 Y143.015 E50.96921
G1 X164.273 Y145.594 E51.09974
G1 X163.588 Y150.939 E51.36859
G1 X163.371 Y153.484 E51.49602
G1 X163.272 Y154.164 E51.5303
G1 X163.096 Y154.828 E51.56457
G1 X162.844 Y155.466 E51.5988
G1 X162.519 Y156.071 E51.63306
G1 X162.126 Y156.634 E51.66731
G1 X161.67 Y157.148 E51.70159
G1 X161.157 Y157.605 E51.73587
G1 X160.359 Y158.138 E51.78375
G1 X154.677 Y161.297 E52.10809
G1 X150.204 Y164.142 E52.37256
G1 X145.868 Y167.261 E52.63904
G1 X141.757 Y170.584 E52.90276
G1 X136.501 Y175.423 E53.25919
G1 X135.97 Y175.858 E53.29344
G1 X135.391 Y176.228 E53.32772
G1 X134.774 Y176.528 E53.36195
G1 X134.125 Y176.755 E53.39625
G1 X133.455 Y176.905 E53.4305
G1 X132.513 Y176.982 E53.47766
G1 X119.815 Y177 E54.11116
G1 X119.681 Y176.999 E54.11785
G1 X116.798 Y176.937 E54.26172
G1 X98.521 Y176.99 E55.17356
G1 X97.835 Y176.952 E55.20784
G1 X97.159 Y176.835 E55.24207
G1 X96.5 Y176.639 E55.27637
G1 X95.869 Y176.369 E55.31061
G1 X95.274 Y176.027 E55.34485
G1 X94.718 Y175.615 E55.37937
G1 X89.855 Y171.547 E55.69569
G1 X85.59 Y168.396 E55.96024
G1 X81.137 Y165.48 E56.2258
G1 X76.516 Y162.814 E56.49196
G1 X71.772 Y160.425 E56.75695
G1 X67.144 Y158.399 E57.009
G1 X66.532 Y158.087 E57.04327
G1 X65.96 Y157.707 E57.07753
G1 X65.437 Y157.262 E57.11179
G1 X64.968 Y156.76 E57.14606
G1 X64.561 Y156.207 E57.18032
G1 X64.222 Y155.61 E57.21457
G1 X63.954 Y154.978 E57.24882
G1 X63.761 Y154.319 E57.28308
G1 X63.646 Y153.642 E57.31734
G1 X63.61 Y152.994 E57.34972
G1 X63.61 Y134.01 E58.29683
G1 X63.65 Y133.324 E58.33111
G1 X63.791 Y132.561 E58.36983
G1 X65.5 Y125.813 E58.71711
G1 X66.002 Y123.33 E58.8435
G1 X66.845 Y118.019 E59.11178
G1 X67.382 Y112.714 E59.3778
G1 X67.617 Y107.726 E59.62693
G1 X67.689 Y107.043 E59.66119
G1 X67.84 Y106.373 E59.69546
G1 X68.068 Y105.726 E59.72968
G1 X68.369 Y105.109 E59.76393
G1 X68.741 Y104.531 E59.79823
G1 X69.298 Y103.872 E59.84127
G1 X72.89 Y100.21 E60.09719
G1 X76.414 Y96.203 E60.36341
G1 X79.693 Y92.019 E60.62862
G1 X82.726 Y87.665 E60.89335
G1 X85.53 Y83.104 E61.16046
G1 X88.048 Y78.442 E61.42481
G1 X90.34 Y73.552 E61.69424
G1 X91.34 Y71.212 E61.82119
G1 X91.646 Y70.597 E61.85547
G1 X92.219 Y69.77 E61.90566
M204 S5000
M205 X30 Y30
G0 F7200 X92.681 Y70.152
M204 S500
M205 X20 Y20
G1 F900 X93.145 Y69.591 E61.94198
G1 X93.59 Y69.116 E61.97445
G1 X94.352 Y68.518 E62.02278
G1 X94.745 Y68.264 E62.04612
G1 X95.312 Y67.945 E62.07858
G1 X95.817 Y67.732 E62.10593
G1 X96.231 Y67.582 E62.12789
G1 X97.138 Y67.342 E62.1747
G1 X99.455 Y66.944 E62.29199
G1 X104.741 Y65.826 E62.56154
G1 X107.308 Y65.17 E62.69373
G1 X112.461 Y63.615 E62.96226
G1 X117.496 Y61.777 E63.22967
G1 X122.421 Y59.659 E63.49714
G1 X127.224 Y57.261 E63.76497
G1 X131.387 Y54.901 E64.00371
G1 X131.972 Y54.615 E64.0362
G1 X132.587 Y54.403 E64.06866
G1 X133.224 Y54.268 E64.10114
G1 X134.001 Y54.211 E64.14001
G1 X180.991 Y54.21 E66.48435
G1 X181.641 Y54.25 E66.51684
G1 X182.28 Y54.369 E66.54927
G1 X182.901 Y54.566 E66.58177
G1 X183.492 Y54.837 E66.61421
G1 X184.046 Y55.179 E66.64669
G1 X184.554 Y55.586 E66.67917
G1 X185.008 Y56.053 E66.71166
G1 X185.401 Y56.571 E66.7441
G1 X185.728 Y57.134 E66.77658
G1 X185.984 Y57.732 E66.80903
G1 X186.164 Y58.358 E66.84153
G1 X186.266 Y59.001 E66.87401
G1 X186.291 Y59.51 E66.89944
G1 X186.29 Y95.497 E68.69484
G1 X186.25 Y96.147 E68.72733
G1 X186.131 Y96.787 E68.7598
G1 X185.934 Y97.407 E68.79226
G1 X185.663 Y97.999 E68.82474
G1 X185.146 Y98.786 E68.87172
G1 X181.066 Y103.943 E69.19979
G1 X178.012 Y108.329 E69.46643
G1 X175.211 Y112.882 E69.73312
G1 X172.662 Y117.603 E70.00079
G1 X170.386 Y122.456 E70.26821
G1 X168.366 Y127.483 E70.5385
G1 X167.51 Y129.912 E70.66699
G1 X165.93 Y135.075 E70.93636
G1 X164.647 Y140.305 E71.20502
G1 X164.12 Y142.926 E71.3384
G1 X163.682 Y145.488 E71.46808
G1 X162.991 Y150.883 E71.73943
G1 X162.773 Y153.433 E71.86712
G1 X162.678 Y154.077 E71.89959
G1 X162.504 Y154.704 E71.93206
G1 X162.255 Y155.306 E71.96456
G1 X161.935 Y155.872 E71.997
G1 X161.547 Y156.395 E72.02949
G1 X161.098 Y156.866 E72.06195
G1 X160.595 Y157.279 E72.09442
G1 X160.068 Y157.614 E72.12558
G1 X154.365 Y160.785 E72.45112
G1 X149.868 Y163.645 E72.71701
G1 X145.509 Y166.781 E72.98491
G1 X141.356 Y170.137 E73.2513
G1 X136.095 Y174.981 E73.60809
G1 X135.59 Y175.392 E73.64057
G1 X135.038 Y175.737 E73.67304
G1 X134.448 Y176.013 E73.70554
G1 X133.829 Y176.214 E73.73801
G1 X133.19 Y176.337 E73.77048
G1 X132.513 Y176.382 E73.80433
G1 X119.815 Y176.4 E74.43783
G1 X119.693 Y176.399 E74.44392
G1 X116.808 Y176.337 E74.58789
G1 X98.519 Y176.39 E75.50033
G1 X97.87 Y176.352 E75.53277
G1 X97.229 Y176.234 E75.56528
G1 X96.608 Y176.039 E75.59776
G1 X96.016 Y175.77 E75.6302
G1 X95.461 Y175.43 E75.66267
G1 X95.103 Y175.155 E75.68519
G1 X90.227 Y171.076 E76.00235
G1 X85.935 Y167.905 E76.26858
G1 X81.442 Y164.962 E76.53655
G1 X76.817 Y162.295 E76.8029
G1 X72.007 Y159.872 E77.0716
G1 X67.385 Y157.849 E77.32332
G1 X66.805 Y157.552 E77.35582
G1 X66.267 Y157.186 E77.38829
G1 X65.778 Y156.757 E77.42074
G1 X65.345 Y156.271 E77.45322
G1 X64.974 Y155.736 E77.4857
G1 X64.673 Y155.159 E77.51817
G1 X64.444 Y154.55 E77.55063
G1 X64.291 Y153.917 E77.58312
G1 X64.21 Y152.994 E77.62934
G1 X64.21 Y134.01 E78.57646
G1 X64.25 Y133.36 E78.60895
G1 X64.372 Y132.709 E78.64199
G1 X66.087 Y125.939 E78.99042
G1 X66.594 Y123.426 E79.11832
G1 X67.438 Y118.111 E79.38681
G1 X67.98 Y112.767 E79.65479
G1 X68.216 Y107.754 E79.90516
G1 X68.286 Y107.107 E79.93763
G1 X68.436 Y106.474 E79.97009
G1 X68.661 Y105.864 E80.00252
G1 X68.96 Y105.285 E80.03503
G1 X69.328 Y104.748 E80.06751
G1 X69.726 Y104.293 E80.09767
G1 X73.328 Y100.621 E80.35429
G1 X76.87 Y96.592 E80.62193
G1 X80.176 Y92.375 E80.88926
G1 X83.233 Y87.986 E81.15611
G1 X86.04 Y83.422 E81.42343
